; G-Code generated by Simplify3D(R) Version 4.1.2
; Mar 8, 2022 at 9:21:14 PM
; Settings Summary
;   processName,PETG 0.2425 Quick and Dirty 40% Infill
;   applyToModels,120F3 ESC Mount Main Part,120F3 ESC Mount Main Part(2)
;   profileName,Anycubic Kossel Plus (modified)
;   profileVersion,2018-01-19 08:00:00
;   baseProfile,
;   printMaterial,PETG
;   printQuality,Medium
;   printExtruders,
;   extruderName,Primary Extruder
;   extruderToolheadNumber,0
;   extruderDiameter,0.4
;   extruderAutoWidth,0
;   extruderWidth,0.4
;   extrusionMultiplier,0.9
;   extruderUseRetract,1
;   extruderRetractionDistance,6
;   extruderExtraRestartDistance,0
;   extruderRetractionZLift,0.5
;   extruderRetractionSpeed,3600
;   extruderUseCoasting,0
;   extruderCoastingDistance,1
;   extruderUseWipe,0
;   extruderWipeDistance,5
;   primaryExtruder,0
;   layerHeight,0.2417
;   topSolidLayers,4
;   bottomSolidLayers,4
;   perimeterOutlines,4
;   printPerimetersInsideOut,1
;   startPointOption,2
;   startPointOriginX,0
;   startPointOriginY,0
;   sequentialIslands,0
;   spiralVaseMode,0
;   firstLayerHeightPercentage,90
;   firstLayerWidthPercentage,100
;   firstLayerUnderspeed,0.5
;   useRaft,0
;   raftExtruder,0
;   raftTopLayers,3
;   raftBaseLayers,2
;   raftOffset,3
;   raftSeparationDistance,0.14
;   raftTopInfill,100
;   aboveRaftSpeedMultiplier,0.3
;   useSkirt,1
;   skirtExtruder,0
;   skirtLayers,1
;   skirtOutlines,3
;   skirtOffset,4
;   usePrimePillar,0
;   primePillarExtruder,999
;   primePillarWidth,12
;   primePillarLocation,7
;   primePillarSpeedMultiplier,1
;   useOozeShield,0
;   oozeShieldExtruder,999
;   oozeShieldOffset,2
;   oozeShieldOutlines,1
;   oozeShieldSidewallShape,1
;   oozeShieldSidewallAngle,30
;   oozeShieldSpeedMultiplier,1
;   infillExtruder,0
;   internalInfillPattern,Triangular
;   externalInfillPattern,Rectilinear
;   infillPercentage,40
;   outlineOverlapPercentage,15
;   infillExtrusionWidthPercentage,150
;   minInfillLength,5
;   infillLayerInterval,1
;   internalInfillAngles,0,60,-60
;   overlapInternalInfillAngles,1
;   externalInfillAngles,45,-45
;   generateSupport,1
;   supportExtruder,0
;   supportInfillPercentage,20
;   supportExtraInflation,0.8
;   supportBaseLayers,0
;   denseSupportExtruder,0
;   denseSupportLayers,0
;   denseSupportInfillPercentage,70
;   supportLayerInterval,1
;   supportHorizontalPartOffset,0.8
;   supportUpperSeparationLayers,1
;   supportLowerSeparationLayers,1
;   supportType,0
;   supportGridSpacing,4
;   maxOverhangAngle,45
;   supportAngles,0
;   temperatureName,Primary Extruder,Heated Bed
;   temperatureNumber,0,1
;   temperatureSetpointCount,1,1
;   temperatureSetpointLayers,1,1
;   temperatureSetpointTemperatures,235,70
;   temperatureStabilizeAtStartup,1,1
;   temperatureHeatedBed,0,1
;   fanLayers,1
;   fanSpeeds,0
;   blipFanToFullPower,1
;   adjustSpeedForCooling,1
;   minSpeedLayerTime,15
;   minCoolingSpeedSlowdown,20
;   increaseFanForCooling,0
;   minFanLayerTime,60
;   maxCoolingFanSpeed,100
;   increaseFanForBridging,0
;   bridgingFanSpeed,100
;   use5D,1
;   relativeEdistances,0
;   allowEaxisZeroing,1
;   independentExtruderAxes,0
;   includeM10123,0
;   stickySupport,1
;   applyToolheadOffsets,0
;   gcodeXoffset,0
;   gcodeYoffset,0
;   gcodeZoffset,0
;   overrideMachineDefinition,1
;   machineTypeOverride,1
;   strokeXoverride,162.6
;   strokeYoverride,162.6
;   strokeZoverride,330
;   originOffsetXoverride,81.3
;   originOffsetYoverride,81.3
;   originOffsetZoverride,0
;   homeXdirOverride,0
;   homeYdirOverride,0
;   homeZdirOverride,1
;   flipXoverride,1
;   flipYoverride,-1
;   flipZoverride,1
;   toolheadOffsets,0,0|0,0|0,0|0,0|0,0|0,0
;   overrideFirmwareConfiguration,0
;   firmwareTypeOverride,RepRap (Marlin/Repetier/Sprinter)
;   GPXconfigOverride,r2
;   baudRateOverride,250000
;   overridePrinterModels,1
;   printerModelsOverride
;   startingGcode,G1 E25 F200        ; prime extruder by extruding 15mm of material,; Squirt and wipe ;,M109 S225         ; Wait for the temp to hit 225,G00 X125 Y-60 Z0.1 F5000,G92 E0,G01 E25 F100        ; Extrude a little bit to replace oozage from auto levelling,G01 X90 Y-50 F6000,G01 Z5     
;   layerChangeGcode,
;   retractionGcode,
;   toolChangeGcode,
;   endingGcode,G1 Z100    ; move hot-end up 50mm,G01 E-15 F200,,M104 S0     ; turn off extruder,M140 S0    ; turn off bed,;M84     ; disable motors
;   exportFileFormat,gcode
;   celebration,0
;   celebrationSong,Random Song
;   postProcessing,
;   defaultSpeed,4800
;   outlineUnderspeed,0.5
;   solidInfillUnderspeed,0.8
;   supportUnderspeed,0.8
;   rapidXYspeed,9000
;   rapidZspeed,2400
;   minBridgingArea,50
;   bridgingExtraInflation,0
;   bridgingExtrusionMultiplier,0.95
;   bridgingSpeedMultiplier,0.7
;   useFixedBridgingAngle,0
;   fixedBridgingAngle,0
;   applyBridgingToPerimeters,0
;   filamentDiameters,1.75|1.75|1.75|1.75|1.75|1.75
;   filamentPricesPerKg,46|46|46|46|46|46
;   filamentDensities,1.25|1.25|1.25|1.25|1.25|1.25
;   useMinPrintHeight,0
;   minPrintHeight,0
;   useMaxPrintHeight,0
;   maxPrintHeight,0
;   useDiaphragm,0
;   diaphragmLayerInterval,20
;   robustSlicing,1
;   mergeAllIntoSolid,0
;   onlyRetractWhenCrossingOutline,1
;   retractBetweenLayers,1
;   useRetractionMinTravel,0
;   retractionMinTravel,3
;   retractWhileWiping,0
;   onlyWipeOutlines,1
;   avoidCrossingOutline,0
;   maxMovementDetourFactor,3
;   toolChangeRetractionDistance,12
;   toolChangeExtraRestartDistance,-0.5
;   toolChangeRetractionSpeed,600
;   externalThinWallType,1
;   internalThinWallType,2
;   thinWallAllowedOverlapPercentage,15
;   singleExtrusionMinLength,1
;   singleExtrusionMinPrintingWidthPercentage,50
;   singleExtrusionMaxPrintingWidthPercentage,200
;   singleExtrusionEndpointExtension,0.2
;   horizontalSizeCompensation,0
G90
M82
M106 S0
M140 S70
M190 S70
M104 S235 T0
M109 S235 T0
G1 E25 F200        ; prime extruder by extruding 15mm of material
; Squirt and wipe ;
M109 S225         ; Wait for the temp to hit 225
G00 X125 Y-60 Z0.1 F5000
G92 E0
G01 E25 F100        ; Extrude a little bit to replace oozage from auto levelling
G01 X90 Y-50 F6000
G01 Z5     
; process PETG 0.2425 Quick and Dirty 40% Infill
; layer 1, Z = 0.218
T0
G92 E0.0000
G1 E-6.0000 F3600
; feature skirt
; tool H0.218 W0.400
G1 Z0.500 F2400
G1 X13.716 Y28.683 F9000
G1 Z0.218 F2400
G1 E0.0000 F3600
G92 E0.0000
G1 X13.716 Y28.865 E0.0060 F2400
G1 X13.663 Y29.375 E0.0226
G1 X13.458 Y30.363 E0.0555
G1 X13.345 Y30.749 E0.0686
G1 X12.996 Y31.661 E0.1004
G1 X12.800 Y32.062 E0.1149
G1 X11.660 Y33.947 E0.1866
G1 X9.372 Y35.236 E0.2721
G1 X0.437 Y35.234 E0.5630
G1 X0.000 Y34.797 E0.5832
G1 X-0.437 Y35.234 E0.6033
G1 X-9.373 Y35.236 E0.8942
G1 X-11.660 Y33.947 E0.9797
G1 X-12.800 Y32.061 E1.0514
G1 X-12.996 Y31.660 E1.0660
G1 X-13.345 Y30.749 E1.0977
G1 X-13.458 Y30.363 E1.1108
G1 X-13.663 Y29.375 E1.1437
G1 X-13.716 Y28.865 E1.1604
G1 X-13.716 Y28.683 E1.1663
G1 X-27.392 Y28.683 E1.6116
G1 X-27.392 Y28.865 E1.6175
G1 X-27.445 Y29.375 E1.6342
G1 X-27.650 Y30.363 E1.6671
G1 X-27.763 Y30.749 E1.6802
G1 X-28.112 Y31.660 E1.7119
G1 X-28.308 Y32.062 E1.7265
G1 X-29.448 Y33.947 E1.7982
G1 X-31.736 Y35.236 E1.8837
G1 X-40.671 Y35.234 E2.1746
G1 X-43.599 Y32.307 E2.3094
G1 X-43.607 Y14.058 E2.9036
G1 X-44.574 Y13.091 E2.9481
G1 X-44.574 Y-5.091 E3.5401
G1 X-43.607 Y-6.058 E3.5846
G1 X-43.599 Y-32.306 E4.4392
G1 X-40.671 Y-35.234 E4.5740
G1 X-31.794 Y-35.236 E4.8630
G1 X-29.583 Y-34.053 E4.9446
G1 X-28.603 Y-32.584 E5.0022
G1 X-28.459 Y-32.338 E5.0114
G1 X-28.144 Y-31.724 E5.0339
G1 X-28.021 Y-31.445 E5.0438
G1 X-27.748 Y-30.701 E5.0696
G1 X-27.646 Y-30.346 E5.0816
G1 X-27.445 Y-29.375 E5.1139
G1 X-27.392 Y-28.865 E5.1306
G1 X-27.392 Y-28.683 E5.1366
G1 X-13.716 Y-28.683 E5.5818
G1 X-13.716 Y-28.865 E5.5878
G1 X-13.663 Y-29.375 E5.6045
G1 X-13.458 Y-30.363 E5.6373
G1 X-13.345 Y-30.749 E5.6504
G1 X-12.996 Y-31.661 E5.6822
G1 X-12.800 Y-32.062 E5.6967
G1 X-11.660 Y-33.947 E5.7685
G1 X-9.372 Y-35.236 E5.8540
G1 X-0.437 Y-35.234 E6.1449
G1 X-0.000 Y-34.797 E6.1650
G1 X0.437 Y-35.234 E6.1851
G1 X9.314 Y-35.236 E6.4741
G1 X11.525 Y-34.053 E6.5558
G1 X12.505 Y-32.584 E6.6133
G1 X12.649 Y-32.338 E6.6225
G1 X12.964 Y-31.724 E6.6450
G1 X13.087 Y-31.445 E6.6550
G1 X13.360 Y-30.701 E6.6808
G1 X13.462 Y-30.347 E6.6928
G1 X13.663 Y-29.375 E6.7251
G1 X13.716 Y-28.865 E6.7418
G1 X13.716 Y-28.683 E6.7477
G1 X27.392 Y-28.683 E7.1930
G1 X27.392 Y-28.865 E7.1989
G1 X27.445 Y-29.375 E7.2156
G1 X27.650 Y-30.363 E7.2485
G1 X27.763 Y-30.749 E7.2615
G1 X28.112 Y-31.661 E7.2933
G1 X28.308 Y-32.062 E7.3079
G1 X29.448 Y-33.947 E7.3796
G1 X31.736 Y-35.236 E7.4651
G1 X40.671 Y-35.234 E7.7560
G1 X43.599 Y-32.306 E7.8908
G1 X43.607 Y-6.058 E8.7454
G1 X44.574 Y-5.091 E8.7899
G1 X44.574 Y13.091 E9.3819
G1 X43.607 Y14.058 E9.4264
G1 X43.599 Y32.307 E10.0206
G1 X40.671 Y35.234 E10.1554
G1 X31.736 Y35.236 E10.4463
G1 X29.448 Y33.947 E10.5318
G1 X28.308 Y32.061 E10.6035
G1 X28.112 Y31.660 E10.6181
G1 X27.763 Y30.749 E10.6498
G1 X27.650 Y30.363 E10.6629
G1 X27.445 Y29.375 E10.6958
G1 X27.392 Y28.865 E10.7125
G1 X27.392 Y28.683 E10.7184
G1 X13.716 Y28.683 E11.1637
G92 E0.0000
G1 E-6.0000 F3600
G1 Z0.718 F2400
G1 X13.316 Y28.845 F9000
G1 Z0.218 F2400
G1 E0.0000 F3600
G92 E0.0000
G1 X13.268 Y29.314 E0.0153 F2400
G1 X13.070 Y30.266 E0.0470
G1 X12.966 Y30.621 E0.0591
G1 X12.629 Y31.501 E0.0897
G1 X12.449 Y31.870 E0.1031
G1 X11.372 Y33.650 E0.1708
G1 X9.268 Y34.836 E0.2495
G1 X0.603 Y34.834 E0.5316
G1 X0.000 Y34.231 E0.5593
G1 X-0.603 Y34.834 E0.5871
G1 X-9.268 Y34.836 E0.8692
G1 X-11.372 Y33.650 E0.9479
G1 X-12.449 Y31.870 E1.0156
G1 X-12.629 Y31.501 E1.0290
G1 X-12.966 Y30.621 E1.0596
G1 X-13.070 Y30.266 E1.0717
G1 X-13.268 Y29.314 E1.1033
G1 X-13.316 Y28.845 E1.1187
G1 X-13.316 Y28.283 E1.1370
G1 X-27.792 Y28.283 E1.6083
G1 X-27.792 Y28.845 E1.6266
G1 X-27.840 Y29.314 E1.6420
G1 X-28.038 Y30.266 E1.6736
G1 X-28.142 Y30.621 E1.6857
G1 X-28.479 Y31.501 E1.7163
G1 X-28.659 Y31.870 E1.7297
G1 X-29.736 Y33.650 E1.7975
G1 X-31.840 Y34.836 E1.8761
G1 X-40.505 Y34.834 E2.1582
G1 X-43.199 Y32.141 E2.2822
G1 X-43.207 Y13.893 E2.8764
G1 X-44.174 Y12.925 E2.9209
G1 X-44.174 Y-4.925 E3.5021
G1 X-43.207 Y-5.893 E3.5466
G1 X-43.199 Y-32.141 E4.4012
G1 X-40.506 Y-34.834 E4.5252
G1 X-31.895 Y-34.836 E4.8056
G1 X-29.860 Y-33.748 E4.8807
G1 X-28.942 Y-32.371 E4.9346
G1 X-28.809 Y-32.146 E4.9431
G1 X-28.505 Y-31.553 E4.9648
G1 X-28.392 Y-31.295 E4.9739
G1 X-28.128 Y-30.577 E4.9988
G1 X-28.035 Y-30.251 E5.0099
G1 X-27.840 Y-29.314 E5.0410
G1 X-27.792 Y-28.845 E5.0564
G1 X-27.792 Y-28.283 E5.0747
G1 X-13.316 Y-28.283 E5.5460
G1 X-13.316 Y-28.845 E5.5643
G1 X-13.268 Y-29.314 E5.5797
G1 X-13.070 Y-30.266 E5.6113
G1 X-12.966 Y-30.621 E5.6234
G1 X-12.629 Y-31.501 E5.6541
G1 X-12.449 Y-31.870 E5.6674
G1 X-11.372 Y-33.650 E5.7352
G1 X-9.268 Y-34.836 E5.8138
G1 X-0.602 Y-34.834 E6.0959
G1 X-0.000 Y-34.232 E6.1237
G1 X0.602 Y-34.834 E6.1514
G1 X9.213 Y-34.836 E6.4318
G1 X11.248 Y-33.748 E6.5069
G1 X12.166 Y-32.371 E6.5608
G1 X12.299 Y-32.146 E6.5693
G1 X12.603 Y-31.553 E6.5910
G1 X12.716 Y-31.295 E6.6001
G1 X12.980 Y-30.577 E6.6251
G1 X13.073 Y-30.251 E6.6361
G1 X13.268 Y-29.314 E6.6673
G1 X13.316 Y-28.845 E6.6826
G1 X13.316 Y-28.283 E6.7009
G1 X27.792 Y-28.283 E7.1722
G1 X27.792 Y-28.845 E7.1905
G1 X27.840 Y-29.314 E7.2059
G1 X28.038 Y-30.266 E7.2375
G1 X28.142 Y-30.621 E7.2496
G1 X28.479 Y-31.501 E7.2803
G1 X28.659 Y-31.870 E7.2936
G1 X29.736 Y-33.650 E7.3614
G1 X31.840 Y-34.836 E7.4400
G1 X40.506 Y-34.834 E7.7221
G1 X43.199 Y-32.141 E7.8462
G1 X43.207 Y-5.893 E8.7007
G1 X44.174 Y-4.925 E8.7453
G1 X44.174 Y12.925 E9.3264
G1 X43.207 Y13.893 E9.3710
G1 X43.199 Y32.141 E9.9651
G1 X40.505 Y34.834 E10.0891
G1 X31.840 Y34.836 E10.3712
G1 X29.736 Y33.650 E10.4499
G1 X28.659 Y31.870 E10.5176
G1 X28.479 Y31.501 E10.5310
G1 X28.142 Y30.621 E10.5617
G1 X28.038 Y30.266 E10.5737
G1 X27.840 Y29.314 E10.6054
G1 X27.792 Y28.845 E10.6207
G1 X27.792 Y28.283 E10.6390
G1 X13.316 Y28.283 E11.1103
G1 X13.316 Y28.845 E11.1287
G92 E0.0000
G1 E-6.0000 F3600
G1 Z0.718 F2400
G1 X12.916 Y28.824 F9000
G1 Z0.218 F2400
G1 E0.0000 F3600
G92 E0.0000
G1 X12.872 Y29.252 E0.0140 F2400
G1 X12.682 Y30.169 E0.0445
G1 X12.587 Y30.493 E0.0555
G1 X12.262 Y31.341 E0.0851
G1 X12.097 Y31.678 E0.0973
G1 X11.084 Y33.353 E0.1610
G1 X9.163 Y34.436 E0.2328
G1 X0.768 Y34.434 E0.5061
G1 X0.000 Y33.666 E0.5415
G1 X-0.768 Y34.434 E0.5769
G1 X-9.163 Y34.436 E0.8502
G1 X-11.084 Y33.353 E0.9220
G1 X-12.097 Y31.678 E0.9857
G1 X-12.262 Y31.341 E0.9979
G1 X-12.587 Y30.493 E1.0275
G1 X-12.682 Y30.169 E1.0385
G1 X-12.872 Y29.252 E1.0690
G1 X-12.916 Y28.824 E1.0830
G1 X-12.916 Y27.883 E1.1136
G1 X-28.192 Y27.883 E1.6110
G1 X-28.192 Y28.824 E1.6417
G1 X-28.236 Y29.252 E1.6557
G1 X-28.426 Y30.169 E1.6861
G1 X-28.521 Y30.493 E1.6971
G1 X-28.846 Y31.341 E1.7267
G1 X-29.011 Y31.678 E1.7389
G1 X-30.024 Y33.353 E1.8027
G1 X-31.945 Y34.436 E1.8745
G1 X-40.340 Y34.434 E2.1478
G1 X-42.799 Y31.975 E2.2610
G1 X-42.807 Y13.727 E2.8551
G1 X-43.774 Y12.760 E2.8996
G1 X-43.774 Y-4.760 E3.4700
G1 X-42.807 Y-5.727 E3.5146
G1 X-42.799 Y-31.975 E4.3691
G1 X-40.340 Y-34.434 E4.4824
G1 X-31.995 Y-34.436 E4.7541
G1 X-30.137 Y-33.442 E4.8227
G1 X-29.281 Y-32.159 E4.8729
G1 X-29.160 Y-31.953 E4.8807
G1 X-28.866 Y-31.381 E4.9016
G1 X-28.763 Y-31.146 E4.9100
G1 X-28.509 Y-30.453 E4.9340
G1 X-28.424 Y-30.155 E4.9441
G1 X-28.236 Y-29.252 E4.9741
G1 X-28.192 Y-28.824 E4.9881
G1 X-28.192 Y-27.883 E5.0188
G1 X-12.916 Y-27.883 E5.5161
G1 X-12.916 Y-28.824 E5.5468
G1 X-12.872 Y-29.252 E5.5608
G1 X-12.682 Y-30.169 E5.5913
G1 X-12.587 Y-30.493 E5.6023
G1 X-12.262 Y-31.341 E5.6319
G1 X-12.097 Y-31.678 E5.6441
G1 X-11.084 Y-33.353 E5.7078
G1 X-9.163 Y-34.436 E5.7796
G1 X-0.768 Y-34.434 E6.0529
G1 X-0.000 Y-33.666 E6.0883
G1 X0.768 Y-34.434 E6.1237
G1 X9.113 Y-34.436 E6.3954
G1 X10.971 Y-33.443 E6.4639
G1 X11.827 Y-32.159 E6.5142
G1 X11.948 Y-31.953 E6.5220
G1 X12.242 Y-31.381 E6.5429
G1 X12.345 Y-31.146 E6.5513
G1 X12.599 Y-30.453 E6.5753
G1 X12.684 Y-30.155 E6.5854
G1 X12.872 Y-29.252 E6.6154
G1 X12.916 Y-28.824 E6.6294
G1 X12.916 Y-27.883 E6.6601
G1 X28.192 Y-27.883 E7.1574
G1 X28.192 Y-28.824 E7.1881
G1 X28.236 Y-29.252 E7.2021
G1 X28.426 Y-30.169 E7.2326
G1 X28.521 Y-30.493 E7.2436
G1 X28.846 Y-31.341 E7.2731
G1 X29.011 Y-31.678 E7.2854
G1 X30.024 Y-33.353 E7.3491
G1 X31.945 Y-34.436 E7.4209
G1 X40.340 Y-34.434 E7.6942
G1 X42.799 Y-31.975 E7.8074
G1 X42.807 Y-5.727 E8.6620
G1 X43.774 Y-4.760 E8.7065
G1 X43.774 Y12.760 E9.2769
G1 X42.807 Y13.727 E9.3215
G1 X42.799 Y31.975 E9.9156
G1 X40.340 Y34.434 E10.0288
G1 X31.945 Y34.436 E10.3021
G1 X30.024 Y33.353 E10.3739
G1 X29.011 Y31.678 E10.4377
G1 X28.846 Y31.341 E10.4499
G1 X28.521 Y30.493 E10.4795
G1 X28.426 Y30.169 E10.4905
G1 X28.236 Y29.252 E10.5209
G1 X28.192 Y28.824 E10.5349
G1 X28.192 Y27.883 E10.5656
G1 X12.916 Y27.883 E11.0630
G1 X12.916 Y28.824 E11.0936
G92 E0.0000
G1 E-6.0000 F3600
; feature inner perimeter
G1 Z0.718 F2400
G1 X5.894 Y-3.365 F9000
G1 Z0.218 F2400
G1 E0.0000 F3600
G92 E0.0000
G1 X3.900 Y-3.365 E0.0649 F1800
G1 X3.908 Y-28.835 E0.8942
G1 X7.239 Y-28.836 E1.0026
G1 X7.316 Y-28.465 E1.0149
G1 X7.316 Y-26.922 E1.0652
G1 X7.369 Y-26.242 E1.0874
G1 X7.541 Y-25.525 E1.1114
G1 X7.824 Y-24.844 E1.1354
G1 X8.209 Y-24.215 E1.1594
G1 X8.688 Y-23.654 E1.1834
G1 X9.248 Y-23.176 E1.2074
G1 X9.877 Y-22.790 E1.2314
G1 X10.558 Y-22.508 E1.2554
G1 X11.275 Y-22.336 E1.2794
G1 X11.955 Y-22.283 E1.3016
G1 X29.153 Y-22.283 E1.8615
