; G-Code generated by Simplify3D(R) Version 4.1.2
; Mar 8, 2022 at 10:44:52 PM
; Settings Summary
;   processName,PETG 0.2425 Quick and Dirty 40% Infill
;   applyToModels,120F3 ESC Mount - dual mounts,120F3 ESC Mount - dual mounts(2),120F3 ESC Mount - dual mounts(3),120F3 ESC Mount - dual mounts(4)
;   profileName,Anycubic Kossel Plus (modified)
;   profileVersion,2018-01-19 08:00:00
;   baseProfile,
;   printMaterial,PETG
;   printQuality,Medium
;   printExtruders,
;   extruderName,Primary Extruder
;   extruderToolheadNumber,0
;   extruderDiameter,0.4
;   extruderAutoWidth,0
;   extruderWidth,0.4
;   extrusionMultiplier,0.9
;   extruderUseRetract,1
;   extruderRetractionDistance,6
;   extruderExtraRestartDistance,0
;   extruderRetractionZLift,0.5
;   extruderRetractionSpeed,3600
;   extruderUseCoasting,0
;   extruderCoastingDistance,1
;   extruderUseWipe,0
;   extruderWipeDistance,5
;   primaryExtruder,0
;   layerHeight,0.2417
;   topSolidLayers,4
;   bottomSolidLayers,4
;   perimeterOutlines,4
;   printPerimetersInsideOut,1
;   startPointOption,2
;   startPointOriginX,0
;   startPointOriginY,0
;   sequentialIslands,0
;   spiralVaseMode,0
;   firstLayerHeightPercentage,90
;   firstLayerWidthPercentage,100
;   firstLayerUnderspeed,0.5
;   useRaft,0
;   raftExtruder,0
;   raftTopLayers,3
;   raftBaseLayers,2
;   raftOffset,3
;   raftSeparationDistance,0.14
;   raftTopInfill,100
;   aboveRaftSpeedMultiplier,0.3
;   useSkirt,1
;   skirtExtruder,0
;   skirtLayers,1
;   skirtOutlines,3
;   skirtOffset,4
;   usePrimePillar,0
;   primePillarExtruder,999
;   primePillarWidth,12
;   primePillarLocation,7
;   primePillarSpeedMultiplier,1
;   useOozeShield,0
;   oozeShieldExtruder,999
;   oozeShieldOffset,2
;   oozeShieldOutlines,1
;   oozeShieldSidewallShape,1
;   oozeShieldSidewallAngle,30
;   oozeShieldSpeedMultiplier,1
;   infillExtruder,0
;   internalInfillPattern,Triangular
;   externalInfillPattern,Rectilinear
;   infillPercentage,40
;   outlineOverlapPercentage,15
;   infillExtrusionWidthPercentage,150
;   minInfillLength,5
;   infillLayerInterval,1
;   internalInfillAngles,0,60,-60
;   overlapInternalInfillAngles,1
;   externalInfillAngles,45,-45
;   generateSupport,1
;   supportExtruder,0
;   supportInfillPercentage,20
;   supportExtraInflation,0.8
;   supportBaseLayers,0
;   denseSupportExtruder,0
;   denseSupportLayers,0
;   denseSupportInfillPercentage,70
;   supportLayerInterval,1
;   supportHorizontalPartOffset,0.8
;   supportUpperSeparationLayers,1
;   supportLowerSeparationLayers,1
;   supportType,0
;   supportGridSpacing,4
;   maxOverhangAngle,45
;   supportAngles,0
;   temperatureName,Primary Extruder,Heated Bed
;   temperatureNumber,0,1
;   temperatureSetpointCount,1,1
;   temperatureSetpointLayers,1,1
;   temperatureSetpointTemperatures,235,70
;   temperatureStabilizeAtStartup,1,1
;   temperatureHeatedBed,0,1
;   fanLayers,1
;   fanSpeeds,0
;   blipFanToFullPower,1
;   adjustSpeedForCooling,1
;   minSpeedLayerTime,15
;   minCoolingSpeedSlowdown,20
;   increaseFanForCooling,0
;   minFanLayerTime,60
;   maxCoolingFanSpeed,100
;   increaseFanForBridging,0
;   bridgingFanSpeed,100
;   use5D,1
;   relativeEdistances,0
;   allowEaxisZeroing,1
;   independentExtruderAxes,0
;   includeM10123,0
;   stickySupport,1
;   applyToolheadOffsets,0
;   gcodeXoffset,0
;   gcodeYoffset,0
;   gcodeZoffset,0
;   overrideMachineDefinition,1
;   machineTypeOverride,1
;   strokeXoverride,162.6
;   strokeYoverride,162.6
;   strokeZoverride,330
;   originOffsetXoverride,81.3
;   originOffsetYoverride,81.3
;   originOffsetZoverride,0
;   homeXdirOverride,0
;   homeYdirOverride,0
;   homeZdirOverride,1
;   flipXoverride,1
;   flipYoverride,-1
;   flipZoverride,1
;   toolheadOffsets,0,0|0,0|0,0|0,0|0,0|0,0
;   overrideFirmwareConfiguration,0
;   firmwareTypeOverride,RepRap (Marlin/Repetier/Sprinter)
;   GPXconfigOverride,r2
;   baudRateOverride,250000
;   overridePrinterModels,1
;   printerModelsOverride
;   startingGcode,G1 E25 F200        ; prime extruder by extruding 15mm of material,; Squirt and wipe ;,M109 S225         ; Wait for the temp to hit 225,G00 X125 Y-60 Z0.1 F5000,G92 E0,G01 E25 F100        ; Extrude a little bit to replace oozage from auto levelling,G01 X90 Y-50 F6000,G01 Z5     
;   layerChangeGcode,
;   retractionGcode,
;   toolChangeGcode,
;   endingGcode,G1 Z100    ; move hot-end up 50mm,G01 E-15 F200,,M104 S0     ; turn off extruder,M140 S0    ; turn off bed,;M84     ; disable motors
;   exportFileFormat,gcode
;   celebration,0
;   celebrationSong,Random Song
;   postProcessing,
;   defaultSpeed,4800
;   outlineUnderspeed,0.5
;   solidInfillUnderspeed,0.8
;   supportUnderspeed,0.8
;   rapidXYspeed,9000
;   rapidZspeed,2400
;   minBridgingArea,50
;   bridgingExtraInflation,0
;   bridgingExtrusionMultiplier,0.95
;   bridgingSpeedMultiplier,0.7
;   useFixedBridgingAngle,0
;   fixedBridgingAngle,0
;   applyBridgingToPerimeters,0
;   filamentDiameters,1.75|1.75|1.75|1.75|1.75|1.75
;   filamentPricesPerKg,46|46|46|46|46|46
;   filamentDensities,1.25|1.25|1.25|1.25|1.25|1.25
;   useMinPrintHeight,0
;   minPrintHeight,0
;   useMaxPrintHeight,0
;   maxPrintHeight,0
;   useDiaphragm,0
;   diaphragmLayerInterval,20
;   robustSlicing,1
;   mergeAllIntoSolid,0
;   onlyRetractWhenCrossingOutline,1
;   retractBetweenLayers,1
;   useRetractionMinTravel,0
;   retractionMinTravel,3
;   retractWhileWiping,0
;   onlyWipeOutlines,1
;   avoidCrossingOutline,0
;   maxMovementDetourFactor,3
;   toolChangeRetractionDistance,12
;   toolChangeExtraRestartDistance,-0.5
;   toolChangeRetractionSpeed,600
;   externalThinWallType,1
;   internalThinWallType,2
;   thinWallAllowedOverlapPercentage,15
;   singleExtrusionMinLength,1
;   singleExtrusionMinPrintingWidthPercentage,50
;   singleExtrusionMaxPrintingWidthPercentage,200
;   singleExtrusionEndpointExtension,0.2
;   horizontalSizeCompensation,0
G90
M82
M106 S0
M140 S70
M190 S70
M104 S235 T0
M109 S235 T0
G1 E25 F200        ; prime extruder by extruding 15mm of material
; Squirt and wipe ;
M109 S225         ; Wait for the temp to hit 225
G00 X125 Y-60 Z0.1 F5000
G92 E0
G01 E25 F100        ; Extrude a little bit to replace oozage from auto levelling
G01 X90 Y-50 F6000
G01 Z5     
; process PETG 0.2425 Quick and Dirty 40% Infill
; layer 1, Z = 0.218
T0
G92 E0.0000
G1 E-6.0000 F3600
; feature skirt
; tool H0.218 W0.400
G1 Z0.500 F2400
G1 X-5.250 Y0.429 F9000
G1 Z0.218 F2400
G1 E0.0000 F3600
G92 E0.0000
G1 X-5.250 Y17.571 E0.5581 F2400
G1 X-5.679 Y18.000 E0.5779
G1 X-5.250 Y18.429 E0.5976
G1 X-5.250 Y35.571 E1.1557
G1 X-8.179 Y38.500 E1.2906
G1 X-22.321 Y38.500 E1.7510
G1 X-25.250 Y35.571 E1.8859
G1 X-25.250 Y18.429 E2.4440
G1 X-24.821 Y18.000 E2.4637
G1 X-25.250 Y17.571 E2.4835
G1 X-25.250 Y0.429 E3.0416
G1 X-24.821 Y0.000 E3.0613
G1 X-25.250 Y-0.429 E3.0811
G1 X-25.250 Y-17.571 E3.6392
G1 X-24.821 Y-18.000 E3.6590
G1 X-25.250 Y-18.429 E3.6787
G1 X-25.250 Y-35.571 E4.2368
G1 X-22.321 Y-38.500 E4.3717
G1 X-8.179 Y-38.500 E4.8321
G1 X-5.250 Y-35.571 E4.9670
G1 X-5.250 Y-18.429 E5.5251
G1 X-5.679 Y-18.000 E5.5448
G1 X-5.250 Y-17.571 E5.5646
G1 X-5.250 Y-0.429 E6.1227
G1 X-5.679 Y-0.000 E6.1424
G1 X-5.250 Y0.429 E6.1622
G92 E0.0000
G1 E-6.0000 F3600
G1 Z0.718 F2400
G1 X-5.650 Y0.595 F9000
G1 Z0.218 F2400
G1 E0.0000 F3600
G92 E0.0000
G1 X-5.650 Y17.405 E0.5473 F2400
G1 X-6.245 Y18.000 E0.5747
G1 X-5.650 Y18.595 E0.6021
G1 X-5.650 Y35.405 E1.1494
G1 X-8.345 Y38.100 E1.2735
G1 X-22.155 Y38.100 E1.7231
G1 X-24.850 Y35.405 E1.8472
G1 X-24.850 Y18.595 E2.3945
G1 X-24.255 Y18.000 E2.4219
G1 X-24.850 Y17.405 E2.4493
G1 X-24.850 Y0.595 E2.9966
G1 X-24.255 Y0.000 E3.0240
G1 X-24.850 Y-0.595 E3.0514
G1 X-24.850 Y-17.405 E3.5987
G1 X-24.255 Y-18.000 E3.6261
G1 X-24.850 Y-18.595 E3.6534
G1 X-24.850 Y-35.405 E4.2008
G1 X-22.155 Y-38.100 E4.3248
G1 X-8.345 Y-38.100 E4.7745
G1 X-5.650 Y-35.405 E4.8985
G1 X-5.650 Y-18.595 E5.4459
G1 X-6.245 Y-18.000 E5.4732
G1 X-5.650 Y-17.405 E5.5006
G1 X-5.650 Y-0.595 E6.0479
G1 X-6.245 Y-0.000 E6.0753
G1 X-5.650 Y0.595 E6.1027
G92 E0.0000
G1 E-6.0000 F3600
G1 Z0.718 F2400
G1 X-6.050 Y0.760 F9000
G1 Z0.218 F2400
G1 E0.0000 F3600
G92 E0.0000
G1 X-6.050 Y17.240 E0.5365 F2400
G1 X-6.810 Y18.000 E0.5715
G1 X-6.050 Y18.760 E0.6065
G1 X-6.050 Y35.240 E1.1431
G1 X-8.510 Y37.700 E1.2564
G1 X-21.990 Y37.700 E1.6952
G1 X-24.450 Y35.240 E1.8085
G1 X-24.450 Y18.760 E2.3450
G1 X-23.690 Y18.000 E2.3800
G1 X-24.450 Y17.240 E2.4151
G1 X-24.450 Y0.760 E2.9516
G1 X-23.690 Y0.000 E2.9866
G1 X-24.450 Y-0.760 E3.0216
G1 X-24.450 Y-17.240 E3.5581
G1 X-23.690 Y-18.000 E3.5931
G1 X-24.450 Y-18.760 E3.6281
G1 X-24.450 Y-35.240 E4.1647
G1 X-21.990 Y-37.700 E4.2780
G1 X-8.510 Y-37.700 E4.7168
G1 X-6.050 Y-35.240 E4.8301
G1 X-6.050 Y-18.760 E5.3666
G1 X-6.810 Y-18.000 E5.4016
G1 X-6.050 Y-17.240 E5.4367
G1 X-6.050 Y-0.760 E5.9732
G1 X-6.810 Y-0.000 E6.0082
G1 X-6.050 Y0.760 E6.0432
G92 E0.0000
G1 E-6.0000 F3600
G1 Z0.718 F2400
G1 X5.250 Y0.429 F9000
G1 Z0.218 F2400
G1 E0.0000 F3600
G92 E0.0000
G1 X5.679 Y0.000 E0.0197 F2400
G1 X5.250 Y-0.429 E0.0395
G1 X5.250 Y-17.571 E0.5976
G1 X5.679 Y-18.000 E0.6174
G1 X5.250 Y-18.429 E0.6371
G1 X5.250 Y-35.571 E1.1952
G1 X8.179 Y-38.500 E1.3301
G1 X22.321 Y-38.500 E1.7905
G1 X25.250 Y-35.571 E1.9254
G1 X25.250 Y-18.429 E2.4835
G1 X24.821 Y-18.000 E2.5032
G1 X25.250 Y-17.571 E2.5230
G1 X25.250 Y-0.429 E3.0811
G1 X24.821 Y0.000 E3.1008
G1 X25.250 Y0.429 E3.1206
G1 X25.250 Y17.571 E3.6787
G1 X24.821 Y18.000 E3.6985
G1 X25.250 Y18.429 E3.7182
G1 X25.250 Y35.571 E4.2763
G1 X22.321 Y38.500 E4.4112
G1 X8.179 Y38.500 E4.8716
G1 X5.250 Y35.571 E5.0065
G1 X5.250 Y18.429 E5.5646
G1 X5.679 Y18.000 E5.5843
G1 X5.250 Y17.571 E5.6041
G1 X5.250 Y0.429 E6.1622
G92 E0.0000
G1 E-6.0000 F3600
G1 Z0.718 F2400
G1 X5.650 Y0.595 F9000
G1 Z0.218 F2400
G1 E0.0000 F3600
G92 E0.0000
G1 X6.245 Y0.000 E0.0274 F2400
G1 X5.650 Y-0.595 E0.0548
G1 X5.650 Y-17.405 E0.6021
G1 X6.245 Y-18.000 E0.6295
G1 X5.650 Y-18.595 E0.6568
G1 X5.650 Y-35.405 E1.2042
G1 X8.345 Y-38.100 E1.3282
G1 X22.155 Y-38.100 E1.7779
G1 X24.850 Y-35.405 E1.9019
G1 X24.850 Y-18.595 E2.4493
G1 X24.255 Y-18.000 E2.4766
G1 X24.850 Y-17.405 E2.5040
G1 X24.850 Y-0.595 E3.0514
G1 X24.255 Y0.000 E3.0787
G1 X24.850 Y0.595 E3.1061
G1 X24.850 Y17.405 E3.6534
G1 X24.255 Y18.000 E3.6808
G1 X24.850 Y18.595 E3.7082
G1 X24.850 Y35.405 E4.2555
G1 X22.155 Y38.100 E4.3796
G1 X8.345 Y38.100 E4.8292
G1 X5.650 Y35.405 E4.9533
G1 X5.650 Y18.595 E5.5006
G1 X6.245 Y18.000 E5.5280
G1 X5.650 Y17.405 E5.5554
G1 X5.650 Y0.595 E6.1027
G92 E0.0000
G1 E-6.0000 F3600
G1 Z0.718 F2400
G1 X6.050 Y0.760 F9000
G1 Z0.218 F2400
G1 E0.0000 F3600
G92 E0.0000
G1 X6.810 Y0.000 E0.0350 F2400
G1 X6.050 Y-0.760 E0.0700
G1 X6.050 Y-17.240 E0.6065
G1 X6.810 Y-18.000 E0.6416
G1 X6.050 Y-18.760 E0.6766
G1 X6.050 Y-35.240 E1.2131
G1 X8.510 Y-37.700 E1.3264
G1 X21.990 Y-37.700 E1.7652
G1 X24.450 Y-35.240 E1.8785
G1 X24.450 Y-18.760 E2.4151
G1 X23.690 Y-18.000 E2.4501
G1 X24.450 Y-17.240 E2.4851
G1 X24.450 Y-0.760 E3.0216
G1 X23.690 Y0.000 E3.0566
G1 X24.450 Y0.760 E3.0916
G1 X24.450 Y17.240 E3.6281
G1 X23.690 Y18.000 E3.6632
G1 X24.450 Y18.760 E3.6982
G1 X24.450 Y35.240 E4.2347
G1 X21.990 Y37.700 E4.3480
G1 X8.510 Y37.700 E4.7868
G1 X6.050 Y35.240 E4.9001
G1 X6.050 Y18.760 E5.4367
G1 X6.810 Y18.000 E5.4717
G1 X6.050 Y17.240 E5.5067
G1 X6.050 Y0.760 E6.0432
G92 E0.0000
G1 E-6.0000 F3600
; feature inner perimeter
G1 Z0.718 F2400
G1 X-11.650 Y3.900 F9000
G1 Z0.218 F2400
G1 E0.0000 F3600
G92 E0.0000
G1 X-11.650 Y14.100 E0.3321 F1800
G1 X-18.850 Y14.100 E0.5665
G1 X-18.850 Y3.900 E0.8986
G1 X-11.650 Y3.900 E1.1330
G1 X-11.250 Y3.500 F9000
G92 E0.0000
G1 X-11.250 Y14.500 E0.3581 F1800
G1 X-19.250 Y14.500 E0.6186
G1 X-19.250 Y3.500 E0.9767
G1 X-11.250 Y3.500 E1.2372
G1 X-10.850 Y3.100 F9000
G92 E0.0000
G1 X-10.850 Y14.900 E0.3842 F1800
G1 X-19.650 Y14.900 E0.6707
G1 X-19.650 Y3.100 E1.0549
G1 X-10.850 Y3.100 E1.3414
; feature outer perimeter
G1 X-10.450 Y2.700 F9000
G92 E0.0000
G1 X-10.450 Y15.300 E0.4102 F1200
G1 X-20.050 Y15.300 E0.7228
G1 X-20.050 Y2.700 E1.1330
G1 X-10.450 Y2.700 E1.4456
; feature inner perimeter
G1 X-13.364 Y6.857 F9000
G92 E0.0000
G1 X-13.753 Y6.569 E0.0158 F1800
G1 X-14.185 Y6.351 E0.0315
G1 X-14.649 Y6.209 E0.0473
G1 X-15.129 Y6.148 E0.0631
G1 X-15.613 Y6.168 E0.0788
G1 X-16.086 Y6.270 E0.0946
G1 X-16.535 Y6.451 E0.1104
G1 X-16.948 Y6.705 E0.1261
G1 X-17.311 Y7.024 E0.1419
G1 X-17.616 Y7.402 E0.1577
G1 X-17.854 Y7.829 E0.1736
G1 X-18.014 Y8.285 E0.1893
G1 X-18.090 Y8.728 E0.2040
G1 X-18.101 Y8.998 E0.2128
G1 X-18.090 Y9.271 E0.2217
G1 X-18.013 Y9.719 E0.2365
G1 X-17.852 Y10.176 E0.2522
G1 X-17.615 Y10.599 E0.2680
G1 X-17.311 Y10.976 E0.2838
G1 X-16.948 Y11.295 E0.2995
G1 X-16.535 Y11.549 E0.3153
G1 X-16.086 Y11.730 E0.3311
G1 X-15.613 Y11.832 E0.3468
G1 X-15.129 Y11.852 E0.3626
G1 X-14.649 Y11.791 E0.3784
G1 X-14.185 Y11.649 E0.3941
G1 X-13.753 Y11.431 E0.4099
G1 X-13.364 Y11.143 E0.4257
G1 X-13.029 Y10.794 E0.4414
G1 X-12.757 Y10.392 E0.4572
G1 X-12.558 Y9.951 E0.4730
G1 X-12.436 Y9.483 E0.4887
G1 X-12.395 Y9.000 E0.5045
G1 X-12.436 Y8.517 E0.5203
G1 X-12.558 Y8.049 E0.5360
G1 X-12.757 Y7.608 E0.5518
G1 X-13.029 Y7.206 E0.5676
G1 X-13.364 Y6.857 E0.5833
G1 X-13.629 Y7.158 F9000
G92 E0.0000
G1 X-13.964 Y6.911 E0.0135 F1800
G1 X-14.335 Y6.723 E0.0271
G1 X-14.733 Y6.601 E0.0406
G1 X-15.146 Y6.549 E0.0542
G1 X-15.562 Y6.566 E0.0677
G1 X-15.969 Y6.654 E0.0813
G1 X-16.355 Y6.809 E0.0948
G1 X-16.709 Y7.027 E0.1084
G1 X-17.021 Y7.302 E0.1219
G1 X-17.283 Y7.627 E0.1355
G1 X-17.488 Y7.994 E0.1492
G1 X-17.625 Y8.386 E0.1627
G1 X-17.691 Y8.771 E0.1754
G1 X-17.701 Y8.998 E0.1828
G1 X-17.691 Y9.229 E0.1904
G1 X-17.624 Y9.618 E0.2032
G1 X-17.486 Y10.011 E0.2168
G1 X-17.283 Y10.374 E0.2303
G1 X-17.021 Y10.698 E0.2439
G1 X-16.709 Y10.973 E0.2574
G1 X-16.355 Y11.191 E0.2710
G1 X-15.968 Y11.346 E0.2845
G1 X-15.562 Y11.434 E0.2981
G1 X-15.146 Y11.451 E0.3116
G1 X-14.733 Y11.399 E0.3252
G1 X-14.335 Y11.277 E0.3387
G1 X-13.964 Y11.089 E0.3523
G1 X-13.629 Y10.842 E0.3658
G1 X-13.341 Y10.541 E0.3794
G1 X-13.108 Y10.197 E0.3929
G1 X-12.937 Y9.817 E0.4065
G1 X-12.832 Y9.415 E0.4200
G1 X-12.796 Y9.000 E0.4336
G1 X-12.832 Y8.585 E0.4471
G1 X-12.937 Y8.183 E0.4607
G1 X-13.108 Y7.803 E0.4742
G1 X-13.341 Y7.459 E0.4878
G1 X-13.629 Y7.158 E0.5013
G1 X-13.894 Y7.459 F9000
G92 E0.0000
G1 X-14.174 Y7.253 E0.0113 F1800
G1 X-14.485 Y7.096 E0.0227
G1 X-14.818 Y6.994 E0.0340
G1 X-15.163 Y6.950 E0.0453
G1 X-15.511 Y6.964 E0.0567
G1 X-15.851 Y7.038 E0.0680
G1 X-16.174 Y7.168 E0.0793
G1 X-16.470 Y7.350 E0.0907
G1 X-16.732 Y7.580 E0.1020
G1 X-16.951 Y7.851 E0.1133
G1 X-17.121 Y8.159 E0.1248
G1 X-17.237 Y8.486 E0.1361
G1 X-17.293 Y8.813 E0.1469
G1 X-17.300 Y8.998 E0.1529
G1 X-17.293 Y9.186 E0.1591
G1 X-17.236 Y9.517 E0.1700
G1 X-17.120 Y9.845 E0.1813
G1 X-16.950 Y10.149 E0.1926
G1 X-16.732 Y10.420 E0.2040
G1 X-16.470 Y10.650 E0.2153
G1 X-16.174 Y10.832 E0.2266
G1 X-15.851 Y10.962 E0.2380
G1 X-15.511 Y11.036 E0.2493
G1 X-15.163 Y11.050 E0.2606
G1 X-14.818 Y11.006 E0.2720
G1 X-14.485 Y10.904 E0.2833
G1 X-14.174 Y10.747 E0.2946
G1 X-13.894 Y10.540 E0.3060
G1 X-13.653 Y10.289 E0.3173
G1 X-13.458 Y10.001 E0.3286
G1 X-13.315 Y9.684 E0.3400
G1 X-13.227 Y9.347 E0.3513
G1 X-13.198 Y9.000 E0.3626
G1 X-13.227 Y8.653 E0.3740
G1 X-13.315 Y8.316 E0.3853
G1 X-13.458 Y7.999 E0.3966
G1 X-13.653 Y7.711 E0.4080
G1 X-13.894 Y7.459 E0.4193
; feature outer perimeter
G1 X-14.159 Y7.761 F9000
G92 E0.0000
G1 X-14.385 Y7.594 E0.0091 F1200
