; G-Code generated by Simplify3D(R) Version 4.1.2
; Mar 9, 2022 at 4:08:48 PM
; Settings Summary
;   processName,PETG 0.2425 Quick and Dirty 40% Infill
;   applyToModels,120F3 ESC Chassis Fixture,120F3 ESC Chassis Fixture(2)
;   profileName,Anycubic Kossel Plus (modified)
;   profileVersion,2018-01-19 08:00:00
;   baseProfile,
;   printMaterial,PETG
;   printQuality,Medium
;   printExtruders,
;   extruderName,Primary Extruder
;   extruderToolheadNumber,0
;   extruderDiameter,0.4
;   extruderAutoWidth,0
;   extruderWidth,0.4
;   extrusionMultiplier,0.9
;   extruderUseRetract,1
;   extruderRetractionDistance,6
;   extruderExtraRestartDistance,0
;   extruderRetractionZLift,0.5
;   extruderRetractionSpeed,3600
;   extruderUseCoasting,0
;   extruderCoastingDistance,1
;   extruderUseWipe,0
;   extruderWipeDistance,5
;   primaryExtruder,0
;   layerHeight,0.2417
;   topSolidLayers,4
;   bottomSolidLayers,4
;   perimeterOutlines,4
;   printPerimetersInsideOut,1
;   startPointOption,2
;   startPointOriginX,0
;   startPointOriginY,0
;   sequentialIslands,0
;   spiralVaseMode,0
;   firstLayerHeightPercentage,90
;   firstLayerWidthPercentage,100
;   firstLayerUnderspeed,0.5
;   useRaft,0
;   raftExtruder,0
;   raftTopLayers,3
;   raftBaseLayers,2
;   raftOffset,3
;   raftSeparationDistance,0.14
;   raftTopInfill,100
;   aboveRaftSpeedMultiplier,0.3
;   useSkirt,1
;   skirtExtruder,0
;   skirtLayers,1
;   skirtOutlines,3
;   skirtOffset,4
;   usePrimePillar,0
;   primePillarExtruder,999
;   primePillarWidth,12
;   primePillarLocation,7
;   primePillarSpeedMultiplier,1
;   useOozeShield,0
;   oozeShieldExtruder,999
;   oozeShieldOffset,2
;   oozeShieldOutlines,1
;   oozeShieldSidewallShape,1
;   oozeShieldSidewallAngle,30
;   oozeShieldSpeedMultiplier,1
;   infillExtruder,0
;   internalInfillPattern,Triangular
;   externalInfillPattern,Rectilinear
;   infillPercentage,40
;   outlineOverlapPercentage,15
;   infillExtrusionWidthPercentage,150
;   minInfillLength,5
;   infillLayerInterval,1
;   internalInfillAngles,0,60,-60
;   overlapInternalInfillAngles,1
;   externalInfillAngles,45,-45
;   generateSupport,1
;   supportExtruder,0
;   supportInfillPercentage,20
;   supportExtraInflation,0.8
;   supportBaseLayers,0
;   denseSupportExtruder,0
;   denseSupportLayers,0
;   denseSupportInfillPercentage,70
;   supportLayerInterval,1
;   supportHorizontalPartOffset,0.8
;   supportUpperSeparationLayers,1
;   supportLowerSeparationLayers,1
;   supportType,0
;   supportGridSpacing,4
;   maxOverhangAngle,45
;   supportAngles,0
;   temperatureName,Primary Extruder,Heated Bed
;   temperatureNumber,0,1
;   temperatureSetpointCount,1,1
;   temperatureSetpointLayers,1,1
;   temperatureSetpointTemperatures,235,70
;   temperatureStabilizeAtStartup,1,1
;   temperatureHeatedBed,0,1
;   fanLayers,1
;   fanSpeeds,0
;   blipFanToFullPower,1
;   adjustSpeedForCooling,1
;   minSpeedLayerTime,15
;   minCoolingSpeedSlowdown,20
;   increaseFanForCooling,0
;   minFanLayerTime,60
;   maxCoolingFanSpeed,100
;   increaseFanForBridging,0
;   bridgingFanSpeed,100
;   use5D,1
;   relativeEdistances,0
;   allowEaxisZeroing,1
;   independentExtruderAxes,0
;   includeM10123,0
;   stickySupport,1
;   applyToolheadOffsets,0
;   gcodeXoffset,0
;   gcodeYoffset,0
;   gcodeZoffset,0
;   overrideMachineDefinition,1
;   machineTypeOverride,1
;   strokeXoverride,162.6
;   strokeYoverride,162.6
;   strokeZoverride,330
;   originOffsetXoverride,81.3
;   originOffsetYoverride,81.3
;   originOffsetZoverride,0
;   homeXdirOverride,0
;   homeYdirOverride,0
;   homeZdirOverride,1
;   flipXoverride,1
;   flipYoverride,-1
;   flipZoverride,1
;   toolheadOffsets,0,0|0,0|0,0|0,0|0,0|0,0
;   overrideFirmwareConfiguration,0
;   firmwareTypeOverride,RepRap (Marlin/Repetier/Sprinter)
;   GPXconfigOverride,r2
;   baudRateOverride,250000
;   overridePrinterModels,1
;   printerModelsOverride
;   startingGcode,G1 E25 F200        ; prime extruder by extruding 15mm of material,; Squirt and wipe ;,M109 S225         ; Wait for the temp to hit 225,G00 X125 Y-60 Z0.1 F5000,G92 E0,G01 E25 F100        ; Extrude a little bit to replace oozage from auto levelling,G01 X90 Y-50 F6000,G01 Z5     
;   layerChangeGcode,
;   retractionGcode,
;   toolChangeGcode,
;   endingGcode,G1 Z100    ; move hot-end up 50mm,G01 E-15 F200,,M104 S0     ; turn off extruder,M140 S0    ; turn off bed,;M84     ; disable motors
;   exportFileFormat,gcode
;   celebration,0
;   celebrationSong,Random Song
;   postProcessing,
;   defaultSpeed,4800
;   outlineUnderspeed,0.5
;   solidInfillUnderspeed,0.8
;   supportUnderspeed,0.8
;   rapidXYspeed,9000
;   rapidZspeed,2400
;   minBridgingArea,50
;   bridgingExtraInflation,0
;   bridgingExtrusionMultiplier,0.95
;   bridgingSpeedMultiplier,0.7
;   useFixedBridgingAngle,0
;   fixedBridgingAngle,0
;   applyBridgingToPerimeters,0
;   filamentDiameters,1.75|1.75|1.75|1.75|1.75|1.75
;   filamentPricesPerKg,46|46|46|46|46|46
;   filamentDensities,1.25|1.25|1.25|1.25|1.25|1.25
;   useMinPrintHeight,0
;   minPrintHeight,0
;   useMaxPrintHeight,0
;   maxPrintHeight,0
;   useDiaphragm,0
;   diaphragmLayerInterval,20
;   robustSlicing,1
;   mergeAllIntoSolid,0
;   onlyRetractWhenCrossingOutline,1
;   retractBetweenLayers,1
;   useRetractionMinTravel,0
;   retractionMinTravel,3
;   retractWhileWiping,0
;   onlyWipeOutlines,1
;   avoidCrossingOutline,0
;   maxMovementDetourFactor,3
;   toolChangeRetractionDistance,12
;   toolChangeExtraRestartDistance,-0.5
;   toolChangeRetractionSpeed,600
;   externalThinWallType,1
;   internalThinWallType,2
;   thinWallAllowedOverlapPercentage,15
;   singleExtrusionMinLength,1
;   singleExtrusionMinPrintingWidthPercentage,50
;   singleExtrusionMaxPrintingWidthPercentage,200
;   singleExtrusionEndpointExtension,0.2
;   horizontalSizeCompensation,0
G90
M82
M106 S0
M140 S70
M190 S70
M104 S235 T0
M109 S235 T0
G1 E25 F200        ; prime extruder by extruding 15mm of material
; Squirt and wipe ;
M109 S225         ; Wait for the temp to hit 225
G00 X125 Y-60 Z0.1 F5000
G92 E0
G01 E25 F100        ; Extrude a little bit to replace oozage from auto levelling
G01 X90 Y-50 F6000
G01 Z5     
; process PETG 0.2425 Quick and Dirty 40% Infill
; layer 1, Z = 0.218
T0
G92 E0.0000
G1 E-6.0000 F3600
; feature skirt
; tool H0.218 W0.400
G1 Z0.500 F2400
G1 X0.000 Y-17.421 F9000
G1 Z0.218 F2400
G1 E0.0000 F3600
G92 E0.0000
G1 X0.329 Y-17.750 E0.0151 F2400
G1 X14.671 Y-17.750 E0.4821
G1 X17.600 Y-14.821 E0.6170
G1 X17.600 Y14.821 E1.5820
G1 X14.671 Y17.750 E1.7169
G1 X0.329 Y17.750 E2.1838
G1 X0.000 Y17.421 E2.1990
G1 X-0.329 Y17.750 E2.2141
G1 X-14.671 Y17.750 E2.6811
G1 X-17.600 Y14.821 E2.8159
G1 X-17.600 Y-14.821 E3.7810
G1 X-14.671 Y-17.750 E3.9159
G1 X-0.329 Y-17.750 E4.3828
G1 X0.000 Y-17.421 E4.3980
G92 E0.0000
G1 E-6.0000 F3600
G1 Z0.718 F2400
G1 X0.495 Y-17.350 F9000
G1 Z0.218 F2400
G1 E0.0000 F3600
G92 E0.0000
G1 X14.505 Y-17.350 E0.4562 F2400
G1 X17.200 Y-14.655 E0.5802
G1 X17.200 Y14.655 E1.5345
G1 X14.505 Y17.350 E1.6586
G1 X0.495 Y17.350 E2.1148
G1 X0.000 Y16.855 E2.1375
G1 X-0.495 Y17.350 E2.1603
G1 X-14.505 Y17.350 E2.6165
G1 X-17.200 Y14.655 E2.7405
G1 X-17.200 Y-14.655 E3.6948
G1 X-14.505 Y-17.350 E3.8189
G1 X-0.495 Y-17.350 E4.2751
G1 X0.000 Y-16.855 E4.2978
G1 X0.495 Y-17.350 E4.3206
G92 E0.0000
G1 E-6.0000 F3600
G1 Z0.718 F2400
G1 X0.660 Y-16.950 F9000
G1 Z0.218 F2400
G1 E0.0000 F3600
G92 E0.0000
G1 X14.340 Y-16.950 E0.4454 F2400
G1 X16.800 Y-14.490 E0.5587
G1 X16.800 Y14.490 E1.5022
G1 X14.340 Y16.950 E1.6154
G1 X0.660 Y16.950 E2.0608
G1 X0.000 Y16.290 E2.0912
G1 X-0.660 Y16.950 E2.1216
G1 X-14.340 Y16.950 E2.5670
G1 X-16.800 Y14.490 E2.6803
G1 X-16.800 Y-14.490 E3.6238
G1 X-14.340 Y-16.950 E3.7371
G1 X-0.660 Y-16.950 E4.1824
G1 X0.000 Y-16.290 E4.2128
G1 X0.660 Y-16.950 E4.2432
G92 E0.0000
G1 E-6.0000 F3600
; feature inner perimeter
G1 Z0.718 F2400
G1 X3.800 Y-11.350 F9000
G1 Z0.218 F2400
G1 E0.0000 F3600
G92 E0.0000
G1 X11.200 Y-11.350 E0.2409 F1800
G1 X11.200 Y11.350 E0.9800
G1 X3.800 Y11.350 E1.2209
G1 X3.800 Y-11.350 E1.9600
G1 X3.400 Y-11.750 F9000
G92 E0.0000
G1 X11.600 Y-11.750 E0.2670 F1800
G1 X11.600 Y11.750 E1.0321
G1 X3.400 Y11.750 E1.2991
G1 X3.400 Y-11.750 E2.0642
G1 X3.000 Y-12.150 F9000
G92 E0.0000
G1 X12.000 Y-12.150 E0.2930 F1800
G1 X12.000 Y12.150 E1.0842
G1 X3.000 Y12.150 E1.3772
G1 X3.000 Y-12.150 E2.1684
; feature outer perimeter
G1 X2.600 Y-12.550 F9000
G92 E0.0000
G1 X12.400 Y-12.550 E0.3191 F1200
G1 X12.400 Y12.550 E1.1363
G1 X2.600 Y12.550 E1.4553
G1 X2.600 Y-12.550 E2.2725
; feature inner perimeter
G1 X6.368 Y-2.818 F9000
G92 E0.0000
G1 X5.908 Y-2.586 E0.0168 F1800
G1 X5.494 Y-2.280 E0.0335
G1 X5.137 Y-1.908 E0.0503
G1 X4.849 Y-1.481 E0.0671
G1 X4.635 Y-1.009 E0.0840
G1 X4.506 Y-0.503 E0.1010
G1 X4.463 Y-0.000 E0.1174
G1 X4.507 Y0.513 E0.1342
G1 X4.636 Y1.012 E0.1509
G1 X4.849 Y1.481 E0.1677
G1 X5.137 Y1.908 E0.1845
G1 X5.493 Y2.280 E0.2012
G1 X5.908 Y2.586 E0.2180
G1 X6.368 Y2.818 E0.2348
G1 X6.860 Y2.969 E0.2516
G1 X7.371 Y3.034 E0.2683
G1 X7.886 Y3.012 E0.2851
G1 X8.389 Y2.904 E0.3019
G1 X8.867 Y2.712 E0.3186
G1 X9.306 Y2.442 E0.3354
G1 X9.693 Y2.101 E0.3522
G1 X10.016 Y1.701 E0.3690
G1 X10.267 Y1.251 E0.3857
G1 X10.439 Y0.765 E0.4025
G1 X10.526 Y0.258 E0.4193
G1 X10.526 Y-0.258 E0.4360
G1 X10.439 Y-0.765 E0.4528
G1 X10.267 Y-1.251 E0.4696
G1 X10.016 Y-1.701 E0.4864
G1 X9.693 Y-2.101 E0.5031
G1 X9.306 Y-2.442 E0.5199
G1 X8.867 Y-2.712 E0.5367
G1 X8.389 Y-2.904 E0.5534
G1 X7.886 Y-3.012 E0.5702
G1 X7.371 Y-3.034 E0.5870
G1 X6.860 Y-2.969 E0.6038
G1 X6.368 Y-2.818 E0.6205
G1 X6.517 Y-2.446 F9000
G92 E0.0000
G1 X6.118 Y-2.244 E0.0146 F1800
G1 X5.759 Y-1.978 E0.0291
G1 X5.449 Y-1.656 E0.0437
G1 X5.199 Y-1.285 E0.0582
G1 X5.014 Y-0.876 E0.0728
G1 X4.902 Y-0.436 E0.0876
G1 X4.864 Y-0.000 E0.1019
G1 X4.902 Y0.445 E0.1164
G1 X5.015 Y0.878 E0.1310
G1 X5.199 Y1.285 E0.1455
G1 X5.449 Y1.656 E0.1601
G1 X5.759 Y1.978 E0.1746
G1 X6.118 Y2.244 E0.1892
G1 X6.517 Y2.446 E0.2038
G1 X6.945 Y2.576 E0.2183
G1 X7.388 Y2.633 E0.2329
G1 X7.835 Y2.614 E0.2474
G1 X8.272 Y2.520 E0.2620
G1 X8.687 Y2.353 E0.2765
G1 X9.067 Y2.119 E0.2911
G1 X9.403 Y1.824 E0.3056
G1 X9.684 Y1.476 E0.3202
G1 X9.902 Y1.086 E0.3347
G1 X10.051 Y0.664 E0.3493
G1 X10.126 Y0.224 E0.3639
G1 X10.126 Y-0.224 E0.3784
G1 X10.051 Y-0.664 E0.3930
G1 X9.902 Y-1.086 E0.4075
G1 X9.684 Y-1.476 E0.4221
G1 X9.403 Y-1.824 E0.4366
G1 X9.067 Y-2.119 E0.4512
G1 X8.687 Y-2.353 E0.4657
G1 X8.272 Y-2.520 E0.4803
G1 X7.835 Y-2.614 E0.4948
G1 X7.388 Y-2.633 E0.5094
G1 X6.945 Y-2.576 E0.5240
G1 X6.517 Y-2.446 E0.5385
G1 X6.667 Y-2.073 F9000
G92 E0.0000
G1 X6.329 Y-1.902 E0.0123 F1800
G1 X6.024 Y-1.677 E0.0247
G1 X5.762 Y-1.404 E0.0370
G1 X5.550 Y-1.090 E0.0493
G1 X5.393 Y-0.743 E0.0617
G1 X5.297 Y-0.369 E0.0743
G1 X5.266 Y-0.000 E0.0864
G1 X5.298 Y0.378 E0.0987
G1 X5.393 Y0.744 E0.1110
G1 X5.550 Y1.090 E0.1234
G1 X5.762 Y1.404 E0.1357
G1 X6.024 Y1.677 E0.1480
G1 X6.329 Y1.902 E0.1604
G1 X6.667 Y2.073 E0.1727
G1 X7.029 Y2.184 E0.1851
G1 X7.405 Y2.232 E0.1974
G1 X7.784 Y2.216 E0.2097
G1 X8.154 Y2.136 E0.2221
G1 X8.506 Y1.995 E0.2344
G1 X8.829 Y1.796 E0.2467
G1 X9.113 Y1.546 E0.2591
G1 X9.351 Y1.251 E0.2714
G1 X9.536 Y0.920 E0.2838
G1 X9.662 Y0.563 E0.2961
G1 X9.726 Y0.190 E0.3084
G1 X9.726 Y-0.190 E0.3208
G1 X9.662 Y-0.563 E0.3331
G1 X9.536 Y-0.920 E0.3454
G1 X9.351 Y-1.251 E0.3578
G1 X9.113 Y-1.546 E0.3701
G1 X8.829 Y-1.796 E0.3825
G1 X8.506 Y-1.995 E0.3948
G1 X8.154 Y-2.136 E0.4071
G1 X7.784 Y-2.216 E0.4195
G1 X7.405 Y-2.232 E0.4318
G1 X7.029 Y-2.184 E0.4441
G1 X6.667 Y-2.073 E0.4565
; feature outer perimeter
G1 X6.817 Y-1.701 F9000
G92 E0.0000
G1 X6.539 Y-1.561 E0.0101 F1200
G1 X6.289 Y-1.376 E0.0202
G1 X6.074 Y-1.151 E0.0304
G1 X5.900 Y-0.894 E0.0405
G1 X5.772 Y-0.610 E0.0506
G1 X5.693 Y-0.302 E0.0610
G1 X5.667 Y0.000 E0.0708
G1 X5.694 Y0.310 E0.0810
G1 X5.772 Y0.611 E0.0911
G1 X5.900 Y0.894 E0.1012
G1 X6.074 Y1.151 E0.1113
G1 X6.289 Y1.376 E0.1214
G1 X6.539 Y1.561 E0.1316
G1 X6.817 Y1.701 E0.1417
G1 X7.114 Y1.792 E0.1518
G1 X7.422 Y1.831 E0.1619
G1 X7.733 Y1.818 E0.1720
G1 X8.037 Y1.752 E0.1822
G1 X8.325 Y1.637 E0.1923
G1 X8.590 Y1.473 E0.2024
G1 X8.823 Y1.268 E0.2125
G1 X9.018 Y1.026 E0.2227
G1 X9.170 Y0.755 E0.2328
G1 X9.274 Y0.462 E0.2429
G1 X9.326 Y0.155 E0.2530
G1 X9.326 Y-0.155 E0.2631
G1 X9.274 Y-0.462 E0.2733
G1 X9.170 Y-0.755 E0.2834
G1 X9.018 Y-1.026 E0.2935
G1 X8.823 Y-1.268 E0.3036
G1 X8.590 Y-1.473 E0.3137
G1 X8.325 Y-1.637 E0.3239
G1 X8.037 Y-1.752 E0.3340
G1 X7.733 Y-1.818 E0.3441
G1 X7.422 Y-1.831 E0.3542
G1 X7.114 Y-1.792 E0.3643
G1 X6.817 Y-1.701 E0.3745
; feature solid layer
G1 X4.153 Y-0.372 F9000
G92 E0.0000
G1 X4.140 Y-0.385 E0.0006 F1920
G1 X4.140 Y-0.951 E0.0190
G1 X4.243 Y-0.848 E0.0238
G1 X4.313 Y-1.122 E0.0330
G1 X4.382 Y-1.275 E0.0384
G1 X4.140 Y-1.517 E0.0496
G1 X4.140 Y-2.083 E0.0680
G1 X4.560 Y-1.662 E0.0874
G1 X4.789 Y-2.000 E0.1006
G1 X4.140 Y-2.648 E0.1305
G1 X4.140 Y-3.214 E0.1489
G1 X5.048 Y-2.306 E0.1907
G1 X5.268 Y-2.536 E0.2011
G1 X5.334 Y-2.585 E0.2038
G1 X4.140 Y-3.780 E0.2588
G1 X4.140 Y-4.345 E0.2772
G1 X5.660 Y-2.826 E0.3472
G1 X5.729 Y-2.877 E0.3500
G1 X6.025 Y-3.026 E0.3608
G1 X4.140 Y-4.911 E0.4475
G1 X4.140 Y-5.477 E0.4660
G1 X6.425 Y-3.191 E0.5712
G1 X6.788 Y-3.302 E0.5835
G1 X6.869 Y-3.313 E0.5862
G1 X4.140 Y-6.042 E0.7119
G1 X4.140 Y-6.608 E0.7303
G1 X7.374 Y-3.375 E0.8792
G1 X7.929 Y-3.351 E0.8973
G1 X7.972 Y-3.342 E0.8987
G1 X4.140 Y-7.174 E1.0752
G1 X4.140 Y-7.739 E1.0936
G1 X8.757 Y-3.123 E1.3061
G1 X9.021 Y-3.017 E1.3154
G1 X9.509 Y-2.716 E1.3341
G1 X9.939 Y-2.338 E1.3527
G1 X10.299 Y-1.892 E1.3714
G1 X10.578 Y-1.392 E1.3900
G1 X10.628 Y-1.252 E1.3949
G1 X10.860 Y-1.019 E1.4056
G1 X10.860 Y-1.585 E1.4240
G1 X4.140 Y-8.305 E1.7334
G1 X4.140 Y-8.871 E1.7518
G1 X10.860 Y-2.151 E2.0612
G1 X10.860 Y-2.716 E2.0796
G1 X4.140 Y-9.436 E2.3891
G1 X4.140 Y-10.002 E2.4075
G1 X10.860 Y-3.282 E2.7169
G1 X10.860 Y-3.848 E2.7353
G1 X4.140 Y-10.568 E3.0447
G1 X4.140 Y-11.010 E3.0591
G1 X4.264 Y-11.010 E3.0631
G1 X10.860 Y-4.414 E3.3669
G1 X10.860 Y-4.979 E3.3853
G1 X4.829 Y-11.010 E3.6630
G1 X5.395 Y-11.010 E3.6814
G1 X10.860 Y-5.545 E3.9330
G1 X10.860 Y-6.111 E3.9514
G1 X5.961 Y-11.010 E4.1770
G1 X6.526 Y-11.010 E4.1954
G1 X10.860 Y-6.676 E4.3950
G1 X10.860 Y-7.242 E4.4134
G1 X7.092 Y-11.010 E4.5869
G1 X7.658 Y-11.010 E4.6053
G1 X10.860 Y-7.808 E4.7528
G1 X10.860 Y-8.373 E4.7712
G1 X8.223 Y-11.010 E4.8926
G1 X8.789 Y-11.010 E4.9110
G1 X10.860 Y-8.939 E5.0064
G1 X10.860 Y-9.505 E5.0248
G1 X9.355 Y-11.010 E5.0941
G1 X9.920 Y-11.010 E5.1125
G1 X10.860 Y-10.070 E5.1558
G1 X10.860 Y-10.636 E5.1742
G1 X10.486 Y-11.010 E5.1914
G1 X10.833 Y-0.481 F9000
G92 E0.0000
G1 X10.860 Y-0.454 E0.0013 F1920
G1 X10.808 Y0.626 F9000
G92 E0.0000
G1 X10.860 Y0.678 E0.0024 F1920
G1 X10.860 Y1.243 E0.0208
G1 X10.691 Y1.074 E0.0286
G1 X10.578 Y1.392 E0.0396
G1 X10.530 Y1.479 E0.0428
G1 X10.860 Y1.809 E0.0580
G1 X10.860 Y2.375 E0.0765
G1 X10.327 Y1.842 E0.1010
G1 X10.299 Y1.892 E0.1029
G1 X10.081 Y2.162 E0.1142
G1 X10.860 Y2.940 E0.1500
G1 X10.860 Y3.506 E0.1684
G1 X9.807 Y2.453 E0.2169
G1 X9.506 Y2.718 E0.2300
G1 X10.860 Y4.072 E0.2923
G1 X10.860 Y4.637 E0.3107
G1 X9.156 Y2.933 E0.3892
G1 X9.021 Y3.017 E0.3943
G1 X8.773 Y3.116 E0.4030
G1 X10.860 Y5.203 E0.4991
G1 X10.860 Y5.769 E0.5175
G1 X8.351 Y3.260 E0.6331
G1 X7.929 Y3.351 E0.6471
G1 X7.879 Y3.353 E0.6488
G1 X10.860 Y6.335 E0.7860
G1 X10.860 Y6.900 E0.8045
G1 X7.332 Y3.372 E0.9669
G1 X6.788 Y3.302 E0.9848
G1 X6.656 Y3.262 E0.9893
