;FLAVOR:Marlin
;TIME:2705
;Filament used: 3.82847m
;Layer height: 0.243
;MINX:-53.61
;MINY:-46.657
;MINZ:0.3
;MAXX:68.408
;MAXY:36.744
;MAXZ:23.054
;Generated with Cura_SteamEngine 4.11.0
M140 S70
M105
M190 S70
M104 S235
M105
M109 S235
M82 ;absolute extrusion mode
G1 E25 F200        ; prime extruder by extruding 15mm of material
; Squirt and wipe ;
M109 S225         ; Wait for the temp to hit 225
G00 X125 Y-60 Z0.1 F1000
G92 E0
G01 E25 F100        ; Extrude a little bit to replace oozage from auto levelling
G01 X90 Y-50 F6000
G01 Z5
G92 E0
G92 E0
G1 F3600 E-3
;LAYER_COUNT:90
;LAYER:0
M107
M204 S5000
M205 X30 Y30
G1 F600 Z1.3
G0 F4500 X2.481 Y-27.042 Z1.3
M204 S3000
M205 X20 Y20
;TYPE:SKIRT
G1 F600 Z0.3
G1 F3600 E0
G1 F2400 X2.193 Y-27.089 E0.01456
G1 X1.643 Y-27.216 E0.04272
G1 X1.432 Y-27.279 E0.05371
G1 X0.778 Y-27.533 E0.08871
G1 X0.129 Y-27.874 E0.12528
G1 X-.195 Y-28.076 E0.14433
G1 X-.676 Y-28.423 E0.17392
G1 X-1.07 Y-28.786 E0.20065
G1 X-1.467 Y-29.226 E0.23022
G1 X-1.802 Y-29.715 E0.25979
G1 X-2.069 Y-30.245 E0.2894
G1 X-2.261 Y-30.806 E0.31898
G1 X-2.377 Y-31.387 E0.34854
G1 X-2.414 Y-31.901 E0.37425
G1 X-2.422 Y-32.431 E0.40069
G1 X-2.423 Y-40.356 E0.79607
G1 X-2.413 Y-41.034 E0.8299
G1 X-2.364 Y-41.625 E0.85949
G1 X-2.236 Y-42.204 E0.88907
G1 X-2.032 Y-42.761 E0.91867
G1 X-1.754 Y-43.285 E0.94826
G1 X-1.409 Y-43.767 E0.97783
G1 X-.825 Y-44.354 E1.01914
G1 X-.571 Y-44.565 E1.03562
G1 X-.127 Y-44.888 E1.06301
G1 X0.523 Y-45.262 E1.10042
G1 X1.157 Y-45.544 E1.13504
G1 X1.338 Y-45.608 E1.14462
G1 X1.852 Y-45.756 E1.1713
G1 X2.118 Y-45.815 E1.1849
G1 X2.668 Y-45.9 E1.21266
G1 X3.252 Y-45.947 E1.24189
G1 X3.828 Y-45.959 E1.27064
G1 X15.037 Y-45.959 E1.82985
G1 X17.819 Y-45.998 E1.96866
G1 X20.503 Y-46.112 E2.10269
G1 X23.192 Y-46.303 E2.23718
G1 X25.071 Y-46.503 E2.33146
G1 X25.185 Y-46.507 E2.33715
G1 X26.538 Y-46.64 E2.40497
G1 X27.155 Y-46.657 E2.43577
G1 X27.583 Y-46.639 E2.45714
G1 X30.298 Y-46.561 E2.59265
G1 X31.721 Y-46.557 E2.66364
G1 X32.538 Y-46.525 E2.70443
G1 X33.062 Y-46.47 E2.73072
G1 X35.742 Y-46.23 E2.86496
G1 X38.454 Y-46.065 E3.00051
G1 X41.185 Y-45.975 E3.13684
G1 X42.982 Y-45.959 E3.22649
G1 X61.916 Y-45.959 E4.17111
G1 X62.622 Y-45.949 E4.20634
G1 X63.029 Y-45.928 E4.22667
G1 X63.56 Y-45.861 E4.25337
G1 X63.953 Y-45.787 E4.27332
G1 X64.652 Y-45.595 E4.30949
G1 X65.256 Y-45.355 E4.34191
G1 X65.774 Y-45.083 E4.3711
G1 X66.03 Y-44.927 E4.38606
G1 X66.503 Y-44.594 E4.41492
G1 X66.679 Y-44.452 E4.4262
G1 X67.087 Y-44.079 E4.45378
G1 X67.138 Y-44.026 E4.45745
G1 X67.519 Y-43.572 E4.48702
G1 X67.836 Y-43.071 E4.5166
G1 X68.083 Y-42.531 E4.54622
G1 X68.254 Y-41.964 E4.57577
G1 X68.348 Y-41.379 E4.60533
G1 X68.366 Y-41.042 E4.62217
G1 X68.377 Y-40.318 E4.65829
G1 X68.377 Y-32.539 E5.04639
G1 X68.367 Y-31.871 E5.07972
G1 X68.318 Y-31.28 E5.1093
G1 X68.19 Y-30.701 E5.13889
G1 X67.985 Y-30.145 E5.16845
G1 X67.708 Y-29.621 E5.19802
G1 X67.362 Y-29.139 E5.22762
G1 X66.854 Y-28.617 E5.26396
G1 X66.693 Y-28.477 E5.27461
G1 X66.247 Y-28.136 E5.30262
G1 X66.007 Y-27.976 E5.31701
G1 X65.44 Y-27.656 E5.34949
G1 X64.925 Y-27.428 E5.37759
G1 X64.72 Y-27.35 E5.38853
G1 X64.132 Y-27.172 E5.41918
G1 X63.908 Y-27.121 E5.43064
G1 X63.379 Y-27.034 E5.45739
G1 X62.685 Y-26.971 E5.49216
G1 X61.992 Y-26.959 E5.52674
G1 X36.237 Y-26.96 E6.81166
G1 X35.531 Y-26.971 E6.84688
G1 X35.351 Y-26.977 E6.85587
G1 X32.424 Y-27.143 E7.00213
G1 X29.742 Y-27.219 E7.13599
G1 X27.02 Y-27.219 E7.27179
G1 X24.322 Y-27.143 E7.40645
G1 X21.906 Y-27.009 E7.52717
G1 X21.364 Y-26.974 E7.55427
G1 X20.635 Y-26.959 E7.59064
G1 X4.035 Y-26.959 E8.41882
G1 X3.35 Y-26.969 E8.453
G1 X2.481 Y-27.042 E8.49651
M204 S5000
M205 X30 Y30
G0 F4500 X2.546 Y-27.437
M204 S3000
M205 X20 Y20
G1 F2400 X2.258 Y-27.484 E8.51107
G1 X1.758 Y-27.599 E8.53666
G1 X1.547 Y-27.662 E8.54765
G1 X0.952 Y-27.893 E8.57949
G1 X0.341 Y-28.214 E8.61393
G1 X0.017 Y-28.416 E8.63297
G1 X-.646 Y-28.933 E8.67492
G1 X-.792 Y-29.074 E8.68505
G1 X-1.17 Y-29.494 E8.71324
G1 X-1.484 Y-29.964 E8.74144
G1 X-1.73 Y-30.473 E8.76964
G1 X-1.901 Y-31.012 E8.79785
G1 X-2.01 Y-31.806 E8.83784
G1 X-2.022 Y-32.436 E8.86927
G1 X-2.023 Y-40.35 E9.2641
G1 X-2.013 Y-41.028 E9.29793
G1 X-1.964 Y-41.591 E9.32613
G1 X-1.837 Y-42.142 E9.35434
G1 X-1.634 Y-42.67 E9.38256
G1 X-1.358 Y-43.163 E9.41075
G1 X-1.015 Y-43.613 E9.43898
G1 X-.569 Y-44.046 E9.46999
G1 X0.088 Y-44.551 E9.51133
G1 X0.714 Y-44.911 E9.54736
G1 X1.291 Y-45.167 E9.57885
G1 X1.939 Y-45.365 E9.61266
G1 X2.205 Y-45.424 E9.62625
G1 X2.704 Y-45.502 E9.65145
G1 X3.265 Y-45.547 E9.67952
G1 X3.832 Y-45.559 E9.70782
G1 X15.042 Y-45.559 E10.26709
G1 X17.842 Y-45.599 E10.40679
G1 X20.512 Y-45.712 E10.54012
G1 X23.208 Y-45.903 E10.67496
G1 X25.114 Y-46.106 E10.77059
G1 X25.228 Y-46.11 E10.77628
G1 X26.577 Y-46.242 E10.8439
G1 X27.138 Y-46.257 E10.8719
G1 X27.554 Y-46.239 E10.89268
G1 X30.286 Y-46.161 E11.02903
G1 X31.713 Y-46.157 E11.10023
G1 X32.497 Y-46.127 E11.13937
G1 X32.991 Y-46.075 E11.16415
G1 X35.716 Y-45.832 E11.30064
G1 X38.453 Y-45.665 E11.43744
G1 X41.168 Y-45.576 E11.57297
G1 X42.979 Y-45.559 E11.66332
G1 X61.911 Y-45.559 E12.60785
G1 X62.617 Y-45.549 E12.64307
G1 X63.486 Y-45.468 E12.68661
G1 X63.879 Y-45.394 E12.70657
G1 X64.515 Y-45.219 E12.73947
G1 X65.085 Y-44.993 E12.77007
G1 X65.565 Y-44.742 E12.79709
G1 X65.821 Y-44.586 E12.81205
G1 X66.252 Y-44.283 E12.83833
G1 X66.428 Y-44.141 E12.84961
G1 X66.798 Y-43.802 E12.87465
G1 X66.849 Y-43.749 E12.87832
G1 X67.212 Y-43.314 E12.90658
G1 X67.509 Y-42.834 E12.93474
G1 X67.736 Y-42.316 E12.96296
G1 X67.887 Y-41.771 E12.99117
G1 X67.967 Y-41.036 E13.02806
G1 X67.977 Y-40.379 E13.06084
G1 X67.977 Y-32.545 E13.45168
G1 X67.967 Y-31.877 E13.48501
G1 X67.918 Y-31.314 E13.51321
G1 X67.791 Y-30.763 E13.54142
G1 X67.587 Y-30.236 E13.56961
G1 X67.311 Y-29.742 E13.59784
G1 X66.968 Y-29.293 E13.62603
G1 X66.592 Y-28.919 E13.65249
G1 X66.431 Y-28.779 E13.66313
G1 X66.025 Y-28.469 E13.68862
G1 X65.785 Y-28.309 E13.70301
G1 X65.27 Y-28.018 E13.73252
G1 X64.782 Y-27.801 E13.75917
G1 X64.577 Y-27.723 E13.77011
G1 X64.043 Y-27.562 E13.79793
G1 X63.338 Y-27.432 E13.8337
G1 X62.669 Y-27.371 E13.86721
G1 X61.987 Y-27.359 E13.90125
G1 X36.244 Y-27.359 E15.18557
G1 X35.538 Y-27.37 E15.2208
G1 X35.373 Y-27.376 E15.22903
G1 X32.422 Y-27.543 E15.37649
G1 X29.753 Y-27.619 E15.50971
G1 X27.009 Y-27.619 E15.6466
G1 X24.324 Y-27.543 E15.78061
G1 X21.88 Y-27.408 E15.90273
G1 X21.338 Y-27.373 E15.92983
G1 X20.63 Y-27.359 E15.96516
G1 X4.041 Y-27.359 E16.79278
G1 X3.356 Y-27.369 E16.82696
G1 X2.546 Y-27.437 E16.86752
M204 S5000
M205 X30 Y30
G0 F4500 X2.61 Y-27.832
M204 S3000
M205 X20 Y20
G1 F2400 X1.872 Y-27.982 E16.90509
G1 X1.661 Y-28.045 E16.91607
G1 X1.126 Y-28.253 E16.94471
G1 X0.552 Y-28.553 E16.97702
G1 X0.228 Y-28.755 E16.99607
G1 X-.368 Y-29.22 E17.03379
G1 X-.514 Y-29.361 E17.04391
G1 X-.871 Y-29.762 E17.0707
G1 X-1.164 Y-30.211 E17.09745
G1 X-1.388 Y-30.698 E17.12419
G1 X-1.537 Y-31.213 E17.15094
G1 X-1.611 Y-31.82 E17.18145
G1 X-1.622 Y-32.44 E17.21238
G1 X-1.623 Y-40.344 E17.60671
G1 X-1.613 Y-41.022 E17.64054
G1 X-1.565 Y-41.556 E17.66729
G1 X-1.438 Y-42.077 E17.69405
G1 X-1.235 Y-42.574 E17.72083
G1 X-.961 Y-43.035 E17.74759
G1 X-.622 Y-43.45 E17.77432
G1 X-0.059 Y-43.949 E17.81185
G1 X0.387 Y-44.267 E17.83918
G1 X0.905 Y-44.559 E17.86885
G1 X1.424 Y-44.79 E17.89719
G1 X2.025 Y-44.975 E17.92856
G1 X2.741 Y-45.104 E17.96486
G1 X3.278 Y-45.147 E17.99173
G1 X3.837 Y-45.159 E18.01963
G1 X15.048 Y-45.159 E18.57895
G1 X17.829 Y-45.198 E18.71771
G1 X20.557 Y-45.314 E18.85393
G1 X23.25 Y-45.505 E18.98862
G1 X25.156 Y-45.708 E19.08425
G1 X25.262 Y-45.711 E19.08954
G1 X26.616 Y-45.844 E19.15742
G1 X27.121 Y-45.858 E19.18262
G1 X27.527 Y-45.841 E19.20289
G1 X30.311 Y-45.761 E19.34185
G1 X31.705 Y-45.757 E19.41139
G1 X32.455 Y-45.73 E19.44884
G1 X32.974 Y-45.676 E19.47487
G1 X35.727 Y-45.429 E19.61277
G1 X38.417 Y-45.266 E19.74722
G1 X41.151 Y-45.176 E19.88369
G1 X42.975 Y-45.159 E19.9747
G1 X61.905 Y-45.159 E20.91912
G1 X62.611 Y-45.149 E20.95434
G1 X63.412 Y-45.075 E20.99448
G1 X63.805 Y-45.001 E21.01443
G1 X64.377 Y-44.843 E21.04403
G1 X64.915 Y-44.631 E21.07288
G1 X65.613 Y-44.244 E21.1127
G1 X66.177 Y-43.83 E21.14761
G1 X66.561 Y-43.471 E21.17383
G1 X66.903 Y-43.058 E21.20058
G1 X67.18 Y-42.599 E21.22733
G1 X67.386 Y-42.104 E21.25408
G1 X67.515 Y-41.583 E21.28086
G1 X67.567 Y-41.03 E21.30857
G1 X67.577 Y-40.373 E21.34135
G1 X67.577 Y-32.551 E21.73159
G1 X67.567 Y-31.883 E21.76492
G1 X67.519 Y-31.349 E21.79167
G1 X67.392 Y-30.828 E21.81842
G1 X67.189 Y-30.331 E21.84521
G1 X66.915 Y-29.871 E21.87192
G1 X66.575 Y-29.456 E21.89869
G1 X66.168 Y-29.08 E21.92633
G1 X65.563 Y-28.642 E21.96359
G1 X65.1 Y-28.38 E21.99013
G1 X64.64 Y-28.175 E22.01526
G1 X64.435 Y-28.097 E22.0262
G1 X63.954 Y-27.952 E22.05127
G1 X63.298 Y-27.83 E22.08456
G1 X62.653 Y-27.771 E22.11687
G1 X61.983 Y-27.759 E22.1503
G1 X36.25 Y-27.759 E23.43412
G1 X35.544 Y-27.77 E23.46935
G1 X35.396 Y-27.776 E23.47674
G1 X32.492 Y-27.941 E23.62186
G1 X29.728 Y-28.019 E23.75981
G1 X27.034 Y-28.019 E23.89421
G1 X24.29 Y-27.941 E24.03117
G1 X21.841 Y-27.806 E24.15353
G1 X21.312 Y-27.772 E24.17998
G1 X20.625 Y-27.759 E24.21426
G1 X4.046 Y-27.759 E25.04139
G1 X3.361 Y-27.769 E25.07557
G1 X2.61 Y-27.832 E25.11317
M204 S5000
M205 X30 Y30
G0 F4500 X2.675 Y-28.227
M204 S3000
M205 X20 Y20
G1 F2400 X1.986 Y-28.366 E25.14823
G1 X1.775 Y-28.429 E25.15922
G1 X1.299 Y-28.613 E25.18468
G1 X0.764 Y-28.893 E25.21481
G1 X0.44 Y-29.095 E25.23385
G1 X-0.09 Y-29.508 E25.26738
G1 X-.236 Y-29.649 E25.2775
G1 X-.571 Y-30.028 E25.30274
G1 X-.842 Y-30.455 E25.32797
G1 X-1.042 Y-30.919 E25.35318
G1 X-1.167 Y-31.409 E25.37841
G1 X-1.215 Y-31.945 E25.40526
G1 X-1.222 Y-32.483 E25.4321
G1 X-1.223 Y-40.338 E25.82399
G1 X-1.213 Y-41.016 E25.85782
G1 X-1.165 Y-41.52 E25.88307
G1 X-1.039 Y-42.009 E25.90827
G1 X-.838 Y-42.473 E25.93349
G1 X-.566 Y-42.899 E25.95871
G1 X-0.058 Y-43.43 E25.99537
G1 X0.519 Y-43.877 E26.03179
G1 X1.096 Y-44.208 E26.06497
G1 X1.557 Y-44.413 E26.09015
G1 X2.112 Y-44.584 E26.11912
G1 X2.778 Y-44.706 E26.1529
G1 X3.291 Y-44.747 E26.17857
G1 X3.841 Y-44.759 E26.20602
G1 X15.054 Y-44.759 E26.76544
G1 X17.851 Y-44.799 E26.905
G1 X20.568 Y-44.914 E27.04067
G1 X23.29 Y-45.107 E27.17681
G1 X25.198 Y-45.31 E27.27254
G1 X25.294 Y-45.313 E27.27733
G1 X26.655 Y-45.446 E27.34555
G1 X27.503 Y-45.441 E27.38786
G1 X30.299 Y-45.361 E27.52741
G1 X31.697 Y-45.357 E27.59716
G1 X32.414 Y-45.332 E27.63295
G1 X32.95 Y-45.276 E27.65984
G1 X35.666 Y-45.033 E27.79588
G1 X38.416 Y-44.865 E27.93334
G1 X41.134 Y-44.776 E28.06901
G1 X42.971 Y-44.759 E28.16066
G1 X61.899 Y-44.759 E29.10498
G1 X62.605 Y-44.749 E29.14021
G1 X63.338 Y-44.682 E29.17693
G1 X63.731 Y-44.608 E29.19688
G1 X64.24 Y-44.468 E29.22322
G1 X64.745 Y-44.269 E29.2503
G1 X65.405 Y-43.903 E29.28795
G1 X65.925 Y-43.518 E29.32023
G1 X66.273 Y-43.194 E29.34395
G1 X66.594 Y-42.803 E29.36919
G1 X66.849 Y-42.366 E29.39443
G1 X67.032 Y-41.895 E29.41964
G1 X67.139 Y-41.401 E29.44486
G1 X67.167 Y-41.024 E29.46372
G1 X67.177 Y-40.367 E29.4965
G1 X67.177 Y-32.557 E29.88615
G1 X67.167 Y-31.889 E29.91948
G1 X67.119 Y-31.386 E29.94469
G1 X66.993 Y-30.896 E29.96993
G1 X66.791 Y-30.433 E29.99513
G1 X66.519 Y-30.007 E30.02034
G1 X66.067 Y-29.522 E30.05342
G1 X65.581 Y-29.134 E30.08445
G1 X64.929 Y-28.742 E30.1224
G1 X64.293 Y-28.471 E30.15689
G1 X63.641 Y-28.291 E30.19064
G1 X62.837 Y-28.185 E30.2311
G1 X61.978 Y-28.159 E30.27397
G1 X36.256 Y-28.159 E31.55725
G1 X35.55 Y-28.17 E31.59247
G1 X35.419 Y-28.175 E31.59901
G1 X32.492 Y-28.341 E31.74528
G1 X29.739 Y-28.419 E31.88268
G1 X27.023 Y-28.419 E32.01818
G1 X24.257 Y-28.341 E32.15623
G1 X21.798 Y-28.205 E32.2791
G1 X21.286 Y-28.172 E32.3047
G1 X20.621 Y-28.159 E32.33788
G1 X4.052 Y-28.159 E33.16451
G1 X3.367 Y-28.169 E33.19869
G1 X2.675 Y-28.227 E33.23334
M204 S5000
M205 X30 Y30
G1 F3600 E30.23334
G1 F600 Z1.3
G0 F4500 X25.737 Y-35.14 Z1.3
M204 S3000
M205 X20 Y20
G1 F600 Z0.3
G1 F3600 E33.23334
G1 F2400 X25.682 Y-35.362 E33.24475
G1 X26.061 Y-35.373 E33.26366
G1 X26.416 Y-35.459 E33.28189
G1 X26.401 Y-35.384 E33.2857
G1 X26.034 Y-35.289 E33.30461
G1 X25.737 Y-35.14 E33.32119
M204 S5000
M205 X30 Y30
G0 F4500 X25.323 Y-35.18
M204 S3000
M205 X20 Y20
G1 F2400 X25.206 Y-35.493 E33.33786
G1 X24.857 Y-35.963 E33.36707
G1 X24.909 Y-36.096 E33.37419
G1 X25.187 Y-35.91 E33.39088
G1 X25.5 Y-35.795 E33.40752
G1 X25.832 Y-35.757 E33.42419
G1 X26.164 Y-35.799 E33.44088
G1 X26.505 Y-35.933 E33.45916
G1 X26.782 Y-36.12 E33.47584
G1 X26.918 Y-36.269 E33.4859
G1 X27.302 Y-36.286 E33.50508
G1 X27.468 Y-36.341 E33.5138
G1 X27.116 Y-36.054 E33.53646
G1 X26.932 Y-35.775 E33.55314
G1 X26.819 Y-35.461 E33.56978
G1 X26.802 Y-34.99 E33.5933
G1 X26.382 Y-34.975 E33.61427
G1 X26.065 Y-34.868 E33.63096
G1 X25.783 Y-34.69 E33.64759
G1 X25.628 Y-34.529 E33.65874
G1 X25.334 Y-34.617 E33.67406
G1 X25.362 Y-34.848 E33.68566
G1 X25.323 Y-35.18 E33.70234
M204 S5000
M205 X30 Y30
G1 F3600 E30.70234
G1 F600 Z1.3
G0 F4500 X26.122 Y-34.443 Z1.3
M204 S3000
M205 X20 Y20
G1 F600 Z0.3
G1 F3600 E33.70234
G1 F2400 X25.91 Y-34.257 E33.71641
G1 X25.785 Y-34.064 E33.72788
G1 X25.007 Y-34.297 E33.7684
G1 X24.872 Y-34.455 E33.77877
G1 X24.943 Y-34.655 E33.78936
G1 X24.958 Y-34.936 E33.8034
G1 X24.895 Y-35.211 E33.81747
G1 X24.73 Y-35.491 E33.83369
G1 X24.407 Y-35.878 E33.85884
G1 X24.469 Y-36.064 E33.86862
G1 X24.616 Y-36.654 E33.89895
G1 X24.958 Y-36.61 E33.91616
G1 X25.17 Y-36.399 E33.93108
G1 X25.408 Y-36.247 E33.94517
G1 X25.679 Y-36.167 E33.95926
G1 X25.961 Y-36.167 E33.97333
G1 X26.323 Y-36.29 E33.99241
G1 X26.554 Y-36.452 E34.00648
G1 X26.745 Y-36.708 E34.02242
G1 X27.074 Y-36.661 E34.039
G1 X27.351 Y-36.713 E34.05306
G1 X27.861 Y-37.019 E34.08273
G1 X28.131 Y-37.318 E34.10283
G1 X28.876 Y-37.049 E34.14235
G1 X28.914 Y-37.041 E34.14429
G1 X28.607 Y-36.862 E34.16202
G1 X28.145 Y-36.394 E34.19482
G1 X28.03 Y-36.127 E34.20933
G1 X27.686 Y-36.015 E34.22738
G1 X27.464 Y-35.842 E34.24142
G1 X27.298 Y-35.613 E34.25553
G1 X27.203 Y-35.348 E34.26957
G1 X27.186 Y-35.066 E34.28367
G1 X27.249 Y-34.791 E34.29774
G1 X27.385 Y-34.544 E34.31181
G1 X27.515 Y-34.405 E34.32131
G1 X26.937 Y-34.567 E34.35125
G1 X26.657 Y-34.604 E34.36534
G1 X26.378 Y-34.561 E34.37943
G1 X26.122 Y-34.443 E34.39349
M204 S5000
M205 X30 Y30
G0 F4500 X26.402 Y-34.142
M204 S3000
M205 X20 Y20
G1 F2400 X26.227 Y-34.012 E34.40437
G1 X26.11 Y-33.827 E34.41529
G1 X26.079 Y-33.559 E34.42875
G1 X24.777 Y-33.949 E34.49656
G1 X24.399 Y-34.391 E34.52557
G1 X24.558 Y-34.782 E34.54663
G1 X24.543 Y-34.999 E34.55748
G1 X24.423 Y-35.234 E34.57065
G1 X23.951 Y-35.799 E34.60738
G1 X24.081 Y-36.161 E34.62657
G1 X24.324 Y-37.137 E34.67675
G1 X24.803 Y-37.036 E34.70117
G1 X25.014 Y-37.091 E34.71205
G1 X25.159 Y-37.196 E34.72098
G1 X25.178 Y-37.041 E34.72877
G1 X25.359 Y-36.764 E34.74528
G1 X25.62 Y-36.592 E34.76087
G1 X25.835 Y-36.557 E34.77174
G1 X26.141 Y-36.646 E34.78764
G1 X26.314 Y-36.779 E34.79853
G1 X26.428 Y-36.965 E34.80941
G1 X26.468 Y-37.179 E34.82027
G1 X26.445 Y-37.305 E34.82666
G1 X26.937 Y-37.067 E34.85393
G1 X27.155 Y-37.073 E34.86481
G1 X27.373 Y-37.167 E34.87665
G1 X27.786 Y-37.502 E34.90318
G1 X27.874 Y-37.702 E34.91408
G1 X27.881 Y-37.834 E34.92068
G1 X29.012 Y-37.426 E34.98066
G1 X29.228 Y-37.39 E34.99159
G1 X29.441 Y-37.434 E35.00244
G1 X29.618 Y-37.547 E35.01292
G1 X29.636 Y-37.397 E35.02045
G1 X29.817 Y-37.12 E35.03696
G1 X30.078 Y-36.948 E35.05256
G1 X30.293 Y-36.913 E35.06342
G1 X30.599 Y-37.002 E35.07932
