;FLAVOR:Marlin
;TIME:2154
;Filament used: 2.82527m
;Layer height: 0.243
;MINX:-35.399
;MINY:-28.317
;MINZ:0.3
;MAXX:35.4
;MAXY:24.771
;MAXZ:19.211
;Generated with Cura_SteamEngine 4.11.0
M140 S70
M105
M190 S70
M104 S235
M105
M109 S235
M82 ;absolute extrusion mode
G1 E25 F200        ; prime extruder by extruding 15mm of material
; Squirt and wipe ;
M109 S225         ; Wait for the temp to hit 225
G00 X125 Y-60 Z0.1 F1000
G92 E0
G01 E25 F100        ; Extrude a little bit to replace oozage from auto levelling
G01 X90 Y-50 F6000
G01 Z5
G92 E0
G92 E0
G1 F3600 E-3
;LAYER_COUNT:100
;LAYER:0
M107
M204 S5000
M205 X30 Y30
G1 F600 Z1.3
G0 F4500 X0.889 Y24.226 Z1.3
M204 S3000
M205 X20 Y20
;TYPE:SKIRT
G1 F600 Z0.3
G1 F3600 E0
G1 F2400 X-1.832 Y24.226 E0.13575
G1 X-4.515 Y24.303 E0.26966
G1 X-7.239 Y24.458 E0.40578
G1 X-9.937 Y24.688 E0.54087
G1 X-10.541 Y24.746 E0.57115
G1 X-11.118 Y24.769 E0.59996
G1 X-11.242 Y24.771 E0.60614
G1 X-20.468 Y24.771 E1.06643
G1 X-21.166 Y24.761 E1.10126
G1 X-21.757 Y24.712 E1.13084
G1 X-22.336 Y24.585 E1.16042
G1 X-22.893 Y24.381 E1.19001
G1 X-23.417 Y24.103 E1.2196
G1 X-23.899 Y23.758 E1.24918
G1 X-24.331 Y23.351 E1.27879
G1 X-24.703 Y22.89 E1.30834
G1 X-25.011 Y22.383 E1.33794
G1 X-25.247 Y21.839 E1.36752
G1 X-25.408 Y21.269 E1.39707
G1 X-25.474 Y20.864 E1.41754
G1 X-25.568 Y20.047 E1.45857
G1 X-25.924 Y17.291 E1.59721
G1 X-26.342 Y14.64 E1.73111
G1 X-26.838 Y11.987 E1.86576
G1 X-27.419 Y9.305 E2.00267
G1 X-28.049 Y6.742 E2.13434
G1 X-28.779 Y4.1 E2.27109
G1 X-29.579 Y1.496 E2.407
G1 X-30.439 Y-1.042 E2.54069
G1 X-31.372 Y-3.563 E2.6748
G1 X-32.392 Y-6.094 E2.81094
G1 X-33.464 Y-8.551 E2.94468
G1 X-34.973 Y-11.749 E3.1211
G1 X-35.163 Y-12.211 E3.14602
G1 X-35.312 Y-12.785 E3.17561
G1 X-35.385 Y-13.434 E3.20819
G1 X-35.398 Y-13.864 E3.22965
G1 X-35.399 Y-22.027 E3.63691
G1 X-35.388 Y-22.716 E3.67129
G1 X-35.339 Y-23.307 E3.70087
G1 X-35.211 Y-23.886 E3.73046
G1 X-35.006 Y-24.442 E3.76002
G1 X-34.728 Y-24.966 E3.78961
G1 X-34.382 Y-25.448 E3.81922
G1 X-33.875 Y-25.968 E3.85545
G1 X-33.715 Y-26.107 E3.86602
G1 X-33.197 Y-26.493 E3.89825
G1 X-32.887 Y-26.691 E3.9166
G1 X-32.374 Y-26.973 E3.94581
G1 X-31.796 Y-27.215 E3.97707
G1 X-31.159 Y-27.415 E4.01038
G1 X-30.904 Y-27.474 E4.02344
G1 X-30.344 Y-27.566 E4.05175
G1 X-29.725 Y-27.614 E4.08273
G1 X-29.546 Y-27.62 E4.09166
G1 X-29.013 Y-27.626 E4.11826
G1 X-17.94 Y-27.626 E4.67069
G1 X-15.158 Y-27.665 E4.8095
G1 X-12.474 Y-27.779 E4.94352
G1 X-9.806 Y-27.969 E5.07697
G1 X-7.904 Y-28.17 E5.17239
G1 X-7.797 Y-28.174 E5.17773
G1 X-6.439 Y-28.307 E5.2458
G1 X-5.697 Y-28.317 E5.28283
G1 X-5.267 Y-28.286 E5.30433
G1 X-2.534 Y-28.13 E5.44091
G1 X-.55 Y-28.066 E5.53994
G1 X-0.08 Y-28.048 E5.56341
G1 X1.277 Y-27.941 E5.63132
G1 X1.493 Y-27.921 E5.64214
G1 X4.196 Y-27.746 E5.77727
G1 X6.883 Y-27.65 E5.91142
G1 X9.03 Y-27.626 E6.01854
G1 X28.939 Y-27.626 E7.0118
G1 X29.645 Y-27.616 E7.04703
G1 X30.154 Y-27.585 E7.07247
G1 X30.928 Y-27.465 E7.11154
G1 X31.496 Y-27.317 E7.14083
G1 X31.78 Y-27.222 E7.15577
G1 X32.256 Y-27.031 E7.18136
G1 X32.778 Y-26.759 E7.21072
G1 X33.031 Y-26.606 E7.22547
G1 X33.48 Y-26.295 E7.25272
G1 X33.665 Y-26.149 E7.26448
G1 X34.138 Y-25.716 E7.29647
G1 X34.189 Y-25.662 E7.30018
G1 X34.566 Y-25.205 E7.32974
G1 X34.878 Y-24.701 E7.35931
G1 X35.12 Y-24.159 E7.38892
G1 X35.286 Y-23.59 E7.41849
G1 X35.389 Y-22.708 E7.46279
G1 X35.4 Y-21.983 E7.49897
G1 X35.399 Y-14.206 E7.88697
G1 X35.389 Y-13.537 E7.92035
G1 X35.34 Y-12.946 E7.94993
G1 X35.212 Y-12.367 E7.97952
G1 X34.918 Y-11.622 E8.01947
G1 X34.542 Y-10.879 E8.06102
G1 X34.007 Y-9.854 E8.1187
G1 X32.815 Y-7.404 E8.25463
G1 X31.71 Y-4.96 E8.38845
G1 X30.643 Y-2.415 E8.52613
G1 X29.68 Y0.092 E8.66011
G1 X28.785 Y2.622 E8.794
G1 X27.958 Y5.192 E8.92869
G1 X27.2 Y7.798 E9.06409
G1 X26.516 Y10.421 E9.19933
G1 X25.905 Y13.069 E9.33491
G1 X25.382 Y15.679 E9.46771
G1 X24.922 Y18.36 E9.60342
G1 X24.552 Y20.944 E9.73365
G1 X24.51 Y21.185 E9.74586
G1 X24.36 Y21.759 E9.77546
G1 X24.135 Y22.307 E9.80501
G1 X23.837 Y22.82 E9.83461
G1 X23.474 Y23.289 E9.8642
G1 X23.05 Y23.704 E9.8938
G1 X22.575 Y24.058 E9.92335
G1 X22.056 Y24.346 E9.95297
G1 X21.504 Y24.561 E9.98252
G1 X20.927 Y24.699 E10.01212
G1 X20.312 Y24.76 E10.04295
G1 X19.868 Y24.771 E10.06511
G1 X10.642 Y24.771 E10.5254
G1 X9.944 Y24.761 E10.56023
G1 X9.582 Y24.74 E10.57832
G1 X9.025 Y24.686 E10.60623
G1 X6.288 Y24.454 E10.74327
G1 X3.574 Y24.301 E10.87889
G1 X0.889 Y24.226 E11.0129
M204 S5000
M205 X30 Y30
G0 F4500 X0.9 Y23.826
M204 S3000
M205 X20 Y20
G1 F2400 X-1.843 Y23.826 E11.14975
G1 X-4.515 Y23.903 E11.28311
G1 X-7.259 Y24.059 E11.42023
G1 X-10.016 Y24.294 E11.55828
G1 X-10.576 Y24.347 E11.58634
G1 X-11.13 Y24.369 E11.614
G1 X-11.242 Y24.371 E11.61959
G1 X-20.462 Y24.371 E12.07958
G1 X-21.16 Y24.361 E12.1144
G1 X-21.724 Y24.313 E12.14264
G1 X-22.274 Y24.186 E12.1708
G1 X-22.802 Y23.982 E12.19904
G1 X-23.296 Y23.707 E12.22725
G1 X-23.745 Y23.364 E12.25544
G1 X-24.142 Y22.962 E12.28363
G1 X-24.479 Y22.507 E12.31188
G1 X-24.747 Y22.01 E12.34005
G1 X-24.943 Y21.48 E12.36824
G1 X-25.077 Y20.819 E12.40189
G1 X-25.178 Y19.942 E12.44593
G1 X-25.525 Y17.249 E12.58139
G1 X-25.948 Y14.569 E12.71676
G1 X-26.446 Y11.908 E12.85182
G1 X-27.027 Y9.222 E12.98892
G1 X-27.668 Y6.62 E13.12262
G1 X-28.388 Y4.015 E13.25745
G1 X-29.195 Y1.388 E13.39456
G1 X-30.069 Y-1.193 E13.53051
G1 X-31.007 Y-3.727 E13.66532
G1 X-32.025 Y-6.255 E13.80128
G1 X-33.099 Y-8.716 E13.93524
G1 X-34.614 Y-11.926 E14.11233
G1 X-34.791 Y-12.362 E14.13581
G1 X-34.928 Y-12.911 E14.16404
G1 X-34.985 Y-13.45 E14.19108
G1 X-34.998 Y-13.864 E14.21174
G1 X-34.999 Y-22.021 E14.6187
G1 X-34.988 Y-22.71 E14.65307
G1 X-34.94 Y-23.273 E14.68126
G1 X-34.812 Y-23.824 E14.70949
G1 X-34.607 Y-24.351 E14.7377
G1 X-34.331 Y-24.844 E14.76589
G1 X-33.988 Y-25.293 E14.79407
G1 X-33.612 Y-25.666 E14.8205
G1 X-33.452 Y-25.805 E14.83107
G1 X-32.982 Y-26.156 E14.86034
G1 X-32.672 Y-26.354 E14.87869
G1 X-32.205 Y-26.61 E14.90526
G1 X-31.648 Y-26.844 E14.9354
G1 X-31.069 Y-27.025 E14.96566
G1 X-30.814 Y-27.084 E14.97872
G1 X-30.305 Y-27.168 E15.00446
G1 X-29.704 Y-27.215 E15.03454
G1 X-29.541 Y-27.22 E15.04267
G1 X-29.008 Y-27.226 E15.06927
G1 X-17.935 Y-27.226 E15.6217
G1 X-15.135 Y-27.266 E15.76141
G1 X-12.465 Y-27.379 E15.89473
G1 X-9.761 Y-27.571 E16.02997
G1 X-7.861 Y-27.772 E16.1253
G1 X-7.766 Y-27.775 E16.13004
G1 X-6.4 Y-27.909 E16.19851
G1 X-5.726 Y-27.918 E16.23214
G1 X-5.319 Y-27.889 E16.2525
G1 X-2.529 Y-27.73 E16.39192
G1 X-.574 Y-27.666 E16.48951
G1 X-.111 Y-27.65 E16.51262
G1 X1.239 Y-27.543 E16.58018
G1 X1.462 Y-27.522 E16.59136
G1 X4.191 Y-27.346 E16.72779
G1 X6.863 Y-27.25 E16.86118
G1 X9.026 Y-27.226 E16.9691
G1 X28.934 Y-27.226 E17.96232
G1 X29.64 Y-27.216 E17.99754
G1 X30.57 Y-27.127 E18.04415
G1 X30.852 Y-27.073 E18.05848
G1 X31.369 Y-26.937 E18.08515
G1 X32.086 Y-26.669 E18.12334
G1 X32.571 Y-26.417 E18.1506
G1 X33.232 Y-25.981 E18.19011
G1 X33.417 Y-25.835 E18.20187
G1 X33.847 Y-25.441 E18.23096
G1 X33.898 Y-25.387 E18.23467
G1 X34.256 Y-24.95 E18.26285
G1 X34.549 Y-24.467 E18.29104
G1 X34.771 Y-23.947 E18.31925
G1 X34.917 Y-23.4 E18.34749
G1 X34.99 Y-22.702 E18.3825
G1 X35 Y-21.983 E18.41838
G1 X34.999 Y-14.212 E18.80608
G1 X34.989 Y-13.543 E18.83946
G1 X34.94 Y-12.98 E18.86765
G1 X34.813 Y-12.429 E18.89586
G1 X34.56 Y-11.802 E18.92959
G1 X34.188 Y-11.064 E18.97082
G1 X33.636 Y-10.006 E19.03036
G1 X32.462 Y-7.594 E19.16419
G1 X31.335 Y-5.1 E19.30073
G1 X30.269 Y-2.559 E19.43821
G1 X29.308 Y-0.057 E19.57192
G1 X28.403 Y2.502 E19.70734
G1 X27.579 Y5.062 E19.84151
G1 X26.814 Y7.69 E19.97807
G1 X26.125 Y10.335 E20.11443
G1 X25.516 Y12.972 E20.24945
G1 X24.982 Y15.639 E20.38515
G1 X24.531 Y18.271 E20.51838
G1 X24.156 Y20.887 E20.65022
G1 X24.117 Y21.11 E20.66152
G1 X23.973 Y21.657 E20.68974
G1 X23.752 Y22.178 E20.71797
G1 X23.461 Y22.662 E20.74615
G1 X23.104 Y23.1 E20.77434
G1 X22.689 Y23.484 E20.80255
G1 X22.223 Y23.805 E20.83078
G1 X21.718 Y24.058 E20.85896
G1 X21.181 Y24.237 E20.8872
G1 X20.625 Y24.338 E20.91539
G1 X19.98 Y24.369 E20.94761
G1 X19.868 Y24.371 E20.9532
G1 X10.648 Y24.371 E21.41318
G1 X9.95 Y24.361 E21.44801
G1 X9.621 Y24.342 E21.46445
G1 X9.071 Y24.289 E21.49202
G1 X6.31 Y24.055 E21.63026
G1 X3.572 Y23.901 E21.76707
G1 X0.9 Y23.826 E21.90043
M204 S5000
M205 X30 Y30
G0 F4500 X0.875 Y23.426
M204 S3000
M205 X20 Y20
G1 F2400 X-1.82 Y23.426 E22.03489
G1 X-4.584 Y23.505 E22.17284
G1 X-7.28 Y23.659 E22.30756
G1 X-9.997 Y23.89 E22.4436
G1 X-10.611 Y23.949 E22.47438
G1 X-11.141 Y23.97 E22.50084
G1 X-20.457 Y23.971 E22.96562
G1 X-21.155 Y23.961 E23.00044
G1 X-21.689 Y23.913 E23.02719
G1 X-22.21 Y23.787 E23.05394
G1 X-22.707 Y23.584 E23.08072
G1 X-23.168 Y23.31 E23.10747
G1 X-23.583 Y22.971 E23.13421
G1 X-23.943 Y22.573 E23.16098
G1 X-24.24 Y22.127 E23.18772
G1 X-24.468 Y21.641 E23.2145
G1 X-24.62 Y21.127 E23.24124
G1 X-24.679 Y20.773 E23.25914
G1 X-24.78 Y19.896 E23.30319
G1 X-25.128 Y17.202 E23.43871
G1 X-25.553 Y14.511 E23.57463
G1 X-26.057 Y11.814 E23.71151
G1 X-26.634 Y9.147 E23.84765
G1 X-27.28 Y6.523 E23.98247
G1 X-28.015 Y3.863 E24.12015
G1 X-28.806 Y1.29 E24.25444
G1 X-29.69 Y-1.323 E24.39206
G1 X-30.632 Y-3.867 E24.52741
G1 X-31.652 Y-6.398 E24.66355
G1 X-32.748 Y-8.91 E24.80028
G1 X-34.254 Y-12.101 E24.97632
G1 X-34.42 Y-12.513 E24.99848
G1 X-34.543 Y-13.034 E25.02519
G1 X-34.595 Y-13.729 E25.05996
G1 X-34.598 Y-13.864 E25.0667
G1 X-34.6 Y-22.014 E25.4733
G1 X-34.589 Y-22.703 E25.50768
G1 X-34.54 Y-23.238 E25.53448
G1 X-34.413 Y-23.759 E25.56124
G1 X-34.21 Y-24.255 E25.58797
G1 X-33.935 Y-24.715 E25.61471
G1 X-33.595 Y-25.13 E25.64148
G1 X-33.19 Y-25.503 E25.66895
G1 X-32.767 Y-25.819 E25.69529
G1 X-32.036 Y-26.248 E25.73758
G1 X-31.5 Y-26.472 E25.76656
G1 X-30.979 Y-26.635 E25.79379
G1 X-30.266 Y-26.77 E25.83
G1 X-29.683 Y-26.815 E25.85917
G1 X-29.537 Y-26.82 E25.86646
G1 X-29.004 Y-26.826 E25.89305
G1 X-17.929 Y-26.826 E26.44558
G1 X-15.148 Y-26.865 E26.58434
G1 X-12.42 Y-26.981 E26.72057
G1 X-9.719 Y-27.173 E26.85566
G1 X-7.819 Y-27.374 E26.95098
G1 X-7.731 Y-27.377 E26.95537
G1 X-6.361 Y-27.511 E27.02405
G1 X-5.754 Y-27.519 E27.05433
G1 X-5.297 Y-27.486 E27.07719
G1 X-2.565 Y-27.331 E27.21371
G1 X-.596 Y-27.267 E27.312
G1 X-.143 Y-27.251 E27.33461
G1 X1.202 Y-27.144 E27.40193
G1 X1.399 Y-27.126 E27.4118
G1 X4.153 Y-26.948 E27.54948
G1 X6.885 Y-26.849 E27.68587
G1 X9.022 Y-26.826 E27.79249
G1 X28.928 Y-26.826 E28.78561
G1 X29.634 Y-26.816 E28.82083
G1 X30.495 Y-26.734 E28.86398
G1 X31.242 Y-26.558 E28.90227
G1 X31.916 Y-26.307 E28.93815
G1 X32.364 Y-26.075 E28.96332
G1 X32.984 Y-25.667 E29.00035
G1 X33.169 Y-25.521 E29.01211
G1 X33.556 Y-25.167 E29.03828
G1 X33.607 Y-25.113 E29.04198
G1 X33.945 Y-24.697 E29.06872
G1 X34.218 Y-24.235 E29.0955
G1 X34.419 Y-23.738 E29.12224
G1 X34.544 Y-23.216 E29.14902
G1 X34.59 Y-22.696 E29.17506
G1 X34.6 Y-21.984 E29.21059
G1 X34.599 Y-14.218 E29.59804
G1 X34.589 Y-13.549 E29.63142
G1 X34.541 Y-13.015 E29.65817
G1 X34.414 Y-12.494 E29.68492
G1 X34.203 Y-11.982 E29.71255
G1 X33.833 Y-11.248 E29.75356
G1 X33.287 Y-10.201 E29.81247
G1 X32.082 Y-7.727 E29.94976
G1 X30.972 Y-5.271 E30.08422
G1 X29.907 Y-2.732 E30.22159
G1 X28.929 Y-.185 E30.3577
G1 X28.032 Y2.352 E30.49195
G1 X27.187 Y4.975 E30.62944
G1 X26.432 Y7.574 E30.76446
G1 X25.741 Y10.225 E30.90114
G1 X25.121 Y12.909 E31.03857
G1 X24.589 Y15.564 E31.17366
G1 X24.134 Y18.218 E31.308
G1 X23.76 Y20.83 E31.43965
G1 X23.724 Y21.036 E31.45008
G1 X23.585 Y21.553 E31.47679
G1 X23.37 Y22.045 E31.50357
G1 X23.085 Y22.499 E31.53032
G1 X22.736 Y22.906 E31.55707
G1 X22.329 Y23.256 E31.58385
G1 X21.876 Y23.542 E31.61057
G1 X21.385 Y23.757 E31.63732
G1 X20.867 Y23.897 E31.66409
G1 X20.289 Y23.961 E31.6931
G1 X19.868 Y23.971 E31.71411
G1 X10.653 Y23.971 E32.17385
G1 X9.955 Y23.961 E32.20867
G1 X9.659 Y23.944 E32.22347
G1 X9.083 Y23.888 E32.25234
G1 X6.331 Y23.655 E32.39013
G1 X3.642 Y23.503 E32.5245
G1 X0.875 Y23.426 E32.6626
M204 S5000
M205 X30 Y30
G0 F4500 X0.887 Y23.026
M204 S3000
M205 X20 Y20
G1 F2400 X-1.831 Y23.026 E32.7982
G1 X-4.584 Y23.105 E32.9356
G1 X-7.336 Y23.262 E33.07312
G1 X-10.024 Y23.491 E33.20771
G1 X-10.645 Y23.55 E33.23883
G1 X-11.152 Y23.57 E33.26415
G1 X-20.451 Y23.571 E33.72808
G1 X-21.149 Y23.561 E33.7629
G1 X-21.652 Y23.514 E33.78811
G1 X-22.142 Y23.388 E33.81335
G1 X-22.606 Y23.186 E33.8386
G1 X-23.032 Y22.914 E33.86381
G1 X-23.41 Y22.579 E33.88901
G1 X-23.73 Y22.188 E33.91422
G1 X-23.985 Y21.751 E33.93946
G1 X-24.168 Y21.28 E33.96467
G1 X-24.282 Y20.727 E33.99284
G1 X-24.378 Y19.894 E34.03467
G1 X-24.735 Y17.125 E34.17396
G1 X-25.165 Y14.406 E34.3113
G1 X-25.655 Y11.781 E34.44453
G1 X-26.248 Y9.039 E34.58449
G1 X-26.893 Y6.418 E34.71915
G1 X-27.621 Y3.786 E34.85539
G1 X-28.431 Y1.15 E34.99297
G1 X-29.312 Y-1.453 E35.13007
G1 X-30.262 Y-4.019 E35.26658
G1 X-31.285 Y-6.559 E35.4032
G1 X-32.371 Y-9.047 E35.53863
G1 X-33.892 Y-12.271 E35.71648
G1 X-34.047 Y-12.661 E35.73742
G1 X-34.157 Y-13.155 E35.76267
G1 X-34.196 Y-13.744 E35.79212
G1 X-34.198 Y-13.864 E35.7981
G1 X-34.2 Y-22.008 E36.20441
G1 X-34.189 Y-22.697 E36.23879
G1 X-34.141 Y-23.2 E36.264
G1 X-34.014 Y-23.69 E36.28925
G1 X-33.812 Y-24.153 E36.31445
G1 X-33.539 Y-24.579 E36.3397
G1 X-33.088 Y-25.062 E36.37266
G1 X-32.552 Y-25.482 E36.40664
G1 X-31.868 Y-25.885 E36.44624
G1 X-31.352 Y-26.101 E36.47415
G1 X-30.633 Y-26.305 E36.51144
G1 X-29.984 Y-26.396 E36.54413
G1 X-29.532 Y-26.42 E36.56672
G1 X-28.999 Y-26.426 E36.59331
G1 X-17.923 Y-26.426 E37.14589
G1 X-15.126 Y-26.466 E37.28545
G1 X-12.409 Y-26.581 E37.42112
G1 X-9.679 Y-26.774 E37.55766
G1 X-7.777 Y-26.976 E37.65309
G1 X-7.698 Y-26.978 E37.65703
G1 X-6.322 Y-27.113 E37.72601
G1 X-5.782 Y-27.12 E37.75295
G1 X-5.345 Y-27.089 E37.77481
G1 X-2.561 Y-26.93 E37.91393
G1 X-.618 Y-26.867 E38.01092
G1 X-.174 Y-26.852 E38.03308
G1 X1.165 Y-26.746 E38.10009
G1 X1.406 Y-26.723 E38.11217
G1 X4.113 Y-26.549 E38.2475
G1 X6.865 Y-26.45 E38.38489
G1 X9.017 Y-26.426 E38.49226
G1 X28.922 Y-26.426 E39.48533
G1 X29.628 Y-26.416 E39.52055
G1 X30.42 Y-26.341 E39.56024
G1 X31.115 Y-26.179 E39.59584
G1 X31.745 Y-25.945 E39.62937
G1 X32.41 Y-25.579 E39.66724
G1 X32.921 Y-25.207 E39.69878
G1 X33.316 Y-24.838 E39.72574
G1 X33.633 Y-24.444 E39.75097
G1 X33.884 Y-24.006 E39.77616
G1 X34.063 Y-23.533 E39.80139
G1 X34.165 Y-23.037 E39.82665
G1 X34.19 Y-22.69 E39.84401
G1 X34.2 Y-21.984 E39.87924
G1 X34.199 Y-14.224 E40.26638
G1 X34.189 Y-13.555 E40.29976
G1 X34.141 Y-13.052 E40.32497
G1 X34.015 Y-12.562 E40.35022
G1 X33.846 Y-12.162 E40.37188
G1 X33.478 Y-11.433 E40.41262
G1 X32.931 Y-10.384 E40.47164
G1 X31.73 Y-7.917 E40.60853
G1 X30.603 Y-5.424 E40.74503
G1 X29.525 Y-2.853 E40.88411
G1 X28.567 Y-.358 E41.01745
G1 X27.647 Y2.244 E41.15514
G1 X26.811 Y4.837 E41.29106
G1 X26.044 Y7.476 E41.42817
G1 X25.35 Y10.139 E41.56547
G1 X24.734 Y12.805 E41.70198
G1 X24.196 Y15.49 E41.8386
G1 X23.737 Y18.166 E41.97405
G1 X23.364 Y20.774 E42.10549
G1 X23.331 Y20.961 E42.11496
G1 X23.198 Y21.448 E42.14015
G1 X22.989 Y21.909 E42.1654
G1 X22.711 Y22.331 E42.19061
G1 X22.369 Y22.704 E42.21586
G1 X21.973 Y23.018 E42.24107
G1 X21.533 Y23.266 E42.26627
G1 X21.058 Y23.441 E42.29153
G1 X20.563 Y23.54 E42.31671
G1 X19.958 Y23.57 E42.34693
G1 X10.659 Y23.571 E42.81086
G1 X9.961 Y23.561 E42.84569
G1 X9.698 Y23.546 E42.85883
G1 X9.139 Y23.492 E42.88685
G1 X6.354 Y23.256 E43.02629
G1 X3.638 Y23.103 E43.16201
G1 X0.887 Y23.026 E43.29931
M204 S5000
M205 X30 Y30
G1 F3600 E40.29931
G1 F600 Z1.3
G0 F4500 X-7.28 Y-16.956 Z1.3
M204 S3000
M205 X20 Y20
