N0010 (Filename: X-Class CAM Job.tap)
N0020 (Post processor: Mach3.scpost)
N0030 (Date:28/02/2022 Time:12:15:53)
N0040 G21 (Units: Metric)
N0050 G40 G90 G91.1
N0060 F1
N0070 (Part: Betsy Motor Mount Plate Duplicate 7)
N0080 (Operation: Drill, Motor Mount Fixture Holes, T9: 3.00mm Fish-tail, Chip-breaker router, 4.5 mm Deep)
N0090 S11000 (RCC08-1181-039F)
N0100 (3.00mm Fish-tail, Chip-breaker router)
N0110 T9 M06
N0120  G43 H9
N0130 G00 Z30.5000
N0140 M08 (Flood coolant on)
N0141 M07 (LED Lighting on)
N0150 S11000 M03
N0160 X119.0856 Y12.5176
N0170 Z25.5000
N0180 G01 Z18.5000 F140.0
N0190 G00 Z21.5000
N0200 G01 Z16.5000
N0210 G00 Z19.5000
N0220 G01 Z16.0000
N0230 G00 Z30.5000
N0240 X101.4079
N0250 Z25.5000
N0260 G01 Z18.5000
N0270 G00 Z21.5000
N0280 G01 Z16.5000
N0290 G00 Z19.5000
N0300 G01 Z16.0000
N0310 G00 Z30.5000
N0320 Y30.1952
N0330 Z25.5000
N0340 G01 Z18.5000
N0350 G00 Z21.5000
N0360 G01 Z16.5000
N0370 G00 Z19.5000
N0380 G01 Z16.0000
N0390 G00 Z30.5000
N0400 X119.0856
N0410 Z25.5000
N0420 G01 Z18.5000
N0430 G00 Z21.5000
N0440 G01 Z16.5000
N0450 G00 Z19.5000
N0460 G01 Z16.0000
N0470 G00 Z30.5000
N0480 X140.2468 Y36.3564
N0490 Z25.5000
N0500 G01 Z18.5000
N0510 G00 Z21.5000
N0520 G01 Z16.5000
N0530 G00 Z19.5000
N0540 G01 Z16.0000
N0550 G00 Z30.5000
N0560 Y6.3564
N0570 Z25.5000
N0580 G01 Z18.5000
N0590 G00 Z21.5000
N0600 G01 Z16.5000
N0610 G00 Z19.5000
N0620 G01 Z16.0000
N0630 G00 Z30.5000
N0640 X80.2468
N0650 Z25.5000
N0660 G01 Z18.5000
N0670 G00 Z21.5000
N0680 G01 Z16.5000
N0690 G00 Z19.5000
N0700 G01 Z16.0000
N0710 G00 Z30.5000
N0720 Y36.3564
N0730 Z25.5000
N0740 G01 Z18.5000
N0750 G00 Z21.5000
N0760 G01 Z16.5000
N0770 G00 Z19.5000
N0780 G01 Z16.0000
N0790 G00 Z30.5000
N0800 (Part: Betsy Motor Mount Plate Duplicate 6)
N0810 (Operation: Drill, Motor Mount Fixture Holes, T9: 3.00mm Fish-tail, Chip-breaker router, 4.5 mm Deep)
N0820 X194.9251 Y12.6493
N0830 Z25.5000
N0840 G01 Z18.5000
N0850 G00 Z21.5000
N0860 G01 Z16.5000
N0870 G00 Z19.5000
N0880 G01 Z16.0000
N0890 G00 Z30.5000
N0900 X177.2475
N0910 Z25.5000
N0920 G01 Z18.5000
N0930 G00 Z21.5000
N0940 G01 Z16.5000
N0950 G00 Z19.5000
N0960 G01 Z16.0000
N0970 G00 Z30.5000
N0980 Y30.3270
N0990 Z25.5000
N1000 G01 Z18.5000
N1010 G00 Z21.5000
N1020 G01 Z16.5000
N1030 G00 Z19.5000
N1040 G01 Z16.0000
N1050 G00 Z30.5000
N1060 X194.9251
N1070 Z25.5000
N1080 G01 Z18.5000
N1090 G00 Z21.5000
N1100 G01 Z16.5000
N1110 G00 Z19.5000
N1120 G01 Z16.0000
N1130 G00 Z30.5000
N1140 X216.0863 Y36.4882
N1150 Z25.5000
N1160 G01 Z18.5000
N1170 G00 Z21.5000
N1180 G01 Z16.5000
N1190 G00 Z19.5000
N1200 G01 Z16.0000
N1210 G00 Z30.5000
N1220 Y6.4882
N1230 Z25.5000
N1240 G01 Z18.5000
N1250 G00 Z21.5000
N1260 G01 Z16.5000
N1270 G00 Z19.5000
N1280 G01 Z16.0000
N1290 G00 Z30.5000
N1300 X156.0863
N1310 Z25.5000
N1320 G01 Z18.5000
N1330 G00 Z21.5000
N1340 G01 Z16.5000
N1350 G00 Z19.5000
N1360 G01 Z16.0000
N1370 G00 Z30.5000
N1380 Y36.4882
N1390 Z25.5000
N1400 G01 Z18.5000
N1410 G00 Z21.5000
N1420 G01 Z16.5000
N1430 G00 Z19.5000
N1440 G01 Z16.0000
N1450 G00 Z30.5000
N1460 (Part: Betsy Motor Mount Plate Duplicate 4)
N1470 (Operation: Drill, Motor Mount Fixture Holes, T9: 3.00mm Fish-tail, Chip-breaker router, 4.5 mm Deep)
N1480 X194.6670 Y195.2505
N1490 Z25.5000
N1500 G01 Z18.5000
N1510 G00 Z21.5000
N1520 G01 Z16.5000
N1530 G00 Z19.5000
N1540 G01 Z16.0000
N1550 G00 Z30.5000
N1560 X176.9894
N1570 Z25.5000
N1580 G01 Z18.5000
N1590 G00 Z21.5000
N1600 G01 Z16.5000
N1610 G00 Z19.5000
N1620 G01 Z16.0000
N1630 G00 Z30.5000
N1640 Y212.9282
N1650 Z25.5000
N1660 G01 Z18.5000
N1670 G00 Z21.5000
N1680 G01 Z16.5000
N1690 G00 Z19.5000
N1700 G01 Z16.0000
N1710 G00 Z30.5000
N1720 X194.6670
N1730 Z25.5000
N1740 G01 Z18.5000
N1750 G00 Z21.5000
N1760 G01 Z16.5000
N1770 G00 Z19.5000
N1780 G01 Z16.0000
N1790 G00 Z30.5000
N1800 X215.8282 Y219.0893
N1810 Z25.5000
N1820 G01 Z18.5000
N1830 G00 Z21.5000
N1840 G01 Z16.5000
N1850 G00 Z19.5000
N1860 G01 Z16.0000
N1870 G00 Z30.5000
N1880 Y189.0893
N1890 Z25.5000
N1900 G01 Z18.5000
N1910 G00 Z21.5000
N1920 G01 Z16.5000
N1930 G00 Z19.5000
N1940 G01 Z16.0000
N1950 G00 Z30.5000
N1960 X155.8282
N1970 Z25.5000
N1980 G01 Z18.5000
N1990 G00 Z21.5000
N2000 G01 Z16.5000
N2010 G00 Z19.5000
N2020 G01 Z16.0000
N2030 G00 Z30.5000
N2040 Y219.0893
N2050 Z25.5000
N2060 G01 Z18.5000
N2070 G00 Z21.5000
N2080 G01 Z16.5000
N2090 G00 Z19.5000
N2100 G01 Z16.0000
N2110 G00 Z30.5000
N2120 (Part: Betsy Motor Mount Plate Duplicate 3)
N2130 (Operation: Drill, Motor Mount Fixture Holes, T9: 3.00mm Fish-tail, Chip-breaker router, 4.5 mm Deep)
N2140 X118.6278 Y241.1647
N2150 Z25.5000
N2160 G01 Z18.5000
N2170 G00 Z21.5000
N2180 G01 Z16.5000
N2190 G00 Z19.5000
N2200 G01 Z16.0000
N2210 G00 Z30.5000
N2220 X100.9502
N2230 Z25.5000
N2240 G01 Z18.5000
N2250 G00 Z21.5000
N2260 G01 Z16.5000
N2270 G00 Z19.5000
N2280 G01 Z16.0000
N2290 G00 Z30.5000
N2300 Y258.8424
N2310 Z25.5000
N2320 G01 Z18.5000
N2330 G00 Z21.5000
N2340 G01 Z16.5000
N2350 G00 Z19.5000
N2360 G01 Z16.0000
N2370 G00 Z30.5000
N2380 X118.6278
N2390 Z25.5000
N2400 G01 Z18.5000
N2410 G00 Z21.5000
N2420 G01 Z16.5000
N2430 G00 Z19.5000
N2440 G01 Z16.0000
N2450 G00 Z30.5000
N2460 X139.7890 Y265.0035
N2470 Z25.5000
N2480 G01 Z18.5000
N2490 G00 Z21.5000
N2500 G01 Z16.5000
N2510 G00 Z19.5000
N2520 G01 Z16.0000
N2530 G00 Z30.5000
N2540 Y235.0035
N2550 Z25.5000
N2560 G01 Z18.5000
N2570 G00 Z21.5000
N2580 G01 Z16.5000
N2590 G00 Z19.5000
N2600 G01 Z16.0000
N2610 G00 Z30.5000
N2620 X79.7890
N2630 Z25.5000
N2640 G01 Z18.5000
N2650 G00 Z21.5000
N2660 G01 Z16.5000
N2670 G00 Z19.5000
N2680 G01 Z16.0000
N2690 G00 Z30.5000
N2700 Y265.0035
N2710 Z25.5000
N2720 G01 Z18.5000
N2730 G00 Z21.5000
N2740 G01 Z16.5000
N2750 G00 Z19.5000
N2760 G01 Z16.0000
N2770 G00 Z30.5000
N2780 (Part: Betsy Motor Mount Plate Duplicate 2)
N2790 (Operation: Drill, Motor Mount Fixture Holes, T9: 3.00mm Fish-tail, Chip-breaker router, 4.5 mm Deep)
N2800 X117.2438 Y195.5374
N2810 Z25.5000
N2820 G01 Z18.5000
N2830 G00 Z21.5000
N2840 G01 Z16.5000
N2850 G00 Z19.5000
N2860 G01 Z16.0000
N2870 G00 Z30.5000
N2880 X99.5661
N2890 Z25.5000
N2900 G01 Z18.5000
N2910 G00 Z21.5000
N2920 G01 Z16.5000
N2930 G00 Z19.5000
N2940 G01 Z16.0000
N2950 G00 Z30.5000
N2960 Y213.2150
N2970 Z25.5000
N2980 G01 Z18.5000
N2990 G00 Z21.5000
N3000 G01 Z16.5000
N3010 G00 Z19.5000
N3020 G01 Z16.0000
N3030 G00 Z30.5000
N3040 X117.2438
N3050 Z25.5000
N3060 G01 Z18.5000
N3070 G00 Z21.5000
N3080 G01 Z16.5000
N3090 G00 Z19.5000
N3100 G01 Z16.0000
N3110 G00 Z30.5000
N3120 X138.4049 Y219.3762
N3130 Z25.5000
N3140 G01 Z18.5000
N3150 G00 Z21.5000
N3160 G01 Z16.5000
N3170 G00 Z19.5000
N3180 G01 Z16.0000
N3190 G00 Z30.5000
N3200 Y189.3762
N3210 Z25.5000
N3220 G01 Z18.5000
N3230 G00 Z21.5000
N3240 G01 Z16.5000
N3250 G00 Z19.5000
N3260 G01 Z16.0000
N3270 G00 Z30.5000
N3280 X78.4049
N3290 Z25.5000
N3300 G01 Z18.5000
N3310 G00 Z21.5000
N3320 G01 Z16.5000
N3330 G00 Z19.5000
N3340 G01 Z16.0000
N3350 G00 Z30.5000
N3360 Y219.3762
N3370 Z25.5000
N3380 G01 Z18.5000
N3390 G00 Z21.5000
N3400 G01 Z16.5000
N3410 G00 Z19.5000
N3420 G01 Z16.0000
N3430 G00 Z30.5000
N3440 (Part: SourceX_v1.1_top_plate_2mm)
N3450 (Operation: Drill, Fixture Holes, T9: 3.00mm Fish-tail, Chip-breaker router, 4.5 mm Deep)
N3460 X166.5735 Y297.7437
N3470 Z25.5000
N3480 G01 Z18.5000
N3490 G00 Z21.5000
N3500 G01 Z16.5000
N3510 G00 Z19.5000
N3520 G01 Z16.0000
N3530 G00 Z30.5000
N3540 Y385.7437
N3550 Z25.5000
N3560 G01 Z18.5000
N3570 G00 Z21.5000
N3580 G01 Z16.5000
N3590 G00 Z19.5000
N3600 G01 Z16.0000
N3610 G00 Z30.5000
N3620 Z25.5000
N3630 G01 Z18.5000
N3640 G00 Z21.5000
N3650 G01 Z16.5000
N3660 G00 Z19.5000
N3670 G01 Z16.0000
N3680 G00 Z30.5000
N3690 X147.2960 Y383.7437
N3700 Z25.5000
N3710 G01 Z18.5000
N3720 G00 Z21.5000
N3730 G01 Z16.5000
N3740 G00 Z19.5000
N3750 G01 Z16.0000
N3760 G00 Z30.5000
N3770 X128.0735 Y385.7437
N3780 Z25.5000
N3790 G01 Z18.5000
N3800 G00 Z21.5000
N3810 G01 Z16.5000
N3820 G00 Z19.5000
N3830 G01 Z16.0000
N3840 G00 Z30.5000
N3850 X98.0735
N3860 Z25.5000
N3870 G01 Z18.5000
N3880 G00 Z21.5000
N3890 G01 Z16.5000
N3900 G00 Z19.5000
N3910 G01 Z16.0000
N3920 G00 Z30.5000
N3930 X58.9410 Y359.2437
N3940 Z25.5000
N3950 G01 Z18.5000
N3960 G00 Z21.5000
N3970 G01 Z16.5000
N3980 G00 Z19.5000
N3990 G01 Z16.0000
N4000 G00 Z30.5000
N4010 X23.9410
N4020 Z25.5000
N4030 G01 Z18.5000
N4040 G00 Z21.5000
N4050 G01 Z16.5000
N4060 G00 Z19.5000
N4070 G01 Z16.0000
N4080 G00 Z30.5000
N4090 Y324.2437
N4100 Z25.5000
N4110 G01 Z18.5000
N4120 G00 Z21.5000
N4130 G01 Z16.5000
N4140 G00 Z19.5000
N4150 G01 Z16.0000
N4160 G00 Z30.5000
N4170 X58.9410
N4180 Z25.5000
N4190 G01 Z18.5000
N4200 G00 Z21.5000
N4210 G01 Z16.5000
N4220 G00 Z19.5000
N4230 G01 Z16.0000
N4240 G00 Z30.5000
N4250 X98.0735 Y297.7437
N4260 Z25.5000
N4270 G01 Z18.5000
N4280 G00 Z21.5000
N4290 G01 Z16.5000
N4300 G00 Z19.5000
N4310 G01 Z16.0000
N4320 G00 Z30.5000
N4330 X128.0735
N4340 Z25.5000
N4350 G01 Z18.5000
N4360 G00 Z21.5000
N4370 G01 Z16.5000
N4380 G00 Z19.5000
N4390 G01 Z16.0000
N4400 G00 Z30.5000
N4410 X147.2960 Y299.7437
N4420 Z25.5000
N4430 G01 Z18.5000
N4440 G00 Z21.5000
N4450 G01 Z16.5000
N4460 G00 Z19.5000
N4470 G01 Z16.0000
N4480 G00 Z30.5000
N4490 X166.5735 Y297.7437
N4500 Z25.5000
N4510 G01 Z18.5000
N4520 G00 Z21.5000
N4530 G01 Z16.5000
N4540 G00 Z19.5000
N4550 G01 Z16.0000
N4560 G00 Z30.5000
N4570 X196.5735
N4580 Z25.5000
N4590 G01 Z18.5000
N4600 G00 Z21.5000
N4610 G01 Z16.5000
N4620 G00 Z19.5000
N4630 G01 Z16.0000
N4640 G00 Z30.5000
N4650 X239.2960 Y326.4937
N4660 Z25.5000
N4670 G01 Z18.5000
N4680 G00 Z21.5000
N4690 G01 Z16.5000
N4700 G00 Z19.5000
N4710 G01 Z16.0000
N4720 G00 Z30.5000
N4730 X269.7960
N4740 Z25.5000
N4750 G01 Z18.5000
N4760 G00 Z21.5000
N4770 G01 Z16.5000
N4780 G00 Z19.5000
N4790 G01 Z16.0000
N4800 G00 Z30.5000
N4810 X282.5039 Y322.7437
N4820 Z25.5000
N4830 G01 Z18.5000
N4840 G00 Z21.5000
N4850 G01 Z16.5000
N4860 G00 Z19.5000
N4870 G01 Z16.0000
N4880 G00 Z30.5000
N4890 X269.7960 Y356.9937
N4900 Z25.5000
N4910 G01 Z18.5000
N4920 G00 Z21.5000
N4930 G01 Z16.5000
N4940 G00 Z19.5000
N4950 G01 Z16.0000
N4960 G00 Z30.5000
N4970 X282.5039 Y360.7437
N4980 Z25.5000
N4990 G01 Z18.5000
N5000 G00 Z21.5000
N5010 G01 Z16.5000
N5020 G00 Z19.5000
N5030 G01 Z16.0000
N5040 G00 Z30.5000
N5050 X239.2960 Y356.9937
N5060 Z25.5000
N5070 G01 Z18.5000
N5080 G00 Z21.5000
N5090 G01 Z16.5000
N5100 G00 Z19.5000
N5110 G01 Z16.0000
N5120 G00 Z30.5000
N5130 X196.5735 Y385.7437
N5140 Z25.5000
N5150 G01 Z18.5000
N5160 G00 Z21.5000
N5170 G01 Z16.5000
N5180 G00 Z19.5000
N5190 G01 Z16.0000
N5200 G00 Z30.5000
N5210 (Part: Betsy Motor Mount Plate Duplicate 1)
N5220 (Operation: Drill, Motor Mount Fixture Holes, T9: 3.00mm Fish-tail, Chip-breaker router, 4.5 mm Deep)
N5230 X194.2791 Y426.5556
N5240 Z25.5000
N5250 G01 Z18.5000
N5260 G00 Z21.5000
N5270 G01 Z16.5000
N5280 G00 Z19.5000
N5290 G01 Z16.0000
N5300 G00 Z30.5000
N5310 X176.6014
N5320 Z25.5000
N5330 G01 Z18.5000
N5340 G00 Z21.5000
N5350 G01 Z16.5000
N5360 G00 Z19.5000
N5370 G01 Z16.0000
N5380 G00 Z30.5000
N5390 Y444.2332
N5400 Z25.5000
N5410 G01 Z18.5000
N5420 G00 Z21.5000
N5430 G01 Z16.5000
N5440 G00 Z19.5000
N5450 G01 Z16.0000
N5460 G00 Z30.5000
N5470 X194.2791
N5480 Z25.5000
N5490 G01 Z18.5000
N5500 G00 Z21.5000
N5510 G01 Z16.5000
N5520 G00 Z19.5000
N5530 G01 Z16.0000
N5540 G00 Z30.5000
N5550 X215.4402 Y450.3944
N5560 Z25.5000
N5570 G01 Z18.5000
N5580 G00 Z21.5000
N5590 G01 Z16.5000
N5600 G00 Z19.5000
N5610 G01 Z16.0000
N5620 G00 Z30.5000
N5630 Y420.3944
N5640 Z25.5000
N5650 G01 Z18.5000
N5660 G00 Z21.5000
N5670 G01 Z16.5000
N5680 G00 Z19.5000
N5690 G01 Z16.0000
N5700 G00 Z30.5000
N5710 X155.4402
N5720 Z25.5000
N5730 G01 Z18.5000
N5740 G00 Z21.5000
N5750 G01 Z16.5000
N5760 G00 Z19.5000
N5770 G01 Z16.0000
N5780 G00 Z30.5000
N5790 Y450.3944
N5800 Z25.5000
N5810 G01 Z18.5000
N5820 G00 Z21.5000
N5830 G01 Z16.5000
N5840 G00 Z19.5000
N5850 G01 Z16.0000
N5860 G00 Z30.5000
N5870 (Part: Betsy Motor Mount Plate)
N5880 (Operation: Drill, Motor Mount Fixture Holes, T9: 3.00mm Fish-tail, Chip-breaker router, 4.5 mm Deep)
N5890 X117.0993 Y426.7115
N5900 Z25.5000
N5910 G01 Z18.5000
N5920 G00 Z21.5000
N5930 G01 Z16.5000
N5940 G00 Z19.5000
N5950 G01 Z16.0000
N5960 G00 Z30.5000
N5970 X99.4216
N5980 Z25.5000
N5990 G01 Z18.5000
N6000 G00 Z21.5000
N6010 G01 Z16.5000
N6020 G00 Z19.5000
N6030 G01 Z16.0000
N6040 G00 Z30.5000
N6050 Y444.3891
N6060 Z25.5000
N6070 G01 Z18.5000
N6080 G00 Z21.5000
N6090 G01 Z16.5000
N6100 G00 Z19.5000
N6110 G01 Z16.0000
N6120 G00 Z30.5000
N6130 X117.0993
N6140 Z25.5000
N6150 G01 Z18.5000
N6160 G00 Z21.5000
N6170 G01 Z16.5000
N6180 G00 Z19.5000
N6190 G01 Z16.0000
N6200 G00 Z30.5000
N6210 X138.2605 Y450.5503
N6220 Z25.5000
N6230 G01 Z18.5000
N6240 G00 Z21.5000
N6250 G01 Z16.5000
N6260 G00 Z19.5000
N6270 G01 Z16.0000
N6280 G00 Z30.5000
N6290 Y420.5503
N6300 Z25.5000
N6310 G01 Z18.5000
N6320 G00 Z21.5000
N6330 G01 Z16.5000
N6340 G00 Z19.5000
N6350 G01 Z16.0000
N6360 G00 Z30.5000
N6370 X78.2605
N6380 Z25.5000
N6390 G01 Z18.5000
N6400 G00 Z21.5000
N6410 G01 Z16.5000
N6420 G00 Z19.5000
N6430 G01 Z16.0000
N6440 G00 Z30.5000
N6450 Y450.5503
N6460 Z25.5000
N6470 G01 Z18.5000
N6480 G00 Z21.5000
N6490 G01 Z16.5000
N6500 G00 Z19.5000
N6510 G01 Z16.0000
N6520 G00 Z30.5000
N6530 (Part: Betsy Motor Mount Plate Duplicate 5)
N6540 (Operation: Drill, Motor Mount Fixture Holes, T9: 3.00mm Fish-tail, Chip-breaker router, 4.5 mm Deep)
N6550 X194.7823 Y240.9153
N6560 Z25.5000
N6570 G01 Z18.5000
N6580 G00 Z21.5000
N6590 G01 Z16.5000
N6600 G00 Z19.5000
N6610 G01 Z16.0000
N6620 G00 Z30.5000
N6630 X177.1046
N6640 Z25.5000
N6650 G01 Z18.5000
N6660 G00 Z21.5000
N6670 G01 Z16.5000
N6680 G00 Z19.5000
N6690 G01 Z16.0000
N6700 G00 Z30.5000
N6710 Y258.5929
N6720 Z25.5000
N6730 G01 Z18.5000
N6740 G00 Z21.5000
N6750 G01 Z16.5000
N6760 G00 Z19.5000
N6770 G01 Z16.0000
N6780 G00 Z30.5000
N6790 X194.7823
N6800 Z25.5000
N6810 G01 Z18.5000
N6820 G00 Z21.5000
N6830 G01 Z16.5000
N6840 G00 Z19.5000
N6850 G01 Z16.0000
N6860 G00 Z30.5000
N6870 X215.9435 Y264.7541
N6880 Z25.5000
N6890 G01 Z18.5000
N6900 G00 Z21.5000
N6910 G01 Z16.5000
N6920 G00 Z19.5000
N6930 G01 Z16.0000
N6940 G00 Z30.5000
N6950 Y234.7541
N6960 Z25.5000
N6970 G01 Z18.5000
N6980 G00 Z21.5000
N6990 G01 Z16.5000
N7000 G00 Z19.5000
N7010 G01 Z16.0000
N7020 G00 Z30.5000
N7030 X155.9435
N7040 Z25.5000
N7050 G01 Z18.5000
N7060 G00 Z21.5000
N7070 G01 Z16.5000
N7080 G00 Z19.5000
N7090 G01 Z16.0000
N7100 G00 Z30.5000
N7110 Y264.7541
N7120 Z25.5000
N7130 G01 Z18.5000
N7140 G00 Z21.5000
N7150 G01 Z16.5000
N7160 G00 Z19.5000
N7170 G01 Z16.0000
N7180 G00 Z30.5000
N7190 (Operation: Inside Offset, Motor Mount Central Pocket, T8: 3.00mm Fish-tail, Diamond-cut [Zn] router, 4.5 mm Deep)
N7200 M09 (Coolant off)
N7210 M05
N7220 (RCD08-1181-032FC)
N7230 (Zirconium Nitride Coated)
N7240 (3.00mm Fish-tail, Diamond-cut [Zn] router)
N7250 T8 M06
N7260  G43 H8
N7270 G00 X155.9435 Y264.7541 Z30.5000
N7280 M08 (Flood coolant on)
N7281 M07 (LED Lighting on)
N7290 S11000 M03
N7300 X181.7008 Y253.9967
N7310 Z25.5000
N7320 G01 Z18.2500 F100.0
N7330 G02 X181.7008 Y253.9967 I4.2426 J-4.2426 F200.0
N7340 G01 Z16.0000 F100.0
N7350 (Part: Betsy Motor Mount Plate Duplicate 4)
N7360 G02 X181.7008 Y253.9967 I4.2426 J-4.2426 F200.0
N7370 (Operation: Inside Offset, Motor Mount Central Pocket, T8: 3.00mm Fish-tail, Diamond-cut [Zn] router, 4.5 mm Deep)
N7380 G00 Z30.5000
N7390 X181.5856 Y208.3320
N7400 Z25.5000
N7410 G01 Z18.2500 F100.0
N7420 G02 X181.5856 Y208.3320 I4.2426 J-4.2426 F200.0
N7430 G01 Z16.0000 F100.0
N7440 (Part: Betsy Motor Mount Plate Duplicate 2)
N7450 G02 X181.5856 Y208.3320 I4.2426 J-4.2426 F200.0
N7460 (Operation: Inside Offset, Motor Mount Central Pocket, T8: 3.00mm Fish-tail, Diamond-cut [Zn] router, 4.5 mm Deep)
N7470 G00 Z30.5000
N7480 X104.1623 Y208.6188
N7490 Z25.5000
N7500 G01 Z18.2500 F100.0
N7510 G02 X104.1623 Y208.6188 I4.2426 J-4.2426 F200.0
N7520 G01 Z16.0000 F100.0
N7530 (Part: Betsy Motor Mount Plate Duplicate 3)
N7540 G02 X104.1623 Y208.6188 I4.2426 J-4.2426 F200.0
N7550 (Operation: Inside Offset, Motor Mount Central Pocket, T8: 3.00mm Fish-tail, Diamond-cut [Zn] router, 4.5 mm Deep)
N7560 G00 Z30.5000
N7570 X105.5463 Y254.2462
N7580 Z25.5000
N7590 G01 Z18.2500 F100.0
N7600 G02 X105.5463 Y254.2462 I4.2426 J-4.2426 F200.0
N7610 G01 Z16.0000 F100.0
N7620 (Part: SourceX_v1.1_top_plate_2mm)
N7630 G02 X105.5463 Y254.2462 I4.2426 J-4.2426 F200.0
N7640 (Operation: Inside Offset, Arm Fixtures, T8: 3.00mm Fish-tail, Diamond-cut [Zn] router, 4.5 mm Deep)
N7650 G00 Z30.5000
N7660 X238.7136 Y392.6106
N7670 Z25.5000
N7680 G01 Z18.2500 F100.0
N7690 G02 X238.7136 Y392.6106 I-1.7678 J1.7678 F200.0
N7700 G01 Z16.0000 F100.0
N7710 G02 X238.7136 Y392.6106 I-1.7678 J1.7678 F200.0
N7720 G00 Z30.5000
N7730 X276.3488 Y439.7921
N7740 Z25.5000
N7750 G01 Z18.2500 F100.0
N7760 G02 X276.3488 Y439.7921 I1.7678 J-1.7678 F200.0
N7770 G01 Z16.0000 F100.0
N7780 G02 X276.3488 Y439.7921 I1.7678 J-1.7678 F200.0
N7790 G00 Z30.5000
N7800 X238.7136 Y287.3412
N7810 Z25.5000
N7820 G01 Z18.2500 F100.0
N7830 G02 X238.7136 Y287.3412 I-1.7678 J1.7678 F200.0
N7840 G01 Z16.0000 F100.0
N7850 G02 X238.7136 Y287.3412 I-1.7678 J1.7678 F200.0
N7860 G00 Z30.5000
N7870 X276.3488 Y243.6953
N7880 Z25.5000
N7890 G01 Z18.2500 F100.0
N7900 G02 X276.3488 Y243.6953 I1.7678 J1.7678 F200.0
N7910 G01 Z16.0000 F100.0
N7920 G02 X276.3488 Y243.6953 I1.7678 J1.7678 F200.0
N7930 G00 Z30.5000
N7940 X55.8785 Y287.3412
N7950 Z25.5000
N7960 G01 Z18.2500 F100.0
N7970 G02 X55.8785 Y287.3412 I1.7678 J1.7678 F200.0
N7980 G01 Z16.0000 F100.0
N7990 G02 X55.8785 Y287.3412 I1.7678 J1.7678 F200.0
N8000 G00 Z30.5000
N8010 X18.2432 Y243.6953
N8020 Z25.5000
N8030 G01 Z18.2500 F100.0
N8040 G02 X18.2432 Y243.6953 I-1.7678 J1.7678 F200.0
N8050 G01 Z16.0000 F100.0
N8060 G02 X18.2432 Y243.6953 I-1.7678 J1.7678 F200.0
N8070 G00 Z30.5000
N8080 X55.8785 Y396.1461
N8090 Z25.5000
N8100 G01 Z18.2500 F100.0
N8110 G02 X55.8785 Y396.1461 I1.7678 J-1.7678 F200.0
N8120 G01 Z16.0000 F100.0
N8130 G02 X55.8785 Y396.1461 I1.7678 J-1.7678 F200.0
N8140 G00 Z30.5000
N8150 X18.2432 Y439.7921
N8160 Z25.5000
N8170 G01 Z18.2500 F100.0
N8180 G02 X18.2432 Y439.7921 I-1.7678 J-1.7678 F200.0
N8190 G01 Z16.0000 F100.0
N8200 G02 X18.2432 Y439.7921 I-1.7678 J-1.7678 F200.0
N8210 (Operation: Inside Offset, Inner Contours, T8: 3.00mm Fish-tail, Diamond-cut [Zn] router, 4.5 mm Deep)
N8220 G00 Z30.5000
N8230 X212.3567 Y340.6830
N8240 Z25.5000
N8250 G01 Z18.2500 F100.0
N8260 G02 X211.2960 Y340.2437 I-1.0607 J1.0607 F200.0
N8270 G01 X167.2960
N8280 G02 X167.2960 Y343.2437 I0.0000 J1.5000
N8290 G01 X211.2960
N8300 G02 X212.3567 Y340.6830 I0.0000 J-1.5000
N8310 G01 Z16.0000 F100.0
N8320 G02 X211.2960 Y340.2437 I-1.0607 J1.0607 F200.0
N8330 G01 X167.2960
N8340 G02 X167.2960 Y343.2437 I0.0000 J1.5000
N8350 G01 X211.2960
N8360 G02 X212.3567 Y340.6830 I0.0000 J-1.5000
N8370 G00 Z30.5000
N8380 X245.9425 Y328.1401
N8390 Z25.5000
N8400 G01 Z18.2500 F100.0
N8410 G02 X245.7960 Y328.4937 I0.3536 J0.3536 F200.0
N8420 G01 Y329.4937
N8430 G03 X242.2960 Y332.9937 I-3.5000 J-0.0000
N8440 G01 X235.2960
N8450 G02 X234.7960 Y333.4937 I0.0000 J0.5000
N8460 G01 Y349.9937
N8470 G02 X235.2960 Y350.4937 I0.5000 J0.0000
N8480 G01 X242.2960
N8490 G03 X245.7960 Y353.9937 I0.0000 J3.5000
N8500 G01 Y354.9937
N8510 G02 X246.2960 Y355.4937 I0.5000 J0.0000
N8520 G01 X262.7960
N8530 G02 X263.2960 Y354.9937 I-0.0000 J-0.5000
N8540 G01 Y353.9937
N8550 G03 X266.7960 Y350.4937 I3.5000 J0.0000
N8560 G01 X267.7960
N8570 G02 X268.2960 Y349.9937 I0.0000 J-0.5000
N8580 G01 Y333.4937
N8590 G02 X267.7960 Y332.9937 I-0.5000 J-0.0000
N8600 G01 X266.7960
N8610 G03 X263.2960 Y329.4937 I0.0000 J-3.5000
N8620 G01 Y328.4937
N8630 G02 X262.7960 Y327.9937 I-0.5000 J-0.0000
N8640 G01 X246.2960
N8650 G02 X245.9425 Y328.1401 I0.0000 J0.5000
N8660 G01 Z16.0000 F100.0
N8670 G02 X245.7960 Y328.4937 I0.3536 J0.3536 F200.0
N8680 G01 Y329.4937
N8690 G03 X242.2960 Y332.9937 I-3.5000 J-0.0000
N8700 G01 X235.2960
N8710 G02 X234.7960 Y333.4937 I0.0000 J0.5000
N8720 G01 Y349.9937
N8730 G02 X235.2960 Y350.4937 I0.5000 J0.0000
N8740 G01 X242.2960
N8750 G03 X245.7960 Y353.9937 I0.0000 J3.5000
N8760 G01 Y354.9937
N8770 G02 X246.2960 Y355.4937 I0.5000 J0.0000
N8780 G01 X262.7960
N8790 G02 X263.2960 Y354.9937 I-0.0000 J-0.5000
N8800 G01 Y353.9937
N8810 G03 X266.7960 Y350.4937 I3.5000 J0.0000
N8820 G01 X267.7960
N8830 G02 X268.2960 Y349.9937 I0.0000 J-0.5000
N8840 G01 Y333.4937
N8850 G02 X267.7960 Y332.9937 I-0.5000 J-0.0000
N8860 G01 X266.7960
N8870 G03 X263.2960 Y329.4937 I0.0000 J-3.5000
N8880 G01 Y328.4937
N8890 G02 X262.7960 Y327.9937 I-0.5000 J-0.0000
N8900 G01 X246.2960
N8910 G02 X245.9425 Y328.1401 I0.0000 J0.5000
N8920 G00 Z30.5000
N8930 X196.2960 Y303.7437
N8940 Z25.5000
N8950 G01 Z18.2500 F100.0
N8960 X211.2960 F200.0
N8970 X181.2960
N8980 X196.2960
N8990 Z16.0000 F100.0
N9000 X211.2960 F200.0
N9010 X181.2960
N9020 X196.2960
N9030 G00 Z30.5000
N9040 X211.2960 Y379.7437
N9050 Z25.5000
N9060 G01 Z18.2500 F100.0
N9070 X181.2960 F200.0
N9080 X211.2960
N9090 Z16.0000 F100.0
N9100 X181.2960 F200.0
N9110 X211.2960
N9120 G00 Z30.5000
N9130 X82.2354 Y342.8043
N9140 Z25.5000
N9150 G01 Z18.2500 F100.0
N9160 G02 X83.2960 Y343.2437 I1.0607 J-1.0607 F200.0
N9170 G01 X127.2960
N9180 G02 X127.2960 Y340.2437 I0.0000 J-1.5000
N9190 G01 X83.2960
N9200 G02 X82.2354 Y342.8043 I0.0000 J1.5000
N9210 G01 Z16.0000 F100.0
N9220 G02 X83.2960 Y343.2437 I1.0607 J-1.0607 F200.0
N9230 G01 X127.2960
N9240 G02 X127.2960 Y340.2437 I0.0000 J-1.5000
N9250 G01 X83.2960
N9260 G02 X82.2354 Y342.8043 I0.0000 J1.5000
N9270 G00 Z30.5000
N9280 X98.2960 Y379.7437
N9290 Z25.5000
N9300 G01 Z18.2500 F100.0
N9310 X83.2960 F200.0
N9320 X113.2960
N9330 X98.2960
N9340 Z16.0000 F100.0
N9350 X83.2960 F200.0
N9360 X113.2960
N9370 X98.2960
N9380 G00 Z30.5000
N9390 X83.2960 Y303.7437
N9400 Z25.5000
N9410 G01 Z18.2500 F100.0
N9420 X113.2960 F200.0
N9430 X83.2960
N9440 Z16.0000 F100.0
N9450 X113.2960 F200.0
N9460 X83.2960
N9470 (Operation: Outside Offset, Outer Contour, T8: 3.00mm Fish-tail, Diamond-cut [Zn] router, 4.5 mm Deep)
N9480 G00 Z30.5000
N9490 X117.3684 Y400.0294
N9500 Z25.5000
N9510 G01 Z18.2500 F100.0
N9520 G03 X116.5958 Y400.2437 I-0.7726 J-1.2857 F200.0
N9530 G01 X85.0661
N9540 G02 X83.9749 Y400.7144 I0.0000 J1.5000
N9550 G01 X73.2520 Y412.0821
N9560 G03 X70.3637 Y413.6944 I-4.0009 J-3.7740
N9570 G01 X63.8247 Y415.0451
N9580 G02 X60.4113 Y416.9506 I1.3150 J6.3656
N9590 G01 X29.4913 Y449.7296
N9600 G03 X26.6138 Y451.6261 I-5.4557 J-5.1463
N9610 G01 X16.5059 Y455.3264
N9620 G03 X12.9010 Y454.5857 I-1.2032 J-3.2867
N9630 G01 X0.1507 Y442.5585
N9640 G03 X-0.7989 Y439.0030 I2.4016 J-2.5460
N9650 G01 X2.3056 Y428.6965
N9660 G03 X4.0311 Y425.7133 I7.1813 J2.1632
N9670 G01 X34.9512 Y392.9343
N9680 G02 X36.6544 Y389.4156 I-4.7283 J-4.4602
N9690 G01 X37.6215 Y382.8090
N9700 G03 X39.0626 Y379.8316 I5.4420 J0.7967
N9710 G01 X45.8876 Y372.5964
N9720 G02 X45.6949 Y371.7834 I-0.3637 J-0.3431
N9730 G01 X29.4047 Y365.8543
N9740 G02 X28.9123 Y365.9411 I-0.1710 J0.4698
N9750 G01 X28.2489 Y366.4978
N9760 G03 X24.8020 Y367.1056 I-2.2498 J-2.6812
N9770 G01 X18.2916 Y364.7360
N9780 G03 X16.0419 Y362.0548 I1.1971 J-3.2889
N9790 G01 X15.8092 Y360.7354
N9800 G03 X15.9220 Y359.4462 I2.4620 J-0.4341
N9810 G01 X17.3699 Y355.4682
N9820 G03 X20.9723 Y352.5511 I4.2286 J1.5391
N9830 G01 X37.9790 Y350.1610
N9840 G02 X37.9790 Y333.3264 I-1.1830 J-8.4173
N9850 G01 X20.9723 Y330.9363
N9860 G03 X17.3699 Y328.0191 I0.6263 J-4.4562
N9870 G01 X15.9220 Y324.0411
N9880 G03 X15.8092 Y322.7520 I2.3492 J-0.8551
N9890 G01 X16.0419 Y321.4326
N9900 G03 X18.2916 Y318.7514 I3.4468 J0.6078
N9910 G01 X24.8020 Y316.3818
N9920 G03 X28.2489 Y316.9896 I1.1971 J3.2889
N9930 G01 X28.9123 Y317.5462
N9940 G02 X29.4047 Y317.6331 I0.3214 J-0.3830
N9950 G01 X45.6949 Y311.7039
N9960 G02 X45.8876 Y310.8910 I-0.1710 J-0.4698
N9970 G01 X39.0626 Y303.6557
N9980 G03 X37.6215 Y300.6784 I4.0009 J-3.7740
N9990 G01 X36.6544 Y294.0717
N10000 G02 X34.9512 Y290.5531 I-6.4315 J0.9415
N10010 G01 X4.0311 Y257.7741
N10020 G03 X2.3056 Y254.7909 I5.4557 J-5.1463
N10030 G01 X-0.7989 Y244.4844
N10040 G03 X0.1507 Y240.9289 I3.3513 J-1.0095
N10050 G01 X12.9010 Y228.9016
N10060 G03 X16.5059 Y228.1610 I2.4016 J2.5460
N10070 G01 X26.6138 Y231.8612
N10080 G03 X29.4913 Y233.7578 I-2.5783 J7.0429
N10090 G01 X60.4113 Y266.5368
N10100 G02 X63.8247 Y268.4422 I4.7283 J-4.4602
N10110 G01 X70.3637 Y269.7930
N10120 G03 X73.2520 Y271.4053 I-1.1126 J5.3863
N10130 G01 X83.9749 Y282.7730
N10140 G02 X85.0661 Y283.2437 I1.0911 J-1.0293
N10150 G01 X116.5958
N10160 G03 X117.3684 Y283.4580 I0.0000 J1.5000
N10170 G02 X118.1129 Y283.7837 I1.6311 J-2.7143
N10180 G03 X122.0761 Y285.6851 I-3.7800 J12.9600
N10190 G01 X130.2805 Y291.4299
N10200 G02 X132.8616 Y292.2437 I2.5811 J-3.6862
N10210 G01 X161.7305
N10220 G02 X164.3116 Y291.4299 I0.0000 J-4.5000
N10230 G01 X172.5159 Y285.6851
N10240 G03 X176.4792 Y283.7837 I7.7433 J11.0586
N10250 G02 X177.2236 Y283.4580 I-0.8867 J-3.0400
N10260 G03 X177.9962 Y283.2437 I0.7726 J1.2857
N10270 G01 X209.5259
N10280 G02 X210.6171 Y282.7730 I-0.0000 J-1.5000
N10290 G01 X221.3401 Y271.4053
N10300 G03 X224.2283 Y269.7930 I4.0009 J3.7740
N10310 G01 X230.7673 Y268.4422
N10320 G02 X234.1807 Y266.5368 I-1.3150 J-6.3656
N10330 G01 X265.1008 Y233.7578
N10340 G03 X267.9783 Y231.8612 I5.4557 J5.1463
N10350 G01 X278.0862 Y228.1610
N10360 G03 X281.6910 Y228.9016 I1.2032 J3.2867
N10370 G01 X294.4413 Y240.9289
N10380 G03 X295.3910 Y244.4844 I-2.4016 J2.5460
N10390 G01 X292.2864 Y254.7909
N10400 G03 X290.5609 Y257.7741 I-7.1813 J-2.1632
N10410 G01 X259.6408 Y290.5531
N10420 G02 X257.9377 Y294.0717 I4.7283 J4.4602
N10430 G01 X256.9705 Y300.6784
N10440 G03 X255.5294 Y303.6557 I-5.4420 J-0.7967
N10450 G01 X244.6864 Y315.1506
N10460 G02 X245.0501 Y315.9937 I0.3637 J0.3431
N10470 G01 X267.0179
N10480 G02 X267.8729 Y315.8429 I0.0000 J-2.5000
N10490 G01 X274.7898 Y313.3254
N10500 G03 X276.6709 Y312.9937 I1.8811 J5.1683
N10510 G01 X281.4321
N10520 G03 X284.1821 Y313.7305 I-0.0000 J5.5000
N10530 G01 X291.2539 Y317.8134
N10540 G03 X293.0039 Y320.8445 I-1.7500 J3.0311
N10550 G01 Y324.6428
N10560 G03 X291.2539 Y327.6739 I-3.5000 J-0.0000
N10570 G01 X286.2539 Y330.5607
N10580 G02 X286.0039 Y330.9937 I0.2500 J0.4330
N10590 G01 Y352.4937
N10600 G02 X286.2539 Y352.9267 I0.5000 J-0.0000
N10610 G01 X291.2539 Y355.8134
N10620 G03 X293.0039 Y358.8445 I-1.7500 J3.0311
N10630 G01 Y362.6428
N10640 G03 X291.2539 Y365.6739 I-3.5000 J-0.0000
N10650 G01 X284.1821 Y369.7568
N10660 G03 X281.4321 Y370.4937 I-2.7500 J-4.7631
N10670 G01 X276.6709
N10680 G03 X274.7898 Y370.1620 I0.0000 J-5.5000
N10690 G01 X267.8729 Y367.6445
N10700 G02 X267.0179 Y367.4937 I-0.8551 J2.3492
N10710 G01 X245.0501
N10720 G02 X244.6864 Y368.3368 I-0.0000 J0.5000
N10730 G01 X255.5294 Y379.8316
N10740 G03 X256.9705 Y382.8090 I-4.0009 J3.7740
N10750 G01 X257.9377 Y389.4156
N10760 G02 X259.6408 Y392.9343 I6.4315 J-0.9415
N10770 G01 X290.5609 Y425.7133
N10780 G03 X292.2864 Y428.6965 I-5.4557 J5.1463
N10790 G01 X295.3910 Y439.0030
N10800 G03 X294.4413 Y442.5585 I-3.3513 J1.0095
N10810 G01 X281.6910 Y454.5857
N10820 G03 X278.0862 Y455.3264 I-2.4016 J-2.5460
N10830 G01 X267.9783 Y451.6261
N10840 G03 X265.1008 Y449.7296 I2.5783 J-7.0429
N10850 G01 X234.1807 Y416.9506
N10860 G02 X230.7673 Y415.0451 I-4.7283 J4.4602
N10870 G01 X224.2283 Y413.6944
N10880 G03 X221.3401 Y412.0821 I1.1126 J-5.3863
N10890 G01 X210.6171 Y400.7144
N10900 G02 X209.5259 Y400.2437 I-1.0911 J1.0293
N10910 G01 X177.9962
N10920 G03 X177.2236 Y400.0294 I-0.0000 J-1.5000
N10930 G02 X176.4792 Y399.7037 I-1.6311 J2.7143
N10940 G03 X172.5159 Y397.8022 I3.7800 J-12.9600
N10950 G01 X164.3116 Y392.0575
N10960 G02 X161.7305 Y391.2437 I-2.5811 J3.6862
N10970 G01 X132.8616
N10980 G02 X130.2805 Y392.0575 I-0.0000 J4.5000
N10990 G01 X122.0761 Y397.8022
N11000 G03 X118.1129 Y399.7037 I-7.7433 J-11.0586
N11010 G02 X117.3684 Y400.0294 I0.8867 J3.0400
N11020 G01 Z16.0000 F100.0
N11030 G03 X116.5958 Y400.2437 I-0.7726 J-1.2857 F200.0
N11040 G01 X85.0661
N11050 G02 X83.9749 Y400.7144 I0.0000 J1.5000
N11060 G01 X73.2520 Y412.0821
N11070 G03 X70.3637 Y413.6944 I-4.0009 J-3.7740
N11080 G01 X63.8247 Y415.0451
N11090 G02 X60.4113 Y416.9506 I1.3150 J6.3656
N11100 G01 X29.4913 Y449.7296
N11110 G03 X26.6138 Y451.6261 I-5.4557 J-5.1463
N11120 G01 X16.5059 Y455.3264
N11130 G03 X12.9010 Y454.5857 I-1.2032 J-3.2867
N11140 G01 X0.1507 Y442.5585
N11150 G03 X-0.7989 Y439.0030 I2.4016 J-2.5460
N11160 G01 X2.3056 Y428.6965
N11170 G03 X4.0311 Y425.7133 I7.1813 J2.1632
N11180 G01 X34.9512 Y392.9343
N11190 G02 X36.6544 Y389.4156 I-4.7283 J-4.4602
N11200 G01 X37.6215 Y382.8090
N11210 G03 X39.0626 Y379.8316 I5.4420 J0.7967
N11220 G01 X45.8876 Y372.5964
N11230 G02 X45.6949 Y371.7834 I-0.3637 J-0.3431
N11240 G01 X29.4047 Y365.8543
N11250 G02 X28.9123 Y365.9411 I-0.1710 J0.4698
N11260 G01 X28.2489 Y366.4978
N11270 G03 X24.8020 Y367.1056 I-2.2498 J-2.6812
N11280 G01 X18.2916 Y364.7360
N11290 G03 X16.0419 Y362.0548 I1.1971 J-3.2889
N11300 G01 X15.8092 Y360.7354
N11310 G03 X15.9220 Y359.4462 I2.4620 J-0.4341
N11320 G01 X17.3699 Y355.4682
N11330 G03 X20.9723 Y352.5511 I4.2286 J1.5391
N11340 G01 X37.9790 Y350.1610
N11350 G02 X37.9790 Y333.3264 I-1.1830 J-8.4173
N11360 G01 X20.9723 Y330.9363
N11370 G03 X17.3699 Y328.0191 I0.6263 J-4.4562
N11380 G01 X15.9220 Y324.0411
N11390 G03 X15.8092 Y322.7520 I2.3492 J-0.8551
N11400 G01 X16.0419 Y321.4326
N11410 G03 X18.2916 Y318.7514 I3.4468 J0.6078
N11420 G01 X24.8020 Y316.3818
N11430 G03 X28.2489 Y316.9896 I1.1971 J3.2889
N11440 G01 X28.9123 Y317.5462
N11450 G02 X29.4047 Y317.6331 I0.3214 J-0.3830
N11460 G01 X45.6949 Y311.7039
N11470 G02 X45.8876 Y310.8910 I-0.1710 J-0.4698
N11480 G01 X39.0626 Y303.6557
N11490 G03 X37.6215 Y300.6784 I4.0009 J-3.7740
N11500 G01 X36.6544 Y294.0717
N11510 G02 X34.9512 Y290.5531 I-6.4315 J0.9415
N11520 G01 X4.0311 Y257.7741
N11530 G03 X2.3056 Y254.7909 I5.4557 J-5.1463
N11540 G01 X-0.7989 Y244.4844
N11550 G03 X0.1507 Y240.9289 I3.3513 J-1.0095
N11560 G01 X12.9010 Y228.9016
N11570 G03 X16.5059 Y228.1610 I2.4016 J2.5460
N11580 G01 X26.6138 Y231.8612
N11590 G03 X29.4913 Y233.7578 I-2.5783 J7.0429
N11600 G01 X60.4113 Y266.5368
N11610 G02 X63.8247 Y268.4422 I4.7283 J-4.4602
N11620 G01 X70.3637 Y269.7930
N11630 G03 X73.2520 Y271.4053 I-1.1126 J5.3863
N11640 G01 X83.9749 Y282.7730
N11650 G02 X85.0661 Y283.2437 I1.0911 J-1.0293
N11660 G01 X116.5958
N11670 G03 X117.3684 Y283.4580 I0.0000 J1.5000
N11680 G02 X118.1129 Y283.7837 I1.6311 J-2.7143
N11690 G03 X122.0761 Y285.6851 I-3.7800 J12.9600
N11700 G01 X130.2805 Y291.4299
N11710 G02 X132.8616 Y292.2437 I2.5811 J-3.6862
N11720 G01 X161.7305
N11730 G02 X164.3116 Y291.4299 I0.0000 J-4.5000
N11740 G01 X172.5159 Y285.6851
N11750 G03 X176.4792 Y283.7837 I7.7433 J11.0586
N11760 G02 X177.2236 Y283.4580 I-0.8867 J-3.0400
N11770 G03 X177.9962 Y283.2437 I0.7726 J1.2857
N11780 G01 X209.5259
N11790 G02 X210.6171 Y282.7730 I-0.0000 J-1.5000
N11800 G01 X221.3401 Y271.4053
N11810 G03 X224.2283 Y269.7930 I4.0009 J3.7740
N11820 G01 X230.7673 Y268.4422
N11830 G02 X234.1807 Y266.5368 I-1.3150 J-6.3656
N11840 G01 X265.1008 Y233.7578
N11850 G03 X267.9783 Y231.8612 I5.4557 J5.1463
N11860 G01 X278.0862 Y228.1610
N11870 G03 X281.6910 Y228.9016 I1.2032 J3.2867
N11880 G01 X294.4413 Y240.9289
N11890 G03 X295.3910 Y244.4844 I-2.4016 J2.5460
N11900 G01 X292.2864 Y254.7909
N11910 G03 X290.5609 Y257.7741 I-7.1813 J-2.1632
N11920 G01 X259.6408 Y290.5531
N11930 G02 X257.9377 Y294.0717 I4.7283 J4.4602
N11940 G01 X256.9705 Y300.6784
N11950 G03 X255.5294 Y303.6557 I-5.4420 J-0.7967
N11960 G01 X244.6864 Y315.1506
N11970 G02 X245.0501 Y315.9937 I0.3637 J0.3431
N11980 G01 X267.0179
N11990 G02 X267.8729 Y315.8429 I0.0000 J-2.5000
N12000 G01 X274.7898 Y313.3254
N12010 G03 X276.6709 Y312.9937 I1.8811 J5.1683
N12020 G01 X281.4321
N12030 G03 X284.1821 Y313.7305 I-0.0000 J5.5000
N12040 G01 X291.2539 Y317.8134
N12050 G03 X293.0039 Y320.8445 I-1.7500 J3.0311
N12060 G01 Y324.6428
N12070 G03 X291.2539 Y327.6739 I-3.5000 J-0.0000
N12080 G01 X286.2539 Y330.5607
N12090 G02 X286.0039 Y330.9937 I0.2500 J0.4330
N12100 G01 Y352.4937
N12110 G02 X286.2539 Y352.9267 I0.5000 J-0.0000
N12120 G01 X291.2539 Y355.8134
N12130 G03 X293.0039 Y358.8445 I-1.7500 J3.0311
N12140 G01 Y362.6428
N12150 G03 X291.2539 Y365.6739 I-3.5000 J-0.0000
N12160 G01 X284.1821 Y369.7568
N12170 G03 X281.4321 Y370.4937 I-2.7500 J-4.7631
N12180 G01 X276.6709
N12190 G03 X274.7898 Y370.1620 I0.0000 J-5.5000
N12200 G01 X267.8729 Y367.6445
N12210 G02 X267.0179 Y367.4937 I-0.8551 J2.3492
N12220 G01 X245.0501
N12230 G02 X244.6864 Y368.3368 I-0.0000 J0.5000
N12240 G01 X255.5294 Y379.8316
N12250 G03 X256.9705 Y382.8090 I-4.0009 J3.7740
N12260 G01 X257.9377 Y389.4156
N12270 G02 X259.6408 Y392.9343 I6.4315 J-0.9415
N12280 G01 X290.5609 Y425.7133
N12290 G03 X292.2864 Y428.6965 I-5.4557 J5.1463
N12300 G01 X295.3910 Y439.0030
N12310 G03 X294.4413 Y442.5585 I-3.3513 J1.0095
N12320 G01 X281.6910 Y454.5857
N12330 G03 X278.0862 Y455.3264 I-2.4016 J-2.5460
N12340 G01 X267.9783 Y451.6261
N12350 G03 X265.1008 Y449.7296 I2.5783 J-7.0429
N12360 G01 X234.1807 Y416.9506
N12370 G02 X230.7673 Y415.0451 I-4.7283 J4.4602
N12380 G01 X224.2283 Y413.6944
N12390 G03 X221.3401 Y412.0821 I1.1126 J-5.3863
N12400 G01 X210.6171 Y400.7144
N12410 G02 X209.5259 Y400.2437 I-1.0911 J1.0293
N12420 G01 X177.9962
N12430 G03 X177.2236 Y400.0294 I-0.0000 J-1.5000
N12440 G02 X176.4792 Y399.7037 I-1.6311 J2.7143
N12450 G03 X172.5159 Y397.8022 I3.7800 J-12.9600
N12460 G01 X164.3116 Y392.0575
N12470 G02 X161.7305 Y391.2437 I-2.5811 J3.6862
N12480 G01 X132.8616
N12490 G02 X130.2805 Y392.0575 I-0.0000 J4.5000
N12500 G01 X122.0761 Y397.8022
N12510 G03 X118.1129 Y399.7037 I-7.7433 J-11.0586
N12520 G02 X117.3684 Y400.0294 I0.8867 J3.0400
N12530 (Part: Betsy Motor Mount Plate)
N12540 G01
N12550 (Operation: Inside Offset, Motor Mount Central Pocket, T8: 3.00mm Fish-tail, Diamond-cut [Zn] router, 4.5 mm Deep)
N12560 G00 Z30.5000
N12570 X104.0178 Y439.7929
N12580 Z25.5000
N12590 G01 Z18.2500 F100.0
N12600 G02 X104.0178 Y439.7929 I4.2426 J-4.2426 F200.0
N12610 G01 Z16.0000 F100.0
N12620 (Part: Betsy Motor Mount Plate Duplicate 1)
N12630 G02 X104.0178 Y439.7929 I4.2426 J-4.2426 F200.0
N12640 (Operation: Inside Offset, Motor Mount Central Pocket, T8: 3.00mm Fish-tail, Diamond-cut [Zn] router, 4.5 mm Deep)
N12650 G00 Z30.5000
N12660 X181.1976 Y439.6370
N12670 Z25.5000
N12680 G01 Z18.2500 F100.0
N12690 G02 X181.1976 Y439.6370 I4.2426 J-4.2426 F200.0
N12700 G01 Z16.0000 F100.0
N12710 (Part: Betsy Motor Mount Plate Duplicate 6)
N12720 G02 X181.1976 Y439.6370 I4.2426 J-4.2426 F200.0
N12730 (Operation: Inside Offset, Motor Mount Central Pocket, T8: 3.00mm Fish-tail, Diamond-cut [Zn] router, 4.5 mm Deep)
N12740 G00 Z30.5000
N12750 X181.8436 Y25.7308
N12760 Z25.5000
N12770 G01 Z18.2500 F100.0
N12780 G02 X181.8436 Y25.7308 I4.2426 J-4.2426 F200.0
N12790 G01 Z16.0000 F100.0
N12800 (Part: Betsy Motor Mount Plate Duplicate 7)
N12810 G02 X181.8436 Y25.7308 I4.2426 J-4.2426 F200.0
N12820 (Operation: Inside Offset, Motor Mount Central Pocket, T8: 3.00mm Fish-tail, Diamond-cut [Zn] router, 4.5 mm Deep)
N12830 G00 Z30.5000
N12840 X106.0041 Y25.5990
N12850 Z25.5000
N12860 G01 Z18.2500 F100.0
N12870 G02 X106.0041 Y25.5990 I4.2426 J-4.2426 F200.0
N12880 G01 Z16.0000 F100.0
N12890 (Part: full_size_camera_drop_reinforcement)
N12900 G02 X106.0041 Y25.5990 I4.2426 J-4.2426 F200.0
N12910 (Operation: Inside Offset, Inner Contour, T8: 3.00mm Fish-tail, Diamond-cut [Zn] router, 4.5 mm Deep)
N12920 G00 Z30.5000
N12930 X308.5647 Y27.5644
N12940 Z25.5000
N12950 G01 Z18.2500 F100.0
N12960 Y39.8144 F200.0
N12970 G02 X309.0647 Y40.3144 I0.5000 J-0.0000
N12980 G01 X333.5647
N12990 G02 X334.0647 Y39.8144 I0.0000 J-0.5000
N13000 G01 Y15.3144
N13010 G02 X333.5647 Y14.8144 I-0.5000 J-0.0000
N13020 G01 X309.0647
N13030 G02 X308.5647 Y15.3144 I-0.0000 J0.5000
N13040 G01 Y27.5644
N13050 Z16.0000 F100.0
N13060 Y39.8144 F200.0
N13070 G02 X309.0647 Y40.3144 I0.5000 J-0.0000
N13080 G01 X333.5647
N13090 G02 X334.0647 Y39.8144 I0.0000 J-0.5000
N13100 G01 Y15.3144
N13110 G02 X333.5647 Y14.8144 I-0.5000 J-0.0000
N13120 G01 X309.0647
N13130 G02 X308.5647 Y15.3144 I-0.0000 J0.5000
N13140 G01 Y27.5644
N13150 (Part: Betsy Motor Mount Plate Duplicate 6)
N13160 (Operation: Spiral pocket, Motor Mount Arm Countersink, T9: 3.00mm Fish-tail, Chip-breaker router, 1.75 mm Deep)
N13170 G00 Z30.5000
N13180 M09 (Coolant off)
N13190 M05
N13200 (RCC08-1181-039F)
N13210 (3.00mm Fish-tail, Chip-breaker router)
N13220 T9 M06
N13230  G43 H9
N13240 G00 X308.5647 Y27.5644 Z30.5000
N13250 M08 (Flood coolant on)
N13251 M07 (LED Lighting on)
N13260 S11000 M03
N13270 X163.3031 Y21.9382
N13280 Z25.5000
N13290 G01 Z18.7500 F140.0
N13300 X208.8695
N13310 Y21.0382
N13320 X163.3031
N13330 Y21.9382
N13340 X161.5031 Y23.7382
N13350 X210.6695
N13360 Y19.2382
N13370 X161.5031
N13380 Y23.7382
N13390 X159.7031 Y25.5382
N13400 X212.4695
N13410 Y17.4382
N13420 X159.7031
N13430 Y25.5382
N13440 X157.9031 Y27.3382
N13450 X214.2695
N13460 Y15.6382
N13470 X157.9031
N13480 Y27.3382
N13490 X156.1031 Y29.1382
N13500 X216.0695
N13510 Y13.8382
N13520 X156.1031
N13530 Y29.1382
N13540 X154.3031 Y30.9382
N13550 X217.8695
N13560 Y12.0382
N13570 X154.3031
N13580 Y30.9382
N13590 G00 Z30.5000
N13600 X186.0863 Y32.7382
N13610 Z25.5000
N13620 G01 Z18.7500
N13630 X219.6695
N13640 Y10.2382
N13650 X152.5031
N13660 Y32.7382
N13670 X186.0863
N13680 (Part: Betsy Motor Mount Plate Duplicate 7)
N13690 (Operation: Spiral pocket, Motor Mount Arm Countersink, T9: 3.00mm Fish-tail, Chip-breaker router, 1.75 mm Deep)
N13700 G00 Z30.5000
N13710 X87.4636 Y21.8064
N13720 Z25.5000
N13730 G01 Z18.7500
N13740 X133.0300
N13750 Y20.9064
N13760 X87.4636
N13770 Y21.8064
N13780 X85.6636 Y23.6064
N13790 X134.8300
N13800 Y19.1064
N13810 X85.6636
N13820 Y23.6064
N13830 X83.8636 Y25.4064
N13840 X136.6300
N13850 Y17.3064
N13860 X83.8636
N13870 Y25.4064
N13880 X82.0636 Y27.2064
N13890 X138.4300
N13900 Y15.5064
N13910 X82.0636
N13920 Y27.2064
N13930 X80.2636 Y29.0064
N13940 X140.2300
N13950 Y13.7064
N13960 X80.2636
N13970 Y29.0064
N13980 X78.4636 Y30.8064
N13990 X142.0300
N14000 Y11.9064
N14010 X78.4636
N14020 Y30.8064
N14030 G00 Z30.5000
N14040 X110.2468 Y32.6064
N14050 Z25.5000
N14060 G01 Z18.7500
N14070 X143.8300
N14080 Y10.1064
N14090 X76.6636
N14100 Y32.6064
N14110 X110.2468
N14120 (Part: Betsy Motor Mount Plate Duplicate 2)
N14130 (Operation: Spiral pocket, Motor Mount Arm Countersink, T9: 3.00mm Fish-tail, Chip-breaker router, 1.75 mm Deep)
N14140 G00 Z30.5000
N14150 X85.6217 Y204.8262
N14160 Z25.5000
N14170 G01 Z18.7500
N14180 X131.1881
N14190 Y203.9262
N14200 X85.6217
N14210 Y204.8262
N14220 X83.8217 Y206.6262
N14230 X132.9881
N14240 Y202.1262
N14250 X83.8217
N14260 Y206.6262
N14270 X82.0217 Y208.4262
N14280 X134.7881
N14290 Y200.3262
N14300 X82.0217
N14310 Y208.4262
N14320 X80.2217 Y210.2262
N14330 X136.5881
N14340 Y198.5262
N14350 X80.2217
N14360 Y210.2262
N14370 X78.4217 Y212.0262
N14380 X138.3881
N14390 Y196.7262
N14400 X78.4217
N14410 Y212.0262
N14420 X76.6217 Y213.8262
N14430 X140.1881
N14440 Y194.9262
N14450 X76.6217
N14460 Y213.8262
N14470 G00 Z30.5000
N14480 X108.4049 Y215.6262
N14490 Z25.5000
N14500 G01 Z18.7500
N14510 X141.9881
N14520 Y193.1262
N14530 X74.8217
N14540 Y215.6262
N14550 X108.4049
N14560 (Part: Betsy Motor Mount Plate Duplicate 3)
N14570 (Operation: Spiral pocket, Motor Mount Arm Countersink, T9: 3.00mm Fish-tail, Chip-breaker router, 1.75 mm Deep)
N14580 G00 Z30.5000
N14590 X87.0058 Y250.4535
N14600 Z25.5000
N14610 G01 Z18.7500
N14620 X132.5722
N14630 Y249.5535
N14640 X87.0058
N14650 Y250.4535
N14660 X85.2058 Y252.2535
N14670 X134.3722
N14680 Y247.7535
N14690 X85.2058
N14700 Y252.2535
N14710 X83.4058 Y254.0535
N14720 X136.1722
N14730 Y245.9535
N14740 X83.4058
N14750 Y254.0535
N14760 X81.6058 Y255.8535
N14770 X137.9722
N14780 Y244.1535
N14790 X81.6058
N14800 Y255.8535
N14810 X79.8058 Y257.6535
N14820 X139.7722
N14830 Y242.3535
N14840 X79.8058
N14850 Y257.6535
N14860 X78.0058 Y259.4535
N14870 X141.5722
N14880 Y240.5535
N14890 X78.0058
N14900 Y259.4535
N14910 G00 Z30.5000
N14920 X109.7890 Y261.2535
N14930 Z25.5000
N14940 G01 Z18.7500
N14950 X143.3722
N14960 Y238.7535
N14970 X76.2058
N14980 Y261.2535
N14990 X109.7890
N15000 (Part: Betsy Motor Mount Plate Duplicate 5)
N15010 (Operation: Spiral pocket, Motor Mount Arm Countersink, T9: 3.00mm Fish-tail, Chip-breaker router, 1.75 mm Deep)
N15020 G00 Z30.5000
N15030 X163.1603 Y250.2041
N15040 Z25.5000
N15050 G01 Z18.7500
N15060 X208.7266
N15070 Y249.3041
N15080 X163.1603
N15090 Y250.2041
N15100 X161.3603 Y252.0041
N15110 X210.5266
N15120 Y247.5041
N15130 X161.3603
N15140 Y252.0041
N15150 X159.5603 Y253.8041
N15160 X212.3266
N15170 Y245.7041
N15180 X159.5603
N15190 Y253.8041
N15200 X157.7603 Y255.6041
N15210 X214.1266
N15220 Y243.9041
N15230 X157.7603
N15240 Y255.6041
N15250 X155.9603 Y257.4041
N15260 X215.9266
N15270 Y242.1041
N15280 X155.9603
N15290 Y257.4041
N15300 X154.1603 Y259.2041
N15310 X217.7266
N15320 Y240.3041
N15330 X154.1603
N15340 Y259.2041
N15350 G00 Z30.5000
N15360 X185.9435 Y261.0041
N15370 Z25.5000
N15380 G01 Z18.7500
N15390 X219.5266
N15400 Y238.5041
N15410 X152.3603
N15420 Y261.0041
N15430 X185.9435
N15440 (Part: Betsy Motor Mount Plate Duplicate 4)
N15450 (Operation: Spiral pocket, Motor Mount Arm Countersink, T9: 3.00mm Fish-tail, Chip-breaker router, 1.75 mm Deep)
N15460 G00 Z30.5000
N15470 X163.0450 Y204.5393
N15480 Z25.5000
N15490 G01 Z18.7500
N15500 X208.6114
N15510 Y203.6393
N15520 X163.0450
N15530 Y204.5393
N15540 X161.2450 Y206.3393
N15550 X210.4114
N15560 Y201.8393
N15570 X161.2450
N15580 Y206.3393
N15590 X159.4450 Y208.1393
N15600 X212.2114
N15610 Y200.0393
N15620 X159.4450
N15630 Y208.1393
N15640 X157.6450 Y209.9393
N15650 X214.0114
N15660 Y198.2393
N15670 X157.6450
N15680 Y209.9393
N15690 X155.8450 Y211.7393
N15700 X215.8114
N15710 Y196.4393
N15720 X155.8450
N15730 Y211.7393
N15740 X154.0450 Y213.5393
N15750 X217.6114
N15760 Y194.6393
N15770 X154.0450
N15780 Y213.5393
N15790 G00 Z30.5000
N15800 X185.8282 Y215.3393
N15810 Z25.5000
N15820 G01 Z18.7500
N15830 X219.4114
N15840 Y192.8393
N15850 X152.2450
N15860 Y215.3393
N15870 X185.8282
N15880 (Part: Betsy Motor Mount Plate Duplicate 1)
N15890 (Operation: Spiral pocket, Motor Mount Arm Countersink, T9: 3.00mm Fish-tail, Chip-breaker router, 1.75 mm Deep)
N15900 G00 Z30.5000
N15910 X162.6570 Y435.8444
N15920 Z25.5000
N15930 G01 Z18.7500
N15940 X208.2234
N15950 Y434.9444
N15960 X162.6570
N15970 Y435.8444
N15980 X160.8570 Y437.6444
N15990 X210.0234
N16000 Y433.1444
N16010 X160.8570
N16020 Y437.6444
N16030 X159.0570 Y439.4444
N16040 X211.8234
N16050 Y431.3444
N16060 X159.0570
N16070 Y439.4444
N16080 X157.2570 Y441.2444
N16090 X213.6234
N16100 Y429.5444
N16110 X157.2570
N16120 Y441.2444
N16130 X155.4570 Y443.0444
N16140 X215.4234
N16150 Y427.7444
N16160 X155.4570
N16170 Y443.0444
N16180 X153.6570 Y444.8444
N16190 X217.2234
N16200 Y425.9444
N16210 X153.6570
N16220 Y444.8444
N16230 G00 Z30.5000
N16240 X185.4402 Y446.6444
N16250 Z25.5000
N16260 G01 Z18.7500
N16270 X219.0234
N16280 Y424.1444
N16290 X151.8570
N16300 Y446.6444
N16310 X185.4402
N16320 (Part: Betsy Motor Mount Plate)
N16330 (Operation: Spiral pocket, Motor Mount Arm Countersink, T9: 3.00mm Fish-tail, Chip-breaker router, 1.75 mm Deep)
N16340 G00 Z30.5000
N16350 X85.4773 Y436.0003
N16360 Z25.5000
N16370 G01 Z18.7500
N16380 X131.0436
N16390 Y435.1003
N16400 X85.4773
N16410 Y436.0003
N16420 X83.6773 Y437.8003
N16430 X132.8436
N16440 Y433.3003
N16450 X83.6773
N16460 Y437.8003
N16470 X81.8773 Y439.6003
N16480 X134.6436
N16490 Y431.5003
N16500 X81.8773
N16510 Y439.6003
N16520 X80.0773 Y441.4003
N16530 X136.4436
N16540 Y429.7003
N16550 X80.0773
N16560 Y441.4003
N16570 X78.2773 Y443.2003
N16580 X138.2436
N16590 Y427.9003
N16600 X78.2773
N16610 Y443.2003
N16620 X76.4773 Y445.0003
N16630 X140.0436
N16640 Y426.1003
N16650 X76.4773
N16660 Y445.0003
N16670 G00 Z30.5000
N16680 X108.2605 Y446.8003
N16690 Z25.5000
N16700 G01 Z18.7500
N16710 X141.8436
N16720 Y424.3003
N16730 X74.6773
N16740 Y446.8003
N16750 X108.2605
N16760 (Part: SourceX_v1.1_bottom_plate_4mm)
N16770 (Operation: Inside Offset, 2.5mm Holes, T7: 2.38mm Fish-tail, Diamond-cut [Zn] router, 4.5 mm Deep)
N16780 G00 Z30.5000
N16790 M09 (Coolant off)
N16800 M05
N16810 (RCD08-0938-032FC)
N16820 (Zirconium Nitride Coated)
N16830 (2.38mm Fish-tail, Diamond-cut [Zn] router)
N16840 T7 M06
N16850  G43 H7
N16860 G00 X108.2605 Y446.8003 Z30.4500
N16870 M08 (Flood coolant on)
N16870 M07 (LED Lighting on)
N16880 S11000 M03
N16890 X79.2638 Y130.7036
N16900 Z25.4500
N16910 G01 Z18.2000 F100.0
N16920 G02 X79.2638 Y130.7036 I0.0424 J0.0424 F200.0
N16930 G01 Z15.9500 F100.0
N16940 G02 X79.2638 Y130.7036 I0.0424 J0.0424 F200.0
N16950 G00 Z30.4500
N16960 X62.8888
N16970 Z25.4500
N16980 G01 Z18.2000 F100.0
N16990 G02 X62.8888 Y130.7036 I0.0424 J0.0424 F200.0
N17000 G01 Z15.9500 F100.0
N17010 G02 X62.8888 Y130.7036 I0.0424 J0.0424 F200.0
N17020 G00 Z30.4500
N17030 Y93.8036
N17040 Z25.4500
N17050 G01 Z18.2000 F100.0
N17060 G02 X62.8888 Y93.8036 I0.0424 J0.0424 F200.0
N17070 G01 Z15.9500 F100.0
N17080 G02 X62.8888 Y93.8036 I0.0424 J0.0424 F200.0
N17090 G00 Z30.4500
N17100 X79.3486
N17110 Z25.4500
N17120 G01 Z18.2000 F100.0
N17130 G02 X79.3486 Y93.8036 I-0.0424 J0.0424 F200.0
N17140 G01 Z15.9500 F100.0
N17150 G02 X79.3486 Y93.8036 I-0.0424 J0.0424 F200.0
N17160 G00 Z30.4500
N17170 X214.2236
N17180 Z25.4500
N17190 G01 Z18.2000 F100.0
N17200 G02 X214.2236 Y93.8036 I-0.0424 J0.0424 F200.0
N17210 G01 Z15.9500 F100.0
N17220 G02 X214.2236 Y93.8036 I-0.0424 J0.0424 F200.0
N17230 G00 Z30.4500
N17240 Y130.7884
N17250 Z25.4500
N17260 G01 Z18.2000 F100.0
N17270 G02 X214.2236 Y130.7884 I-0.0424 J-0.0424 F200.0
N17280 G01 Z15.9500 F100.0
N17290 G02 X214.2236 Y130.7884 I-0.0424 J-0.0424 F200.0
N17300 (Operation: Inside Offset, Inner Contours, T7: 2.38mm Fish-tail, Diamond-cut [Zn] router, 4.5 mm Deep)
N17310 G00 Z30.4500
N17320 X152.9807 Y140.0330
N17330 Z25.4500
N17340 G01 Z18.2000 F100.0
N17350 G02 X150.9937 Y135.2360 I-1.9870 J-1.9870 F200.0
N17360 G01 X142.4937
N17370 G02 X142.4937 Y140.8560 I0.0000 J2.8100
N17380 G01 X150.9937
N17390 G02 X152.9807 Y140.0330 I0.0000 J-2.8100
N17400 G01 Z15.9500 F100.0
N17410 G02 X150.9937 Y135.2360 I-1.9870 J-1.9870 F200.0
N17420 G01 X142.4937
N17430 G02 X142.4937 Y140.8560 I0.0000 J2.8100
N17440 G01 X150.9937
N17450 G02 X152.9807 Y140.0330 I0.0000 J-2.8100
N17460 G00 Z30.4500
N17470 X206.2129 Y136.5152
N17480 Z25.4500
N17490 G01 Z18.2000 F100.0
N17500 G02 X205.9937 Y135.9860 I-0.2192 J-0.2192 F200.0
N17510 G01 X175.4937
N17520 G02 X175.4937 Y136.6060 I0.0000 J0.3100
N17530 G01 X205.9937
N17540 G02 X206.2129 Y136.5152 I0.0000 J-0.3100
N17550 G01 Z15.9500 F100.0
N17560 G02 X205.9937 Y135.9860 I-0.2192 J-0.2192 F200.0
N17570 G01 X175.4937
N17580 G02 X175.4937 Y136.6060 I0.0000 J0.3100
N17590 G01 X205.9937
N17600 G02 X206.2129 Y136.5152 I0.0000 J-0.3100
N17610 G00 Z30.4500
N17620 X210.9629 Y150.5152
N17630 Z25.4500
N17640 G01 Z18.2000 F100.0
N17650 G02 X210.7437 Y149.9860 I-0.2192 J-0.2192 F200.0
N17660 G01 X180.7437
N17670 G02 X180.7437 Y150.6060 I0.0000 J0.3100
N17680 G01 X210.7437
N17690 G02 X210.9629 Y150.5152 I0.0000 J-0.3100
N17700 G01 Z15.9500 F100.0
N17710 G02 X210.7437 Y149.9860 I-0.2192 J-0.2192 F200.0
N17720 G01 X180.7437
N17730 G02 X180.7437 Y150.6060 I0.0000 J0.3100
N17740 G01 X210.7437
N17750 G02 X210.9629 Y150.5152 I0.0000 J-0.3100
N17760 G00 Z30.4500
N17770 X255.6477 Y151.8968
N17780 Z25.4500
N17790 G01 Z18.2000 F100.0
N17800 G03 X256.1115 Y153.4062 I-4.6715 J2.2612 F200.0
N17810 G01 X257.0786 Y160.0129
N17820 G02 X258.8630 Y163.6993 I6.7382 J-0.9864
N17830 G01 X267.9828 Y173.3674
N17840 G02 X268.5051 Y173.0653 I0.2255 J-0.2127
N17850 G01 X258.1765 Y138.7760
N17860 G02 X257.7736 Y138.5741 I-0.2968 J0.0894
N17870 G01 X248.2388 Y142.0445
N17880 G02 X247.9266 Y143.3614 I0.2770 J0.7612
N17890 G01 X254.7516 Y150.5967
N17900 G03 X255.6477 Y151.8968 I-3.7754 J3.5613
N17910 G01 Z15.9500 F100.0
N17920 G03 X256.1115 Y153.4062 I-4.6715 J2.2612 F200.0
N17930 G01 X257.0786 Y160.0129
N17940 G02 X258.8630 Y163.6993 I6.7382 J-0.9864
N17950 G01 X267.9828 Y173.3674
N17960 G02 X268.5051 Y173.0653 I0.2255 J-0.2127
N17970 G01 X258.1765 Y138.7760
N17980 G02 X257.7736 Y138.5741 I-0.2968 J0.0894
N17990 G01 X248.2388 Y142.0445
N18000 G02 X247.9266 Y143.3614 I0.2770 J0.7612
N18010 G01 X254.7516 Y150.5967
N18020 G03 X255.6477 Y151.8968 I-3.7754 J3.5613
N18030 G00 Z30.4500
N18040 X254.4212 Y125.3560
N18050 Z25.4500
N18060 G01 Z18.2000 F100.0
N18070 X266.6712 F200.0
N18080 G02 X267.4812 Y124.5460 I-0.0000 J-0.8100
N18090 G01 Y100.0460
N18100 G02 X266.6712 Y99.2360 I-0.8100 J-0.0000
N18110 G01 X242.1712
N18120 G02 X241.3612 Y100.0460 I-0.0000 J0.8100
N18130 G01 Y124.5460
N18140 G02 X242.1712 Y125.3560 I0.8100 J0.0000
N18150 G01 X254.4212
N18160 Z15.9500 F100.0
N18170 X266.6712 F200.0
N18180 G02 X267.4812 Y124.5460 I-0.0000 J-0.8100
N18190 G01 Y100.0460
N18200 G02 X266.6712 Y99.2360 I-0.8100 J-0.0000
N18210 G01 X242.1712
N18220 G02 X241.3612 Y100.0460 I-0.0000 J0.8100
N18230 G01 Y124.5460
N18240 G02 X242.1712 Y125.3560 I0.8100 J0.0000
N18250 G01 X254.4212
N18260 G00 Z30.4500
N18270 X257.6871 Y62.5986
N18280 Z25.4500
N18290 G01 Z18.2000 F100.0
N18300 G02 X257.0786 Y64.5792 I6.1297 J2.9670 F200.0
N18310 G01 X256.1115 Y71.1858
N18320 G03 X254.7516 Y73.9954 I-5.1353 J-0.7517
N18330 G01 X247.9266 Y81.2306
N18340 G02 X248.2388 Y82.5476 I0.5892 J0.5558
N18350 G01 X257.7736 Y86.0179
N18360 G02 X258.1765 Y85.8161 I0.1060 J-0.2913
N18370 G01 X268.5051 Y51.5267
N18380 G02 X267.9828 Y51.2246 I-0.2968 J-0.0894
N18390 G01 X258.8630 Y60.8927
N18400 G02 X257.6871 Y62.5986 I4.9538 J4.6729
N18410 G01 Z15.9500 F100.0
N18420 G02 X257.0786 Y64.5792 I6.1297 J2.9670 F200.0
N18430 G01 X256.1115 Y71.1858
N18440 G03 X254.7516 Y73.9954 I-5.1353 J-0.7517
N18450 G01 X247.9266 Y81.2306
N18460 G02 X248.2388 Y82.5476 I0.5892 J0.5558
N18470 G01 X257.7736 Y86.0179
N18480 G02 X258.1765 Y85.8161 I0.1060 J-0.2913
N18490 G01 X268.5051 Y51.5267
N18500 G02 X267.9828 Y51.2246 I-0.2968 J-0.0894
N18510 G01 X258.8630 Y60.8927
N18520 G02 X257.6871 Y62.5986 I4.9538 J4.6729
N18530 G00 Z30.4500
N18540 X180.5245 Y74.0768
N18550 Z25.4500
N18560 G01 Z18.2000 F100.0
N18570 G02 X180.7437 Y74.6060 I0.2192 J0.2192 F200.0
N18580 G01 X210.7437
N18590 G02 X210.7437 Y73.9860 I0.0000 J-0.3100
N18600 G01 X180.7437
N18610 G02 X180.5245 Y74.0768 I0.0000 J0.3100
N18620 G01 Z15.9500 F100.0
N18630 G02 X180.7437 Y74.6060 I0.2192 J0.2192 F200.0
N18640 G01 X210.7437
N18650 G02 X210.7437 Y73.9860 I0.0000 J-0.3100
N18660 G01 X180.7437
N18670 G02 X180.5245 Y74.0768 I0.0000 J0.3100
N18680 G00 Z30.4500
N18690 X190.7437 Y87.9860
N18700 Z25.4500
N18710 G01 Z18.2000 F100.0
N18720 X175.4937 F200.0
N18730 G02 X175.4937 Y88.6060 I0.0000 J0.3100
N18740 G01 X205.9937
N18750 G02 X205.9937 Y87.9860 I0.0000 J-0.3100
N18760 G01 X190.7437
N18770 Z15.9500 F100.0
N18780 X175.4937 F200.0
N18790 G02 X175.4937 Y88.6060 I0.0000 J0.3100
N18800 G01 X205.9937
N18810 G02 X205.9937 Y87.9860 I0.0000 J-0.3100
N18820 G01 X190.7437
N18830 G00 Z30.4500
N18840 X140.5067 Y88.5330
N18850 Z25.4500
N18860 G01 Z18.2000 F100.0
N18870 G02 X142.4937 Y89.3560 I1.9870 J-1.9870 F200.0
N18880 G01 X150.9937
N18890 G02 X150.9937 Y83.7360 I0.0000 J-2.8100
N18900 G01 X142.4937
N18910 G02 X140.5067 Y88.5330 I0.0000 J2.8100
N18920 G01 Z15.9500 F100.0
N18930 G02 X142.4937 Y89.3560 I1.9870 J-1.9870 F200.0
N18940 G01 X150.9937
N18950 G02 X150.9937 Y83.7360 I0.0000 J-2.8100
N18960 G01 X142.4937
N18970 G02 X140.5067 Y88.5330 I0.0000 J2.8100
N18980 G00 Z30.4500
N18990 X87.2745 Y88.5152
N19000 Z25.4500
N19010 G01 Z18.2000 F100.0
N19020 G02 X87.4937 Y88.6060 I0.2192 J-0.2192 F200.0
N19030 G01 X117.9937
N19040 G02 X117.9937 Y87.9860 I0.0000 J-0.3100
N19050 G01 X87.4937
N19060 G02 X87.2745 Y88.5152 I0.0000 J0.3100
N19070 G01 Z15.9500 F100.0
N19080 G02 X87.4937 Y88.6060 I0.2192 J-0.2192 F200.0
N19090 G01 X117.9937
N19100 G02 X117.9937 Y87.9860 I0.0000 J-0.3100
N19110 G01 X87.4937
N19120 G02 X87.2745 Y88.5152 I0.0000 J0.3100
N19130 G00 Z30.4500
N19140 X82.5245 Y74.0768
N19150 Z25.4500
N19160 G01 Z18.2000 F100.0
N19170 G02 X82.7437 Y74.6060 I0.2192 J0.2192 F200.0
N19180 G01 X112.7437
N19190 G02 X112.7437 Y73.9860 I0.0000 J-0.3100
N19200 G01 X82.7437
N19210 G02 X82.5245 Y74.0768 I0.0000 J0.3100
N19220 G01 Z15.9500 F100.0
N19230 G02 X82.7437 Y74.6060 I0.2192 J0.2192 F200.0
N19240 G01 X112.7437
N19250 G02 X112.7437 Y73.9860 I0.0000 J-0.3100
N19260 G01 X82.7437
N19270 G02 X82.5245 Y74.0768 I0.0000 J0.3100
N19280 G00 Z30.4500
N19290 X35.8896 Y86.4988
N19300 Z25.4500
N19310 G01 Z18.2000 F100.0
N19320 G02 X36.9693 Y86.8560 I1.0796 J-1.4528 F200.0
N19330 G01 X48.9896
N19340 G02 X49.5788 Y85.4902 I0.0000 J-0.8100
N19350 G01 X38.7358 Y73.9954
N19360 G03 X37.3759 Y71.1858 I3.7754 J-3.5613
N19370 G01 X36.4088 Y64.5792
N19380 G02 X34.6244 Y60.8927 I-6.7382 J0.9864
N19390 G01 X25.5046 Y51.2246
N19400 G02 X24.9823 Y51.5267 I-0.2255 J0.2127
N19410 G01 X35.2362 Y85.5681
N19420 G02 X35.8896 Y86.4988 I1.7331 J-0.5220
N19430 G01 Z15.9500 F100.0
N19440 G02 X36.9693 Y86.8560 I1.0796 J-1.4528 F200.0
N19450 G01 X48.9896
N19460 G02 X49.5788 Y85.4902 I0.0000 J-0.8100
N19470 G01 X38.7358 Y73.9954
N19480 G03 X37.3759 Y71.1858 I3.7754 J-3.5613
N19490 G01 X36.4088 Y64.5792
N19500 G02 X34.6244 Y60.8927 I-6.7382 J0.9864
N19510 G01 X25.5046 Y51.2246
N19520 G02 X24.9823 Y51.5267 I-0.2255 J0.2127
N19530 G01 X35.2362 Y85.5681
N19540 G02 X35.8896 Y86.4988 I1.7331 J-0.5220
N19550 G00 Z30.4500
N19560 X35.8003 Y161.9934
N19570 Z25.4500
N19580 G01 Z18.2000 F100.0
N19590 G02 X36.4088 Y160.0129 I-6.1297 J-2.9670 F200.0
N19600 G01 X37.3759 Y153.4062
N19610 G03 X38.7358 Y150.5967 I5.1353 J0.7517
N19620 G01 X49.5788 Y139.1018
N19630 G02 X48.9896 Y137.7360 I-0.5892 J-0.5558
N19640 G01 X36.9693
N19650 G02 X35.2362 Y139.0240 I0.0000 J1.8100
N19660 G01 X24.9823 Y173.0653
N19670 G02 X25.5046 Y173.3674 I0.2968 J0.0894
N19680 G01 X34.6244 Y163.6993
N19690 G02 X35.8003 Y161.9934 I-4.9538 J-4.6729
N19700 G01 Z15.9500 F100.0
N19710 G02 X36.4088 Y160.0129 I-6.1297 J-2.9670 F200.0
N19720 G01 X37.3759 Y153.4062
N19730 G03 X38.7358 Y150.5967 I5.1353 J0.7517
N19740 G01 X49.5788 Y139.1018
N19750 G02 X48.9896 Y137.7360 I-0.5892 J-0.5558
N19760 G01 X36.9693
N19770 G02 X35.2362 Y139.0240 I0.0000 J1.8100
N19780 G01 X24.9823 Y173.0653
N19790 G02 X25.5046 Y173.3674 I0.2968 J0.0894
N19800 G01 X34.6244 Y163.6993
N19810 G02 X35.8003 Y161.9934 I-4.9538 J-4.6729
N19820 G00 Z30.4500
N19830 X112.9629 Y150.5152
N19840 Z25.4500
N19850 G01 Z18.2000 F100.0
N19860 G02 X112.7437 Y149.9860 I-0.2192 J-0.2192 F200.0
N19870 G01 X82.7437
N19880 G02 X82.7437 Y150.6060 I0.0000 J0.3100
N19890 G01 X112.7437
N19900 G02 X112.9629 Y150.5152 I0.0000 J-0.3100
N19910 G01 Z15.9500 F100.0
N19920 G02 X112.7437 Y149.9860 I-0.2192 J-0.2192 F200.0
N19930 G01 X82.7437
N19940 G02 X82.7437 Y150.6060 I0.0000 J0.3100
N19950 G01 X112.7437
N19960 G02 X112.9629 Y150.5152 I0.0000 J-0.3100
N19970 G00 Z30.4500
N19980 X102.7437 Y136.6060
N19990 Z25.4500
N20000 G01 Z18.2000 F100.0
N20010 X117.9937 F200.0
N20020 G02 X117.9937 Y135.9860 I0.0000 J-0.3100
N20030 G01 X87.4937
N20040 G02 X87.4937 Y136.6060 I0.0000 J0.3100
N20050 G01 X102.7437
N20060 Z15.9500 F100.0
N20070 X117.9937 F200.0
N20080 G02 X117.9937 Y135.9860 I0.0000 J-0.3100
N20090 G01 X87.4937
N20100 G02 X87.4937 Y136.6060 I0.0000 J0.3100
N20110 G01 X102.7437
N20120 (Part: full_size_camera_drop_reinforcement)
N20130 (Operation: Inside Offset, Fixture Holes, T7: 2.38mm Fish-tail, Diamond-cut [Zn] router, 4.5 mm Deep)
N20140 G00 Z30.4500
N20150 X339.0340 Y43.0227
N20160 Z25.4500
N20170 G01 Z15.9500 F100.0
N20180 G02 X339.0340 Y43.0227 I-0.2192 J0.2192 F200.0
N20190 G00 Z30.4500
N20200 Y8.0227
N20210 Z25.4500
N20220 G01 Z15.9500 F100.0
N20230 G02 X339.0340 Y8.0227 I-0.2192 J0.2192 F200.0
N20240 G00 Z30.4500
N20250 X303.5955
N20260 Z25.4500
N20270 G01 Z15.9500 F100.0
N20280 G02 X303.5955 Y8.0227 I0.2192 J0.2192 F200.0
N20290 G00 Z30.4500
N20300 Y43.4611
N20310 Z25.4500
N20320 G01 Z15.9500 F100.0
N20330 G02 X303.5955 Y43.4611 I0.2192 J-0.2192 F200.0
N20340 (Operation: Outside Offset, Outer Contour, T7: 2.38mm Fish-tail, Diamond-cut [Zn] router, 4.5 mm Deep)
N20350 G00 Z30.4500
N20360 X307.1109 Y61.3462
N20370 Z25.4500
N20380 G01 Z18.2000 F100.0
N20390 G03 X305.2108 Y58.8698 I2.9769 J-4.2514 F200.0
N20400 G01 X302.5308 Y51.5068
N20410 G02 X301.9103 Y50.9861 I-0.7612 J0.2770
N20420 G01 X301.0575 Y50.8357
N20430 G03 X298.6138 Y48.7852 I0.5539 J-3.1415
N20440 G01 X296.2442 Y42.2748
N20450 G03 X296.7981 Y39.1333 I2.9976 J-1.0911
N20460 G01 X302.6852 Y32.1172
N20470 G02 X302.8748 Y31.5965 I-0.6205 J-0.5207
N20480 G01 Y16.5127
N20490 G02 X302.0517 Y14.5258 I-2.8100 J0.0000
N20500 G01 X299.7913 Y12.2654
N20510 G03 X307.8382 Y4.2185 I4.0234 J-4.0234
N20520 G01 X310.9211 Y7.3014
N20530 G02 X312.9080 Y8.1244 I1.9870 J-1.9870
N20540 G01 X329.7215
N20550 G02 X331.7084 Y7.3014 I-0.0000 J-2.8100
N20560 G01 X334.7913 Y4.2185
N20570 G03 X342.8382 Y12.2654 I4.0234 J4.0234
N20580 G01 X340.5778 Y14.5258
N20590 G02 X339.7547 Y16.5127 I1.9870 J1.9870
N20600 G01 Y31.5965
N20610 G02 X339.9443 Y32.1172 I0.8100 J-0.0000
N20620 G01 X345.8314 Y39.1333
N20630 G03 X346.3853 Y42.2748 I-2.4437 J2.0505
N20640 G01 X344.0157 Y48.7852
N20650 G03 X341.5720 Y50.8357 I-2.9976 J-1.0911
N20660 G01 X340.7192 Y50.9861
N20670 G02 X340.0987 Y51.5068 I0.1407 J0.7977
N20680 G01 X337.4187 Y58.8698
N20690 G03 X332.5417 Y62.2848 I-4.8770 J-1.7751
N20700 G01 X310.0878
N20710 G03 X307.1109 Y61.3462 I-0.0000 J-5.1900
N20720 G01 Z15.9500 F100.0
N20730 G03 X305.2108 Y58.8698 I2.9769 J-4.2514 F200.0
N20740 G01 X302.5308 Y51.5068
N20750 G02 X301.9103 Y50.9861 I-0.7612 J0.2770
N20760 G01 X301.0575 Y50.8357
N20770 G03 X298.6138 Y48.7852 I0.5539 J-3.1415
N20780 G01 X296.2442 Y42.2748
N20790 G03 X296.7981 Y39.1333 I2.9976 J-1.0911
N20800 G01 X302.6852 Y32.1172
N20810 G02 X302.8748 Y31.5965 I-0.6205 J-0.5207
N20820 G01 Y16.5127
N20830 G02 X302.0517 Y14.5258 I-2.8100 J0.0000
N20840 G01 X299.7913 Y12.2654
N20850 G03 X307.8382 Y4.2185 I4.0234 J-4.0234
N20860 G01 X310.9211 Y7.3014
N20870 G02 X312.9080 Y8.1244 I1.9870 J-1.9870
N20880 G01 X329.7215
N20890 G02 X331.7084 Y7.3014 I-0.0000 J-2.8100
N20900 G01 X334.7913 Y4.2185
N20910 G03 X342.8382 Y12.2654 I4.0234 J4.0234
N20920 G01 X340.5778 Y14.5258
N20930 G02 X339.7547 Y16.5127 I1.9870 J1.9870
N20940 G01 Y31.5965
N20950 G02 X339.9443 Y32.1172 I0.8100 J-0.0000
N20960 G01 X345.8314 Y39.1333
N20970 G03 X346.3853 Y42.2748 I-2.4437 J2.0505
N20980 G01 X344.0157 Y48.7852
N20990 G03 X341.5720 Y50.8357 I-2.9976 J-1.0911
N21000 G01 X340.7192 Y50.9861
N21010 G02 X340.0987 Y51.5068 I0.1407 J0.7977
N21020 G01 X337.4187 Y58.8698
N21030 G03 X332.5417 Y62.2848 I-4.8770 J-1.7751
N21040 G01 X310.0878
N21050 (Part: Betsy Motor Mount Plate Duplicate 6)
N21060 G03 X307.1109 Y61.3462 I-0.0000 J-5.1900
N21070 (Operation: Outside Offset, Motor Mount Outer Contour, T8: 3.00mm Fish-tail, Diamond-cut [Zn] router, 4.5 mm Deep)
N21080 G00 Z30.4500
N21090 M09 (Coolant off)
N21100 M05
N21110 (RCD08-1181-032FC)
N21120 (Zirconium Nitride Coated)
N21130 (3.00mm Fish-tail, Diamond-cut [Zn] router)
N21140 T8 M06
N21150  G43 H8
N21160 G00 X307.1109 Y61.3462 Z30.5000
N21170 M08 (Flood coolant on)
N21171 M07 (LED Lighting on)
N21180 S11000 M03
N21190 X186.0863 Y39.6920
N21200 Z25.5000
N21210 G01 Z18.2500 F100.0
N21220 G02 X156.5073 Y43.9279 I-0.0000 J105.3920 F200.0
N21230 G03 X156.0863 Y43.9882 I-0.4210 J-1.4397
N21240 X148.5863 Y36.4882 I0.0000 J-7.5000
N21250 X148.7166 Y35.8766 I1.5000 J0.0000
N21260 G02 X148.7166 Y7.0997 I-32.2236 J-14.3884
N21270 G03 X148.5863 Y6.4882 I1.3697 J-0.6116
N21280 X156.0863 Y-1.0118 I7.5000 J-0.0000
N21290 X156.5073 Y-0.9515 I0.0000 J1.5000
N21300 G02 X215.6653 Y-0.9515 I29.5790 J-101.1561
N21310 G03 X216.0863 Y-1.0118 I0.4210 J1.4397
N21320 X223.5863 Y6.4882 I-0.0000 J7.5000
N21330 X223.4559 Y7.0997 I-1.5000 J-0.0000
N21340 G02 X223.4559 Y35.8766 I32.2236 J14.3884
N21350 G03 X223.5863 Y36.4882 I-1.3697 J0.6116
N21360 X216.0863 Y43.9882 I-7.5000 J0.0000
N21370 X215.6653 Y43.9279 I-0.0000 J-1.5000
N21380 G02 X186.0863 Y39.6920 I-29.5790 J101.1561
N21390 G01 Z16.0000 F100.0
N21400 G02 X156.5073 Y43.9279 I-0.0000 J105.3920 F200.0
N21410 G03 X156.0863 Y43.9882 I-0.4210 J-1.4397
N21420 X148.5863 Y36.4882 I0.0000 J-7.5000
N21430 X148.7166 Y35.8766 I1.5000 J0.0000
N21440 G02 X148.7166 Y7.0997 I-32.2236 J-14.3884
N21450 G03 X148.5863 Y6.4882 I1.3697 J-0.6116
N21460 X156.0863 Y-1.0118 I7.5000 J-0.0000
N21470 X156.5073 Y-0.9515 I0.0000 J1.5000
N21480 G02 X215.6653 Y-0.9515 I29.5790 J-101.1561
N21490 G03 X216.0863 Y-1.0118 I0.4210 J1.4397
N21500 X223.5863 Y6.4882 I-0.0000 J7.5000
N21510 X223.4559 Y7.0997 I-1.5000 J-0.0000
N21520 G02 X223.4559 Y35.8766 I32.2236 J14.3884
N21530 G03 X223.5863 Y36.4882 I-1.3697 J0.6116
N21540 X216.0863 Y43.9882 I-7.5000 J0.0000
N21550 X215.6653 Y43.9279 I-0.0000 J-1.5000
N21560 (Part: Betsy Motor Mount Plate Duplicate 7)
N21570 G02 X186.0863 Y39.6920 I-29.5790 J101.1561
N21580 (Operation: Outside Offset, Motor Mount Outer Contour, T8: 3.00mm Fish-tail, Diamond-cut [Zn] router, 4.5 mm Deep)
N21590 G00 Z30.5000
N21600 X110.2468 Y39.5602
N21610 Z25.5000
N21620 G01 Z18.2500 F100.0
N21630 G02 X80.6678 Y43.7961 I-0.0000 J105.3920 F200.0
N21640 G03 X80.2468 Y43.8564 I-0.4210 J-1.4397
N21650 X72.7468 Y36.3564 I0.0000 J-7.5000
N21660 X72.8771 Y35.7448 I1.5000 J0.0000
N21670 G02 X72.8771 Y6.9680 I-32.2236 J-14.3884
N21680 G03 X72.7468 Y6.3564 I1.3697 J-0.6116
N21690 X80.2468 Y-1.1436 I7.5000 J-0.0000
N21700 X80.6678 Y-1.0833 I0.0000 J1.5000
N21710 G02 X139.8258 Y-1.0833 I29.5790 J-101.1561
N21720 G03 X140.2468 Y-1.1436 I0.4210 J1.4397
N21730 X147.7468 Y6.3564 I-0.0000 J7.5000
N21740 X147.6164 Y6.9680 I-1.5000 J-0.0000
N21750 G02 X147.6164 Y35.7448 I32.2236 J14.3884
N21760 G03 X147.7468 Y36.3564 I-1.3697 J0.6116
N21770 X140.2468 Y43.8564 I-7.5000 J0.0000
N21780 X139.8258 Y43.7961 I-0.0000 J-1.5000
N21790 G02 X110.2468 Y39.5602 I-29.5790 J101.1561
N21800 G01 Z16.0000 F100.0
N21810 G02 X80.6678 Y43.7961 I-0.0000 J105.3920 F200.0
N21820 G03 X80.2468 Y43.8564 I-0.4210 J-1.4397
N21830 X72.7468 Y36.3564 I0.0000 J-7.5000
N21840 X72.8771 Y35.7448 I1.5000 J0.0000
N21850 G02 X72.8771 Y6.9680 I-32.2236 J-14.3884
N21860 G03 X72.7468 Y6.3564 I1.3697 J-0.6116
N21870 X80.2468 Y-1.1436 I7.5000 J-0.0000
N21880 X80.6678 Y-1.0833 I0.0000 J1.5000
N21890 G02 X139.8258 Y-1.0833 I29.5790 J-101.1561
N21900 G03 X140.2468 Y-1.1436 I0.4210 J1.4397
N21910 X147.7468 Y6.3564 I-0.0000 J7.5000
N21920 X147.6164 Y6.9680 I-1.5000 J-0.0000
N21930 G02 X147.6164 Y35.7448 I32.2236 J14.3884
N21940 G03 X147.7468 Y36.3564 I-1.3697 J0.6116
N21950 X140.2468 Y43.8564 I-7.5000 J0.0000
N21960 X139.8258 Y43.7961 I-0.0000 J-1.5000
N21970 (Part: SourceX_v1.1_bottom_plate_4mm)
N21980 G02 X110.2468 Y39.5602 I-29.5790 J101.1561
N21990 (Operation: Drill, 3.0mm Holes, T8: 3.00mm Fish-tail, Diamond-cut [Zn] router, 4.5 mm Deep)
N22000 G00 Z30.5000
N22010 X131.4937 Y127.5460
N22020 Z25.5000
N22030 G01 Z18.5000 F100.0
N22040 G00 Z21.5000
N22050 G01 Z16.5000
N22060 G00 Z19.5000
N22070 G01 Z16.0000
N22080 G00 Z30.5000
N22090 X117.9937
N22100 Z25.5000
N22110 G01 Z18.5000
N22120 G00 Z21.5000
N22130 G01 Z16.5000
N22140 G00 Z19.5000
N22150 G01 Z16.0000
N22160 G00 Z30.5000
N22170 X101.6187
N22180 Z25.5000
N22190 G01 Z18.5000
N22200 G00 Z21.5000
N22210 G01 Z16.5000
N22220 G00 Z19.5000
N22230 G01 Z16.0000
N22240 G00 Z30.5000
N22250 X87.4937
N22260 Z25.5000
N22270 G01 Z18.5000
N22280 G00 Z21.5000
N22290 G01 Z16.5000
N22300 G00 Z19.5000
N22310 G01 Z16.0000
N22320 G00 Z30.5000
N22330 X71.1187
N22340 Z25.5000
N22350 G01 Z18.5000
N22360 G00 Z21.5000
N22370 G01 Z16.5000
N22380 G00 Z19.5000
N22390 G01 Z16.0000
N22400 G00 Z30.5000
N22410 X54.7437
N22420 Z25.5000
N22430 G01 Z18.5000
N22440 G00 Z21.5000
N22450 G01 Z16.5000
N22460 G00 Z19.5000
N22470 G01 Z16.0000
N22480 G00 Z30.5000
N22490 X24.2437
N22500 Z25.5000
N22510 G01 Z18.5000
N22520 G00 Z21.5000
N22530 G01 Z16.5000
N22540 G00 Z19.5000
N22550 G01 Z16.0000
N22560 G00 Z30.5000
N22570 X11.5358 Y131.2960
N22580 Z25.5000
N22590 G01 Z18.5000
N22600 G00 Z21.5000
N22610 G01 Z16.5000
N22620 G00 Z19.5000
N22630 G01 Z16.0000
N22640 G00 Z30.5000
N22650 X24.2437 Y97.0460
N22660 Z25.5000
N22670 G01 Z18.5000
N22680 G00 Z21.5000
N22690 G01 Z16.5000
N22700 G00 Z19.5000
N22710 G01 Z16.0000
N22720 G00 Z30.5000
N22730 X11.5358 Y93.2960
N22740 Z25.5000
N22750 G01 Z18.5000
N22760 G00 Z21.5000
N22770 G01 Z16.5000
N22780 G00 Z19.5000
N22790 G01 Z16.0000
N22800 G00 Z30.5000
N22810 X54.7437 Y97.0460
N22820 Z25.5000
N22830 G01 Z18.5000
N22840 G00 Z21.5000
N22850 G01 Z16.5000
N22860 G00 Z19.5000
N22870 G01 Z16.0000
N22880 G00 Z30.5000
N22890 X71.1187
N22900 Z25.5000
N22910 G01 Z18.5000
N22920 G00 Z21.5000
N22930 G01 Z16.5000
N22940 G00 Z19.5000
N22950 G01 Z16.0000
N22960 G00 Z30.5000
N22970 X87.4937
N22980 Z25.5000
N22990 G01 Z18.5000
N23000 G00 Z21.5000
N23010 G01 Z16.5000
N23020 G00 Z19.5000
N23030 G01 Z16.0000
N23040 G00 Z30.5000
N23050 X101.6187
N23060 Z25.5000
N23070 G01 Z18.5000
N23080 G00 Z21.5000
N23090 G01 Z16.5000
N23100 G00 Z19.5000
N23110 G01 Z16.0000
N23120 G00 Z30.5000
N23130 X117.9937
N23140 Z25.5000
N23150 G01 Z18.5000
N23160 G00 Z21.5000
N23170 G01 Z16.5000
N23180 G00 Z19.5000
N23190 G01 Z16.0000
N23200 G00 Z30.5000
N23210 X131.4937
N23220 Z25.5000
N23230 G01 Z18.5000
N23240 G00 Z21.5000
N23250 G01 Z16.5000
N23260 G00 Z19.5000
N23270 G01 Z16.0000
N23280 G00 Z30.5000
N23290 X161.9937
N23300 Z25.5000
N23310 G01 Z18.5000
N23320 G00 Z21.5000
N23330 G01 Z16.5000
N23340 G00 Z19.5000
N23350 G01 Z16.0000
N23360 G00 Z30.5000
N23370 X175.4937
N23380 Z25.5000
N23390 G01 Z18.5000
N23400 G00 Z21.5000
N23410 G01 Z16.5000
N23420 G00 Z19.5000
N23430 G01 Z16.0000
N23440 G00 Z30.5000
N23450 X191.8687
N23460 Z25.5000
N23470 G01 Z18.5000
N23480 G00 Z21.5000
N23490 G01 Z16.5000
N23500 G00 Z19.5000
N23510 G01 Z16.0000
N23520 G00 Z30.5000
N23530 X205.9937
N23540 Z25.5000
N23550 G01 Z18.5000
N23560 G00 Z21.5000
N23570 G01 Z16.5000
N23580 G00 Z19.5000
N23590 G01 Z16.0000
N23600 G00 Z30.5000
N23610 X222.3687
N23620 Z25.5000
N23630 G01 Z18.5000
N23640 G00 Z21.5000
N23650 G01 Z16.5000
N23660 G00 Z19.5000
N23670 G01 Z16.0000
N23680 G00 Z30.5000
N23690 X235.0987 Y94.7960
N23700 Z25.5000
N23710 G01 Z18.5000
N23720 G00 Z21.5000
N23730 G01 Z16.5000
N23740 G00 Z19.5000
N23750 G01 Z16.0000
N23760 G00 Z30.5000
N23770 Y129.7960
N23780 Z25.5000
N23790 G01 Z18.5000
N23800 G00 Z21.5000
N23810 G01 Z16.5000
N23820 G00 Z19.5000
N23830 G01 Z16.0000
N23840 G00 Z30.5000
N23850 X222.3687 Y127.5460
N23860 Z25.5000
N23870 G01 Z18.5000
N23880 G00 Z21.5000
N23890 G01 Z16.5000
N23900 G00 Z19.5000
N23910 G01 Z16.0000
N23920 G00 Z30.5000
N23930 X205.9937
N23940 Z25.5000
N23950 G01 Z18.5000
N23960 G00 Z21.5000
N23970 G01 Z16.5000
N23980 G00 Z19.5000
N23990 G01 Z16.0000
N24000 G00 Z30.5000
N24010 X191.8687
N24020 Z25.5000
N24030 G01 Z18.5000
N24040 G00 Z21.5000
N24050 G01 Z16.5000
N24060 G00 Z19.5000
N24070 G01 Z16.0000
N24080 G00 Z30.5000
N24090 X175.4937
N24100 Z25.5000
N24110 G01 Z18.5000
N24120 G00 Z21.5000
N24130 G01 Z16.5000
N24140 G00 Z19.5000
N24150 G01 Z16.0000
N24160 G00 Z30.5000
N24170 X161.9937
N24180 Z25.5000
N24190 G01 Z18.5000
N24200 G00 Z21.5000
N24210 G01 Z16.5000
N24220 G00 Z19.5000
N24230 G01 Z16.0000
N24240 G00 Z30.5000
N24250 X146.7437 Y154.2960
N24260 Z25.5000
N24270 G01 Z18.5000
N24280 G00 Z21.5000
N24290 G01 Z16.5000
N24300 G00 Z19.5000
N24310 G01 Z16.0000
N24320 G00 Z30.5000
N24330 Y70.2960
N24340 Z25.5000
N24350 G01 Z18.5000
N24360 G00 Z21.5000
N24370 G01 Z16.5000
N24380 G00 Z19.5000
N24390 G01 Z16.0000
N24400 G00 Z30.5000
N24410 X270.0987 Y94.7960
N24420 Z25.5000
N24430 G01 Z18.5000
N24440 G00 Z21.5000
N24450 G01 Z16.5000
N24460 G00 Z19.5000
N24470 G01 Z16.0000
N24480 G00 Z30.5000
N24490 Y129.7960
N24500 Z25.5000
N24510 G01 Z18.5000
N24520 G00 Z21.5000
N24530 G01 Z16.5000
N24540 G00 Z19.5000
N24550 G01 Z16.0000
N24560 G00 Z30.5000
N24570 (Operation: Inside Offset, 1.5mm Pocket Countersink, T8: 3.00mm Fish-tail, Diamond-cut [Zn] router, 1.8 mm Deep)
N24580 X132.9079 Y128.9602
N24590 Z25.5000
N24600 G01 Z18.7000
N24610 G02 X132.9079 Y128.9602 I-1.4142 J-1.4142 F200.0
N24620 G00 Z30.5000
N24630 X116.5795
N24640 Z25.5000
N24650 G01 Z18.7000 F100.0
N24660 G02 X116.5795 Y128.9602 I1.4142 J-1.4142 F200.0
N24670 G00 Z30.5000
N24680 X100.2045
N24690 Z25.5000
N24700 G01 Z18.7000 F100.0
N24710 G02 X100.2045 Y128.9602 I1.4142 J-1.4142 F200.0
N24720 G00 Z30.5000
N24730 X86.0795
N24740 Z25.5000
N24750 G01 Z18.7000 F100.0
N24760 G02 X86.0795 Y128.9602 I1.4142 J-1.4142 F200.0
N24770 G00 Z30.5000
N24780 X69.7045
N24790 Z25.5000
N24800 G01 Z18.7000 F100.0
N24810 G02 X69.7045 Y128.9602 I1.4142 J-1.4142 F200.0
N24820 G00 Z30.5000
N24830 X53.3295
N24840 Z25.5000
N24850 G01 Z18.7000 F100.0
N24860 G02 X53.3295 Y128.9602 I1.4142 J-1.4142 F200.0
N24870 G00 Z30.5000
N24880 X22.8295
N24890 Z25.5000
N24900 G01 Z18.7000 F100.0
N24910 G02 X22.8295 Y128.9602 I1.4142 J-1.4142 F200.0
N24920 G00 Z30.5000
N24930 X10.1216 Y129.8818
N24940 Z25.5000
N24950 G01 Z18.7000 F100.0
N24960 G02 X10.1216 Y129.8818 I1.4142 J1.4142 F200.0
N24970 G00 Z30.5000
N24980 X22.8295 Y95.6318
N24990 Z25.5000
N25000 G01 Z18.7000 F100.0
N25010 G02 X22.8295 Y95.6318 I1.4142 J1.4142 F200.0
N25020 G00 Z30.5000
N25030 X10.1216 Y94.7102
N25040 Z25.5000
N25050 G01 Z18.7000 F100.0
N25060 G02 X10.1216 Y94.7102 I1.4142 J-1.4142 F200.0
N25070 G00 Z30.5000
N25080 X56.1579 Y95.6318
N25090 Z25.5000
N25100 G01 Z18.7000 F100.0
N25110 G02 X56.1579 Y95.6318 I-1.4142 J1.4142 F200.0
N25120 G00 Z30.5000
N25130 X72.5329
N25140 Z25.5000
N25150 G01 Z18.7000 F100.0
N25160 G02 X72.5329 Y95.6318 I-1.4142 J1.4142 F200.0
N25170 G00 Z30.5000
N25180 X88.9079
N25190 Z25.5000
N25200 G01 Z18.7000 F100.0
N25210 G02 X88.9079 Y95.6318 I-1.4142 J1.4142 F200.0
N25220 G00 Z30.5000
N25230 X103.0329
N25240 Z25.5000
N25250 G01 Z18.7000 F100.0
N25260 G02 X103.0329 Y95.6318 I-1.4142 J1.4142 F200.0
N25270 G00 Z30.5000
N25280 X119.4079
N25290 Z25.5000
N25300 G01 Z18.7000 F100.0
N25310 G02 X119.4079 Y95.6318 I-1.4142 J1.4142 F200.0
N25320 G00 Z30.5000
N25330 X132.9079
N25340 Z25.5000
N25350 G01 Z18.7000 F100.0
N25360 G02 X132.9079 Y95.6318 I-1.4142 J1.4142 F200.0
N25370 G00 Z30.5000
N25380 X145.3295 Y68.8818
N25390 Z25.5000
N25400 G01 Z18.7000 F100.0
N25410 G02 X145.3295 Y68.8818 I1.4142 J1.4142 F200.0
N25420 G00 Z30.5000
N25430 X160.5795 Y98.4602
N25440 Z25.5000
N25450 G01 Z18.7000 F100.0
N25460 G02 X160.5795 Y98.4602 I1.4142 J-1.4142 F200.0
N25470 G00 Z30.5000
N25480 X176.9079
N25490 Z25.5000
N25500 G01 Z18.7000 F100.0
N25510 G02 X176.9079 Y98.4602 I-1.4142 J-1.4142 F200.0
N25520 G00 Z30.5000
N25530 X193.2829
N25540 Z25.5000
N25550 G01 Z18.7000 F100.0
N25560 G02 X193.2829 Y98.4602 I-1.4142 J-1.4142 F200.0
N25570 G00 Z30.5000
N25580 X207.4079
N25590 Z25.5000
N25600 G01 Z18.7000 F100.0
N25610 G02 X207.4079 Y98.4602 I-1.4142 J-1.4142 F200.0
N25620 G00 Z30.5000
N25630 X223.7829
N25640 Z25.5000
N25650 G01 Z18.7000 F100.0
N25660 G02 X223.7829 Y98.4602 I-1.4142 J-1.4142 F200.0
N25670 G00 Z30.5000
N25680 X236.5129 Y96.2102
N25690 Z25.5000
N25700 G01 Z18.7000 F100.0
N25710 G02 X236.5129 Y96.2102 I-1.4142 J-1.4142 F200.0
N25720 G00 Z30.5000
N25730 Y131.2102
N25740 Z25.5000
N25750 G01 Z18.7000 F100.0
N25760 G02 X236.5129 Y131.2102 I-1.4142 J-1.4142 F200.0
N25770 G00 Z30.5000
N25780 X220.9545 Y128.9602
N25790 Z25.5000
N25800 G01 Z18.7000 F100.0
N25810 G02 X220.9545 Y128.9602 I1.4142 J-1.4142 F200.0
N25820 G00 Z30.5000
N25830 X204.5795
N25840 Z25.5000
N25850 G01 Z18.7000 F100.0
N25860 G02 X204.5795 Y128.9602 I1.4142 J-1.4142 F200.0
N25870 G00 Z30.5000
N25880 X190.4545
N25890 Z25.5000
N25900 G01 Z18.7000 F100.0
N25910 G02 X190.4545 Y128.9602 I1.4142 J-1.4142 F200.0
N25920 G00 Z30.5000
N25930 X174.0795
N25940 Z25.5000
N25950 G01 Z18.7000 F100.0
N25960 G02 X174.0795 Y128.9602 I1.4142 J-1.4142 F200.0
N25970 G00 Z30.5000
N25980 X160.5795
N25990 Z25.5000
N26000 G01 Z18.7000 F100.0
N26010 G02 X160.5795 Y128.9602 I1.4142 J-1.4142 F200.0
N26020 G00 Z30.5000
N26030 X148.1579 Y155.7102
N26040 Z25.5000
N26050 G01 Z18.7000 F100.0
N26060 G02 X148.1579 Y155.7102 I-1.4142 J-1.4142 F200.0
N26070 (Operation: Inside Offset, 3.4mm Holes, T8: 3.00mm Fish-tail, Diamond-cut [Zn] router, 4.5 mm Deep)
N26080 G00 Z30.5000
N26090 X165.8955 Y156.3667
N26100 Z25.5000
N26110 G01 Z16.0000 F100.0
N26120 G02 X165.8955 Y156.3667 I0.0707 J-0.0707 F200.0
N26130 G00 Z30.5000
N26140 X196.0369
N26150 Z25.5000
N26160 G01 Z16.0000 F100.0
N26170 G02 X196.0369 Y156.3667 I-0.0707 J-0.0707 F200.0
N26180 G00 Z30.5000
N26190 X127.3955
N26200 Z25.5000
N26210 G01 Z16.0000 F100.0
N26220 G02 X127.3955 Y156.3667 I0.0707 J-0.0707 F200.0
N26230 G00 Z30.5000
N26240 X97.3955
N26250 Z25.5000
N26260 G01 Z16.0000 F100.0
N26270 G02 X97.3955 Y156.3667 I0.0707 J-0.0707 F200.0
N26280 G00 Z30.5000
N26290 X81.6294 Y125.0966
N26300 Z25.5000
N26310 G01 Z16.0000 F100.0
N26320 G02 X81.6294 Y125.0966 I-0.1414 J0.1414 F200.0
N26330 G00 Z30.5000
N26340 Y99.0966
N26350 Z25.5000
N26360 G01 Z16.0000 F100.0
N26370 G02 X81.6294 Y99.0966 I-0.1414 J0.1414 F200.0
N26380 G00 Z30.5000
N26390 X97.3955 Y68.2253
N26400 Z25.5000
N26410 G01 Z16.0000 F100.0
N26420 G02 X97.3955 Y68.2253 I0.0707 J0.0707 F200.0
N26430 G00 Z30.5000
N26440 X127.5369
N26450 Z25.5000
N26460 G01 Z16.0000 F100.0
N26470 G02 X127.5369 Y68.2253 I-0.0707 J0.0707 F200.0
N26480 G00 Z30.5000
N26490 X166.0369
N26500 Z25.5000
N26510 G01 Z16.0000 F100.0
N26520 G02 X166.0369 Y68.2253 I-0.0707 J0.0707 F200.0
N26530 G00 Z30.5000
N26540 X196.0369
N26550 Z25.5000
N26560 G01 Z16.0000 F100.0
N26570 G02 X196.0369 Y68.2253 I-0.0707 J0.0707 F200.0
N26580 G00 Z30.5000
N26590 X19.3466 Y112.0966
N26600 Z25.5000
N26610 G01 Z16.0000 F100.0
N26620 G02 X19.3466 Y112.0966 I0.1414 J0.1414 F200.0
N26630 G00 Z30.5000
N26640 X12.3466
N26650 Z25.5000
N26660 G01 Z16.0000 F100.0
N26670 G02 X12.3466 Y112.0966 I0.1414 J0.1414 F200.0
N26680 (Operation: Inside Offset, Arm Fixtures, T8: 3.00mm Fish-tail, Diamond-cut [Zn] router, 4.5 mm Deep)
N26690 G00 Z30.5000
N26700 X55.3261 Y163.1630
N26710 Z25.5000
N26720 G01 Z16.0000 F100.0
N26730 G02 X55.3261 Y163.1630 I1.7678 J1.7678 F200.0
N26740 G00 Z30.5000
N26750 X17.6909 Y210.3444
N26760 Z25.5000
N26770 G01 Z16.0000 F100.0
N26780 G02 X17.6909 Y210.3444 I-1.7678 J-1.7678 F200.0
N26790 G00 Z30.5000
N26800 X55.3261 Y57.8936
N26810 Z25.5000
N26820 G01 Z16.0000 F100.0
N26830 G02 X55.3261 Y57.8936 I1.7678 J1.7678 F200.0
N26840 G00 Z30.5000
N26850 X17.6909 Y14.2476
N26860 Z25.5000
N26870 G01 Z16.0000 F100.0
N26880 G02 X17.6909 Y14.2476 I-1.7678 J1.7678 F200.0
N26890 G00 Z30.5000
N26900 X238.1612 Y57.8936
N26910 Z25.5000
N26920 G01 Z16.0000 F100.0
N26930 G02 X238.1612 Y57.8936 I-1.7678 J1.7678 F200.0
N26940 G00 Z30.5000
N26950 X275.7965 Y14.2476
N26960 Z25.5000
N26970 G01 Z16.0000 F100.0
N26980 G02 X275.7965 Y14.2476 I1.7678 J1.7678 F200.0
N26990 G00 Z30.5000
N27000 X238.1612 Y166.6985
N27010 Z25.5000
N27020 G01 Z16.0000 F100.0
N27030 G02 X238.1612 Y166.6985 I-1.7678 J-1.7678 F200.0
N27040 G00 Z30.5000
N27050 X275.7965 Y210.3444
N27060 Z25.5000
N27070 G01 Z16.0000 F100.0
N27080 (Part: Betsy Motor Mount Plate Duplicate 4)
N27090 G02 X275.7965 Y210.3444 I1.7678 J-1.7678 F200.0
N27100 (Operation: Outside Offset, Motor Mount Outer Contour, T8: 3.00mm Fish-tail, Diamond-cut [Zn] router, 4.5 mm Deep)
N27110 G00 Z30.5000
N27120 X185.8282 Y222.2931
N27130 Z25.5000
N27140 G01 Z18.2500 F100.0
N27150 G02 X156.2492 Y226.5291 I-0.0000 J105.3920 F200.0
N27160 G03 X155.8282 Y226.5893 I-0.4210 J-1.4397
N27170 X148.3282 Y219.0893 I0.0000 J-7.5000
N27180 X148.4586 Y218.4778 I1.5000 J0.0000
N27190 G02 X148.4586 Y189.7009 I-32.2236 J-14.3884
N27200 G03 X148.3282 Y189.0893 I1.3697 J-0.6116
N27210 X155.8282 Y181.5893 I7.5000 J-0.0000
N27220 X156.2492 Y181.6496 I0.0000 J1.5000
N27230 G02 X215.4072 Y181.6496 I29.5790 J-101.1561
N27240 G03 X215.8282 Y181.5893 I0.4210 J1.4397
N27250 X223.3282 Y189.0893 I-0.0000 J7.5000
N27260 X223.1979 Y189.7009 I-1.5000 J-0.0000
N27270 G02 X223.1979 Y218.4778 I32.2236 J14.3884
N27280 G03 X223.3282 Y219.0893 I-1.3697 J0.6116
N27290 X215.8282 Y226.5893 I-7.5000 J0.0000
N27300 X215.4072 Y226.5291 I-0.0000 J-1.5000
N27310 G02 X185.8282 Y222.2931 I-29.5790 J101.1561
N27320 G01 Z16.0000 F100.0
N27330 G02 X156.2492 Y226.5291 I-0.0000 J105.3920 F200.0
N27340 G03 X155.8282 Y226.5893 I-0.4210 J-1.4397
N27350 X148.3282 Y219.0893 I0.0000 J-7.5000
N27360 X148.4586 Y218.4778 I1.5000 J0.0000
N27370 G02 X148.4586 Y189.7009 I-32.2236 J-14.3884
N27380 G03 X148.3282 Y189.0893 I1.3697 J-0.6116
N27390 X155.8282 Y181.5893 I7.5000 J-0.0000
N27400 X156.2492 Y181.6496 I0.0000 J1.5000
N27410 G02 X215.4072 Y181.6496 I29.5790 J-101.1561
N27420 G03 X215.8282 Y181.5893 I0.4210 J1.4397
N27430 X223.3282 Y189.0893 I-0.0000 J7.5000
N27440 X223.1979 Y189.7009 I-1.5000 J-0.0000
N27450 G02 X223.1979 Y218.4778 I32.2236 J14.3884
N27460 G03 X223.3282 Y219.0893 I-1.3697 J0.6116
N27470 X215.8282 Y226.5893 I-7.5000 J0.0000
N27480 X215.4072 Y226.5291 I-0.0000 J-1.5000
N27490 (Part: Betsy Motor Mount Plate Duplicate 5)
N27500 G02 X185.8282 Y222.2931 I-29.5790 J101.1561
N27510 (Operation: Outside Offset, Motor Mount Outer Contour, T8: 3.00mm Fish-tail, Diamond-cut [Zn] router, 4.5 mm Deep)
N27520 G00 Z30.5000
N27530 X185.9435 Y267.9579
N27540 Z25.5000
N27550 G01 Z18.2500 F100.0
N27560 G02 X156.3644 Y272.1938 I-0.0000 J105.3920 F200.0
N27570 G03 X155.9435 Y272.2541 I-0.4210 J-1.4397
N27580 X148.4435 Y264.7541 I0.0000 J-7.5000
N27590 X148.5738 Y264.1425 I1.5000 J0.0000
N27600 G02 X148.5738 Y235.3657 I-32.2236 J-14.3884
N27610 G03 X148.4435 Y234.7541 I1.3697 J-0.6116
N27620 X155.9435 Y227.2541 I7.5000 J-0.0000
N27630 X156.3644 Y227.3144 I0.0000 J1.5000
N27640 G02 X215.5225 Y227.3144 I29.5790 J-101.1561
N27650 G03 X215.9435 Y227.2541 I0.4210 J1.4397
N27660 X223.4435 Y234.7541 I-0.0000 J7.5000
N27670 X223.3131 Y235.3657 I-1.5000 J-0.0000
N27680 G02 X223.3131 Y264.1425 I32.2236 J14.3884
N27690 G03 X223.4435 Y264.7541 I-1.3697 J0.6116
N27700 X215.9435 Y272.2541 I-7.5000 J0.0000
N27710 X215.5225 Y272.1938 I-0.0000 J-1.5000
N27720 G02 X185.9435 Y267.9579 I-29.5790 J101.1561
N27730 G01 Z16.0000 F100.0
N27740 G02 X156.3644 Y272.1938 I-0.0000 J105.3920 F200.0
N27750 G03 X155.9435 Y272.2541 I-0.4210 J-1.4397
N27760 X148.4435 Y264.7541 I0.0000 J-7.5000
N27770 X148.5738 Y264.1425 I1.5000 J0.0000
N27780 G02 X148.5738 Y235.3657 I-32.2236 J-14.3884
N27790 G03 X148.4435 Y234.7541 I1.3697 J-0.6116
N27800 X155.9435 Y227.2541 I7.5000 J-0.0000
N27810 X156.3644 Y227.3144 I0.0000 J1.5000
N27820 G02 X215.5225 Y227.3144 I29.5790 J-101.1561
N27830 G03 X215.9435 Y227.2541 I0.4210 J1.4397
N27840 X223.4435 Y234.7541 I-0.0000 J7.5000
N27850 X223.3131 Y235.3657 I-1.5000 J-0.0000
N27860 G02 X223.3131 Y264.1425 I32.2236 J14.3884
N27870 G03 X223.4435 Y264.7541 I-1.3697 J0.6116
N27880 X215.9435 Y272.2541 I-7.5000 J0.0000
N27890 X215.5225 Y272.1938 I-0.0000 J-1.5000
N27900 (Part: Betsy Motor Mount Plate Duplicate 3)
N27910 G02 X185.9435 Y267.9579 I-29.5790 J101.1561
N27920 (Operation: Outside Offset, Motor Mount Outer Contour, T8: 3.00mm Fish-tail, Diamond-cut [Zn] router, 4.5 mm Deep)
N27930 G00 Z30.5000
N27940 X109.7890 Y268.2073
N27950 Z25.5000
N27960 G01 Z18.2500 F100.0
N27970 G02 X80.2100 Y272.4432 I-0.0000 J105.3920 F200.0
N27980 G03 X79.7890 Y272.5035 I-0.4210 J-1.4397
N27990 X72.2890 Y265.0035 I0.0000 J-7.5000
N28000 X72.4193 Y264.3919 I1.5000 J0.0000
N28010 G02 X72.4193 Y235.6151 I-32.2236 J-14.3884
N28020 G03 X72.2890 Y235.0035 I1.3697 J-0.6116
N28030 X79.7890 Y227.5035 I7.5000 J-0.0000
N28040 X80.2100 Y227.5638 I0.0000 J1.5000
N28050 G02 X139.3680 Y227.5638 I29.5790 J-101.1561
N28060 G03 X139.7890 Y227.5035 I0.4210 J1.4397
N28070 X147.2890 Y235.0035 I-0.0000 J7.5000
N28080 X147.1586 Y235.6151 I-1.5000 J-0.0000
N28090 G02 X147.1586 Y264.3919 I32.2236 J14.3884
N28100 G03 X147.2890 Y265.0035 I-1.3697 J0.6116
N28110 X139.7890 Y272.5035 I-7.5000 J0.0000
N28120 X139.3680 Y272.4432 I-0.0000 J-1.5000
N28130 G02 X109.7890 Y268.2073 I-29.5790 J101.1561
N28140 G01 Z16.0000 F100.0
N28150 G02 X80.2100 Y272.4432 I-0.0000 J105.3920 F200.0
N28160 G03 X79.7890 Y272.5035 I-0.4210 J-1.4397
N28170 X72.2890 Y265.0035 I0.0000 J-7.5000
N28180 X72.4193 Y264.3919 I1.5000 J0.0000
N28190 G02 X72.4193 Y235.6151 I-32.2236 J-14.3884
N28200 G03 X72.2890 Y235.0035 I1.3697 J-0.6116
N28210 X79.7890 Y227.5035 I7.5000 J-0.0000
N28220 X80.2100 Y227.5638 I0.0000 J1.5000
N28230 G02 X139.3680 Y227.5638 I29.5790 J-101.1561
N28240 G03 X139.7890 Y227.5035 I0.4210 J1.4397
N28250 X147.2890 Y235.0035 I-0.0000 J7.5000
N28260 X147.1586 Y235.6151 I-1.5000 J-0.0000
N28270 G02 X147.1586 Y264.3919 I32.2236 J14.3884
N28280 G03 X147.2890 Y265.0035 I-1.3697 J0.6116
N28290 X139.7890 Y272.5035 I-7.5000 J0.0000
N28300 X139.3680 Y272.4432 I-0.0000 J-1.5000
N28310 (Part: Betsy Motor Mount Plate Duplicate 2)
N28320 G02 X109.7890 Y268.2073 I-29.5790 J101.1561
N28330 (Operation: Outside Offset, Motor Mount Outer Contour, T8: 3.00mm Fish-tail, Diamond-cut [Zn] router, 4.5 mm Deep)
N28340 G00 Z30.5000
N28350 X108.4049 Y222.5800
N28360 Z25.5000
N28370 G01 Z18.2500 F100.0
N28380 G02 X78.8259 Y226.8159 I-0.0000 J105.3920 F200.0
N28390 G03 X78.4049 Y226.8762 I-0.4210 J-1.4397
N28400 X70.9049 Y219.3762 I0.0000 J-7.5000
N28410 X71.0353 Y218.7646 I1.5000 J0.0000
N28420 G02 X71.0353 Y189.9878 I-32.2236 J-14.3884
N28430 G03 X70.9049 Y189.3762 I1.3697 J-0.6116
N28440 X78.4049 Y181.8762 I7.5000 J-0.0000
N28450 X78.8259 Y181.9365 I0.0000 J1.5000
N28460 G02 X137.9839 Y181.9365 I29.5790 J-101.1561
N28470 G03 X138.4049 Y181.8762 I0.4210 J1.4397
N28480 X145.9049 Y189.3762 I-0.0000 J7.5000
N28490 X145.7746 Y189.9878 I-1.5000 J-0.0000
N28500 G02 X145.7746 Y218.7646 I32.2236 J14.3884
N28510 G03 X145.9049 Y219.3762 I-1.3697 J0.6116
N28520 X138.4049 Y226.8762 I-7.5000 J0.0000
N28530 X137.9839 Y226.8159 I-0.0000 J-1.5000
N28540 G02 X108.4049 Y222.5800 I-29.5790 J101.1561
N28550 G01 Z16.0000 F100.0
N28560 G02 X78.8259 Y226.8159 I-0.0000 J105.3920 F200.0
N28570 G03 X78.4049 Y226.8762 I-0.4210 J-1.4397
N28580 X70.9049 Y219.3762 I0.0000 J-7.5000
N28590 X71.0353 Y218.7646 I1.5000 J0.0000
N28600 G02 X71.0353 Y189.9878 I-32.2236 J-14.3884
N28610 G03 X70.9049 Y189.3762 I1.3697 J-0.6116
N28620 X78.4049 Y181.8762 I7.5000 J-0.0000
N28630 X78.8259 Y181.9365 I0.0000 J1.5000
N28640 G02 X137.9839 Y181.9365 I29.5790 J-101.1561
N28650 G03 X138.4049 Y181.8762 I0.4210 J1.4397
N28660 X145.9049 Y189.3762 I-0.0000 J7.5000
N28670 X145.7746 Y189.9878 I-1.5000 J-0.0000
N28680 G02 X145.7746 Y218.7646 I32.2236 J14.3884
N28690 G03 X145.9049 Y219.3762 I-1.3697 J0.6116
N28700 X138.4049 Y226.8762 I-7.5000 J0.0000
N28710 X137.9839 Y226.8159 I-0.0000 J-1.5000
N28720 (Part: SourceX_v1.1_bottom_plate_4mm)
N28730 G02 X108.4049 Y222.5800 I-29.5790 J101.1561
N28740 (Operation: Outside Offset, Outer Contour, T8: 3.00mm Fish-tail, Diamond-cut [Zn] router, 4.5 mm Deep)
N28750 G00 Z30.5000
N28760 X130.9561 Y162.0043
N28770 Z25.5000
N28780 G01 Z16.0000 F100.0
N28790 G02 X129.7281 Y162.6098 I1.3532 J4.2917 F200.0
N28800 G01 X119.3968 Y169.8439
N28810 G03 X117.9629 Y170.2960 I-1.4339 J-2.0479
N28820 G01 X116.5935
N28830 G03 X115.1595 Y169.8439 I0.0000 J-2.5000
N28840 G01 X112.9489 Y168.2960
N28850 X111.8948
N28860 X109.6842 Y169.8439
N28870 G03 X108.2503 Y170.2960 I-1.4339 J-2.0479
N28880 G01 X106.8809
N28890 G03 X105.4469 Y169.8439 I0.0000 J-2.5000
N28900 G01 X103.2363 Y168.2960
N28910 X102.1822
N28920 X99.9716 Y169.8439
N28930 G03 X98.5377 Y170.2960 I-1.4339 J-2.0479
N28940 G01 X97.1683
N28950 G03 X95.7344 Y169.8439 I0.0000 J-2.5000
N28960 G01 X93.5238 Y168.2960
N28970 X92.4696
N28980 X90.7756 Y169.4822
N28990 G03 X88.1945 Y170.2960 I-2.5811 J-3.6862
N29000 G01 X84.9854
N29010 G02 X83.8943 Y170.7668 I0.0000 J1.5000
N29020 G01 X72.6996 Y182.6344
N29030 G03 X69.8114 Y184.2467 I-4.0009 J-3.7740
N29040 G01 X63.2724 Y185.5975
N29050 G02 X59.8590 Y187.5029 I1.3150 J6.3656
N29060 G01 X28.9389 Y220.2819
N29070 G03 X26.0614 Y222.1785 I-5.4557 J-5.1463
N29080 G01 X15.9535 Y225.8787
N29090 G03 X12.3487 Y225.1381 I-1.2032 J-3.2867
N29100 G01 X-0.4016 Y213.1108
N29110 G03 X-1.3513 Y209.5553 I2.4016 J-2.5460
N29120 G01 X17.7349 Y146.1926
N29130 G02 X17.0486 Y144.4609 I-1.4363 J-0.4326
N29140 G01 X2.7858 Y136.2263
N29150 G03 X1.0358 Y133.1952 I1.7500 J-3.0311
N29160 G01 Y129.3969
N29170 G03 X2.7858 Y126.3658 I3.5000 J0.0000
N29180 G01 X7.7858 Y123.4790
N29190 G02 X8.0358 Y123.0460 I-0.2500 J-0.4330
N29200 G01 Y101.5460
N29210 G02 X7.7858 Y101.1130 I-0.5000 J0.0000
N29220 G01 X2.7858 Y98.2263
N29230 G03 X1.0358 Y95.1952 I1.7500 J-3.0311
N29240 G01 Y91.3969
N29250 G03 X2.7858 Y88.3658 I3.5000 J0.0000
N29260 G01 X17.0486 Y80.1311
N29270 G02 X17.7349 Y78.3995 I-0.7500 J-1.2990
N29280 G01 X-1.3513 Y15.0367
N29290 G03 X-0.4016 Y11.4812 I3.3513 J-1.0095
N29300 G01 X12.3487 Y-0.5460
N29310 G03 X15.9535 Y-1.2867 I2.4016 J2.5460
N29320 G01 X26.0614 Y2.4136
N29330 G03 X28.9389 Y4.3101 I-2.5783 J7.0429
N29340 G01 X59.8590 Y37.0891
N29350 G02 X63.2724 Y38.9946 I4.7283 J-4.4602
N29360 G01 X69.8114 Y40.3453
N29370 G03 X72.6996 Y41.9576 I-1.1126 J5.3863
N29380 G01 X83.8943 Y53.8253
N29390 G02 X84.9854 Y54.2960 I1.0911 J-1.0293
N29400 G01 X88.1945
N29410 G03 X90.7756 Y55.1098 I-0.0000 J4.5000
N29420 G01 X92.4696 Y56.2960
N29430 X93.5238
N29440 X95.7344 Y54.7481
N29450 G03 X97.1683 Y54.2960 I1.4339 J2.0479
N29460 G01 X98.5377
N29470 G03 X99.9716 Y54.7481 I-0.0000 J2.5000
N29480 G01 X102.1822 Y56.2960
N29490 X103.2363
N29500 X105.4469 Y54.7481
N29510 G03 X106.8809 Y54.2960 I1.4339 J2.0479
N29520 G01 X108.2503
N29530 G03 X109.6842 Y54.7481 I-0.0000 J2.5000
N29540 G01 X111.8948 Y56.2960
N29550 X112.9489
N29560 X115.1595 Y54.7481
N29570 G03 X116.5935 Y54.2960 I1.4339 J2.0479
N29580 G01 X117.9629
N29590 G03 X119.3968 Y54.7481 I0.0000 J2.5000
N29600 G01 X129.7281 Y61.9822
N29610 G02 X132.3092 Y62.7960 I2.5811 J-3.6862
N29620 G01 X161.1781
N29630 G02 X163.7592 Y61.9822 I0.0000 J-4.5000
N29640 G01 X174.0905 Y54.7481
N29650 G03 X175.5245 Y54.2960 I1.4339 J2.0479
N29660 G01 X176.8939
N29670 G03 X178.3278 Y54.7481 I-0.0000 J2.5000
N29680 G01 X180.5384 Y56.2960
N29690 X181.5925
N29700 X183.8031 Y54.7481
N29710 G03 X185.2371 Y54.2960 I1.4339 J2.0479
N29720 G01 X186.6065
N29730 G03 X188.0404 Y54.7481 I-0.0000 J2.5000
N29740 G01 X190.2510 Y56.2960
N29750 X191.3051
N29760 X193.5157 Y54.7481
N29770 G03 X194.9497 Y54.2960 I1.4339 J2.0479
N29780 G01 X196.3191
N29790 G03 X197.7530 Y54.7481 I-0.0000 J2.5000
N29800 G01 X199.9636 Y56.2960
N29810 X201.0177
N29820 X202.7118 Y55.1098
N29830 G03 X205.2929 Y54.2960 I2.5811 J3.6862
N29840 G01 X208.5020
N29850 G02 X209.5931 Y53.8253 I-0.0000 J-1.5000
N29860 G01 X220.7878 Y41.9576
N29870 G03 X223.6760 Y40.3453 I4.0009 J3.7740
N29880 G01 X230.2150 Y38.9946
N29890 G02 X233.6284 Y37.0891 I-1.3150 J-6.3656
N29900 G01 X264.5484 Y4.3101
N29910 G03 X267.4259 Y2.4136 I5.4557 J5.1463
N29920 G01 X277.5338 Y-1.2867
N29930 G03 X281.1387 Y-0.5460 I1.2032 J3.2867
N29940 G01 X293.8890 Y11.4812
N29950 G03 X294.8386 Y15.0367 I-2.4016 J2.5460
N29960 G01 X272.7920 Y88.2278
N29970 X275.7481 Y89.3037
N29980 G03 X277.9978 Y91.9849 I-1.1971 J3.2889
N29990 G01 X278.1482 Y92.8378
N30000 G02 X278.4696 Y93.2208 I0.4924 J-0.0868
N30010 G01 X285.8327 Y95.9007
N30020 G03 X289.4516 Y101.0690 I-1.8811 J5.1683
N30030 G01 Y123.5230
N30040 G03 X285.8327 Y128.6913 I-5.5000 J0.0000
N30050 G01 X278.4696 Y131.3713
N30060 G02 X278.1482 Y131.7543 I0.1710 J0.4698
N30070 G01 X277.9978 Y132.6072
N30080 G03 X275.7481 Y135.2883 I-3.4468 J-0.6078
N30090 G01 X272.7920 Y136.3642
N30100 X294.8386 Y209.5553
N30110 G03 X293.8890 Y213.1108 I-3.3513 J1.0095
N30120 G01 X281.1387 Y225.1381
N30130 G03 X277.5338 Y225.8787 I-2.4016 J-2.5460
N30140 G01 X267.4259 Y222.1785
N30150 G03 X264.5484 Y220.2819 I2.5783 J-7.0429
N30160 G01 X233.6284 Y187.5029
N30170 G02 X230.2150 Y185.5975 I-4.7283 J4.4602
N30180 G01 X223.6760 Y184.2467
N30190 G03 X220.7878 Y182.6344 I1.1126 J-5.3863
N30200 G01 X209.5931 Y170.7668
N30210 G02 X208.5020 Y170.2960 I-1.0911 J1.0293
N30220 G01 X205.2929
N30230 G03 X202.7118 Y169.4822 I0.0000 J-4.5000
N30240 G01 X201.0177 Y168.2960
N30250 X199.9636
N30260 X197.7530 Y169.8439
N30270 G03 X196.3191 Y170.2960 I-1.4339 J-2.0479
N30280 G01 X194.9497
N30290 G03 X193.5157 Y169.8439 I0.0000 J-2.5000
N30300 G01 X191.3051 Y168.2960
N30310 X190.2510
N30320 X188.0404 Y169.8439
N30330 G03 X186.6065 Y170.2960 I-1.4339 J-2.0479
N30340 G01 X185.2371
N30350 G03 X183.8031 Y169.8439 I0.0000 J-2.5000
N30360 G01 X181.5925 Y168.2960
N30370 X180.5384
N30380 X178.3278 Y169.8439
N30390 G03 X176.8939 Y170.2960 I-1.4339 J-2.0479
N30400 G01 X175.5245
N30410 G03 X174.0905 Y169.8439 I-0.0000 J-2.5000
N30420 G01 X163.7592 Y162.6098
N30430 G02 X161.1781 Y161.7960 I-2.5811 J3.6862
N30440 G01 X132.3092
N30450 (Part: Betsy Motor Mount Plate)
N30460 G02 X130.9561 Y162.0043 I-0.0000 J4.5000
N30470 (Operation: Outside Offset, Motor Mount Outer Contour, T8: 3.00mm Fish-tail, Diamond-cut [Zn] router, 4.5 mm Deep)
N30480 G00 Z30.5000
N30490 X108.2605 Y453.7541
N30500 Z25.5000
N30510 G01 Z18.2500 F100.0
N30520 G02 X78.6814 Y457.9900 I-0.0000 J105.3920 F200.0
N30530 G03 X78.2605 Y458.0503 I-0.4210 J-1.4397
N30540 X70.7605 Y450.5503 I0.0000 J-7.5000
N30550 X70.8908 Y449.9387 I1.5000 J0.0000
N30560 G02 X70.8908 Y421.1619 I-32.2236 J-14.3884
N30570 G03 X70.7605 Y420.5503 I1.3697 J-0.6116
N30580 X78.2605 Y413.0503 I7.5000 J-0.0000
N30590 X78.6814 Y413.1106 I0.0000 J1.5000
N30600 G02 X137.8395 Y413.1106 I29.5790 J-101.1561
N30610 G03 X138.2605 Y413.0503 I0.4210 J1.4397
N30620 X145.7605 Y420.5503 I-0.0000 J7.5000
N30630 X145.6301 Y421.1619 I-1.5000 J-0.0000
N30640 G02 X145.6301 Y449.9387 I32.2236 J14.3884
N30650 G03 X145.7605 Y450.5503 I-1.3697 J0.6116
N30660 X138.2605 Y458.0503 I-7.5000 J0.0000
N30670 X137.8395 Y457.9900 I-0.0000 J-1.5000
N30680 G02 X108.2605 Y453.7541 I-29.5790 J101.1561
N30690 G01 Z16.0000 F100.0
N30700 G02 X78.6814 Y457.9900 I-0.0000 J105.3920 F200.0
N30710 G03 X78.2605 Y458.0503 I-0.4210 J-1.4397
N30720 X70.7605 Y450.5503 I0.0000 J-7.5000
N30730 X70.8908 Y449.9387 I1.5000 J0.0000
N30740 G02 X70.8908 Y421.1619 I-32.2236 J-14.3884
N30750 G03 X70.7605 Y420.5503 I1.3697 J-0.6116
N30760 X78.2605 Y413.0503 I7.5000 J-0.0000
N30770 X78.6814 Y413.1106 I0.0000 J1.5000
N30780 G02 X137.8395 Y413.1106 I29.5790 J-101.1561
N30790 G03 X138.2605 Y413.0503 I0.4210 J1.4397
N30800 X145.7605 Y420.5503 I-0.0000 J7.5000
N30810 X145.6301 Y421.1619 I-1.5000 J-0.0000
N30820 G02 X145.6301 Y449.9387 I32.2236 J14.3884
N30830 G03 X145.7605 Y450.5503 I-1.3697 J0.6116
N30840 X138.2605 Y458.0503 I-7.5000 J0.0000
N30850 X137.8395 Y457.9900 I-0.0000 J-1.5000
N30860 (Part: Betsy Motor Mount Plate Duplicate 1)
N30870 G02 X108.2605 Y453.7541 I-29.5790 J101.1561
N30880 (Operation: Outside Offset, Motor Mount Outer Contour, T8: 3.00mm Fish-tail, Diamond-cut [Zn] router, 4.5 mm Deep)
N30890 G00 Z30.5000
N30900 X185.4402 Y453.5982
N30910 Z25.5000
N30920 G01 Z18.2500 F100.0
N30930 G02 X155.8612 Y457.8341 I-0.0000 J105.3920 F200.0
N30940 G03 X155.4402 Y457.8944 I-0.4210 J-1.4397
N30950 X147.9402 Y450.3944 I0.0000 J-7.5000
N30960 X148.0706 Y449.7828 I1.5000 J0.0000
N30970 G02 X148.0706 Y421.0060 I-32.2236 J-14.3884
N30980 G03 X147.9402 Y420.3944 I1.3697 J-0.6116
N30990 X155.4402 Y412.8944 I7.5000 J-0.0000
N31000 X155.8612 Y412.9547 I0.0000 J1.5000
N31010 G02 X215.0192 Y412.9547 I29.5790 J-101.1561
N31020 G03 X215.4402 Y412.8944 I0.4210 J1.4397
N31030 X222.9402 Y420.3944 I-0.0000 J7.5000
N31040 X222.8099 Y421.0060 I-1.5000 J-0.0000
N31050 G02 X222.8099 Y449.7828 I32.2236 J14.3884
N31060 G03 X222.9402 Y450.3944 I-1.3697 J0.6116
N31070 X215.4402 Y457.8944 I-7.5000 J0.0000
N31080 X215.0192 Y457.8341 I-0.0000 J-1.5000
N31090 G02 X185.4402 Y453.5982 I-29.5790 J101.1561
N31100 G01 Z16.0000 F100.0
N31110 G02 X155.8612 Y457.8341 I-0.0000 J105.3920 F200.0
N31120 G03 X155.4402 Y457.8944 I-0.4210 J-1.4397
N31130 X147.9402 Y450.3944 I0.0000 J-7.5000
N31140 X148.0706 Y449.7828 I1.5000 J0.0000
N31150 G02 X148.0706 Y421.0060 I-32.2236 J-14.3884
N31160 G03 X147.9402 Y420.3944 I1.3697 J-0.6116
N31170 X155.4402 Y412.8944 I7.5000 J-0.0000
N31180 X155.8612 Y412.9547 I0.0000 J1.5000
N31190 G02 X215.0192 Y412.9547 I29.5790 J-101.1561
N31200 G03 X215.4402 Y412.8944 I0.4210 J1.4397
N31210 X222.9402 Y420.3944 I-0.0000 J7.5000
N31220 X222.8099 Y421.0060 I-1.5000 J-0.0000
N31230 G02 X222.8099 Y449.7828 I32.2236 J14.3884
N31240 G03 X222.9402 Y450.3944 I-1.3697 J0.6116
N31250 X215.4402 Y457.8944 I-7.5000 J0.0000
N31260 X215.0192 Y457.8341 I-0.0000 J-1.5000
N31270 G02 X185.4402 Y453.5982 I-29.5790 J101.1561
N31280 G00 Z30.5000
N31290 M09 (Coolant off)
N31300 M05
N31310 M05 M30
